; HEADER_BLOCK_START
; generated by OrcaSlicer 1.6.6 on 2023-11-27 at 15:46:43
; total layer number: 71
; HEADER_BLOCK_END

; THUMBNAIL_BLOCK_START
; THUMBNAIL_BLOCK_END

; external perimeters extrusion width = 0.48mm
; perimeters extrusion width = 0.48mm
; infill extrusion width = 0.48mm
; solid infill extrusion width = 0.48mm
; top infill extrusion width = 0.48mm
; support material extrusion width = 0.40mm
; first layer extrusion width = 0.60mm

; external perimeters extrusion width = 0.48mm
; perimeters extrusion width = 0.48mm
; infill extrusion width = 0.48mm
; solid infill extrusion width = 0.48mm
; top infill extrusion width = 0.48mm
; support material extrusion width = 0.40mm
; first layer extrusion width = 0.60mm

; external perimeters extrusion width = 0.48mm
; perimeters extrusion width = 0.48mm
; infill extrusion width = 0.48mm
; solid infill extrusion width = 0.48mm
; top infill extrusion width = 0.48mm
; support material extrusion width = 0.40mm
; first layer extrusion width = 0.60mm

; external perimeters extrusion width = 0.48mm
; perimeters extrusion width = 0.48mm
; infill extrusion width = 0.48mm
; solid infill extrusion width = 0.48mm
; top infill extrusion width = 0.48mm
; support material extrusion width = 0.40mm
; first layer extrusion width = 0.60mm

; external perimeters extrusion width = 0.48mm
; perimeters extrusion width = 0.48mm
; infill extrusion width = 0.48mm
; solid infill extrusion width = 0.48mm
; top infill extrusion width = 0.48mm
; support material extrusion width = 0.40mm
; first layer extrusion width = 0.60mm

; external perimeters extrusion width = 0.48mm
; perimeters extrusion width = 0.48mm
; infill extrusion width = 0.48mm
; solid infill extrusion width = 0.48mm
; top infill extrusion width = 0.48mm
; support material extrusion width = 0.40mm
; first layer extrusion width = 0.60mm

; EXECUTABLE_BLOCK_START
EXCLUDE_OBJECT_DEFINE NAME=8.5mm_NEMA14_20T_Jig_v2.stl_id_0_copy_0 CENTER=102.447,86.0108 POLYGON=[[96.6967,74.073],[96.6967,72.7608],[98.6967,71.7608],[108.197,71.7608],[108.197,100.261],[98.6967,100.261],[96.6967,99.2608],[96.6967,97.9487],[96.6967,74.073]]
EXCLUDE_OBJECT_DEFINE NAME=17.5mm_NEMA14_20T_Jig_v2.stl_id_1_copy_0 CENTER=69.4015,87.8843 POLYGON=[[59.1515,75.212],[59.1515,74.6343],[61.1515,73.6343],[79.6515,73.6343],[79.6515,102.134],[61.1515,102.134],[59.1515,101.134],[59.1515,100.557],[59.1515,75.212]]
EXCLUDE_OBJECT_DEFINE NAME=25mm_1515_Jig_v2.stl_id_2_copy_0 CENTER=26.8521,39.0196 POLYGON=[[20.8521,27.0196],[20.8724,26.735],[20.9331,26.4562],[21.0328,26.1888],[21.1696,25.9383],[21.3406,25.7099],[21.5423,25.5081],[21.7708,25.3371],[22.0212,25.2004],[22.2886,25.1006],[22.5674,25.04],[22.8521,25.0196],[30.8521,25.0196],[31.1367,25.04],[31.4155,25.1006],[31.6829,25.2004],[31.9333,25.3371],[32.1618,25.5081],[32.3636,25.7099],[32.5346,25.9383],[32.6713,26.1888],[32.771,26.4562],[32.8317,26.735],[32.8521,27.0196],[32.8521,53.0196],[20.8521,53.0196],[20.8521,27.0196]]
EXCLUDE_OBJECT_DEFINE NAME=33mm_1515_Jig_v3.stl_id_3_copy_0 CENTER=28.1442,79.6189 POLYGON=[[22.1442,63.6189],[22.1688,63.306],[22.2421,63.0008],[22.3622,62.7109],[22.5262,62.4433],[22.73,62.2047],[22.9686,62.0008],[23.2362,61.8369],[23.5262,61.7168],[23.8313,61.6435],[24.1442,61.6189],[32.1442,61.6189],[32.4571,61.6435],[32.7623,61.7168],[33.0522,61.8369],[33.3198,62.0008],[33.5584,62.2047],[33.7623,62.4433],[33.9262,62.7109],[34.0463,63.0008],[34.1196,63.306],[34.1442,63.6189],[34.1442,97.6189],[22.1442,97.6189],[22.1442,63.6189]]
EXCLUDE_OBJECT_DEFINE NAME=37mm_1515_Jig_v3.stl_id_4_copy_0 CENTER=84.7496,36.2577 POLYGON=[[78.7496,18.2577],[78.7742,17.9448],[78.8475,17.6397],[78.9676,17.3497],[79.1316,17.0821],[79.3354,16.8435],[79.5741,16.6397],[79.8416,16.4757],[80.1316,16.3556],[80.4368,16.2823],[80.7496,16.2577],[88.7496,16.2577],[89.0625,16.2823],[89.3677,16.3556],[89.6576,16.4757],[89.9252,16.6397],[90.1638,16.8435],[90.3677,17.0821],[90.5316,17.3497],[90.6517,17.6397],[90.725,17.9448],[90.7496,18.2577],[90.7496,56.2577],[78.7496,56.2577],[78.7496,18.2577]]
EXCLUDE_OBJECT_DEFINE NAME=38mm_1515_Jig_v6.stl_id_5_copy_0 CENTER=51.7917,43.2402 POLYGON=[[45.7917,24.7402],[45.8163,24.4273],[45.8896,24.1222],[46.0097,23.8322],[46.1737,23.5646],[46.3775,23.326],[46.6161,23.1222],[46.8837,22.9582],[47.1737,22.8381],[47.4788,22.7648],[47.7917,22.7402],[55.7917,22.7402],[56.1046,22.7648],[56.4097,22.8381],[56.6997,22.9582],[56.9673,23.1222],[57.2059,23.326],[57.4097,23.5646],[57.5737,23.8322],[57.6938,24.1222],[57.7671,24.4273],[57.7917,24.7402],[57.7917,63.7402],[45.7917,63.7402],[45.7917,24.7402]]
M73 P0 R21
;TYPE:Custom
M104 S0
M140 S0

print_start EXTRUDER=280 BED=110

G92 E0.0
G90
G21
M83 ; use relative distances for extrusion
; Filament gcode
SET_PRESSURE_ADVANCE ADVANCE=0.015; Override pressure advance value
M106 S0
;LAYER_CHANGE
;Z:0.2
;HEIGHT:0.2
;BEFORE_LAYER_CHANGE
;0.2
G92 E0

G1 E-.5 F1800
;AFTER_LAYER_CHANGE
;0.2
SET_VELOCITY_LIMIT ACCEL=10000
SET_VELOCITY_LIMIT SQUARE_CORNER_VELOCITY=9
; printing object 37mm 1515 Jig v3.stl id:4 copy 0
EXCLUDE_OBJECT_START NAME=37mm_1515_Jig_v3.stl_id_4_copy_0
G1 X87.087 Y38.804 F30000
G1 Z.2
G1 E.5 F1800
;TYPE:Outer wall
;WIDTH:0.6
G1 F6000
G1 X87.087 Y35.619 E.13457
G1 X89.1 Y35.619 E.08503
G1 X89.1 Y41.42 E.24509
G1 X87.583 Y41.42 E.0641
G1 X87.082 Y40.98 E.02818
G1 X86.657 Y40.647 E.02278
G1 X86.204 Y40.351 E.02287
G1 X85.733 Y40.073 E.0231
G1 X85.14 Y39.771 E.0281
G1 X84.538 Y39.5 E.0279
G1 X83.916 Y39.278 E.0279
G1 X83.28 Y39.085 E.02809
G1 X82.707 Y38.951 E.02485
G1 X82.133 Y38.844 E.02467
G1 X81.553 Y38.783 E.02462
G1 X80.673 Y38.736 E.03723
G1 X80.673 Y36.654 E.08795
G1 X82.298 Y36.812 E.06896
G1 X82.743 Y36.889 E.01908
G1 X83.594 Y37.109 E.03712
G1 X84.434 Y37.383 E.03736
G1 X85.266 Y37.737 E.03817
G1 X86.069 Y38.137 E.03792
G1 X86.465 Y38.372 E.01944
G1 X87.054 Y38.781 E.03031
G1 E-.35 F1800
;WIPE_START
G1 F6000
G1 X87.065 Y37.781 E-.1425
;WIPE_END
G1 E-.0075 F1800
G17
G3 Z.3 I.304 J.019 P1  F30000
G1 X87.129 Y36.774 Z.3
G1 X87.387 Y35.918
G1 X88.692 Y35.061
G1 Z.2
G1 E.5 F1800
;TYPE:Inner wall
G1 F6000
G1 X88.614 Y34.836 E.01006
G1 X88.836 Y34.662 E.01191
G1 X89.237 Y34.154 E.02736
G1 X89.421 Y33.867 E.0144
G1 X89.632 Y33.425 E.02068
G1 X89.893 Y33.485 E.01127
G1 X89.893 Y35.061 E.06662
G1 X88.732 Y35.061 E.04904
G1 E-.35 F1800
;WIPE_START
G1 F6000
G1 X88.614 Y34.836 E-.0362
G1 X88.836 Y34.662 E-.04016
G1 X89.123 Y34.298 E-.06614
;WIPE_END
G1 E-.0075 F1800
G17
G3 Z.3 I.304 J-.016 P1  F30000
G1 X89.001 Y31.942 Z.3
G1 X88.979 Y31.629
G1 X88.933 Y31.315
G1 X88.869 Y30.991
G1 X88.783 Y30.699
G1 X88.671 Y30.402
G1 X88.516 Y30.109
G1 X88.319 Y29.809
G1 X88.045 Y29.502
G1 X87.752 Y29.216
G1 X87.391 Y29.073
G1 X86.348 Y29.022
G1 X83.741 Y31.947
G1 Z.2
G1 E.5 F1800
G1 F6000
G1 X83.786 Y32.143 E.00848
G1 X83.804 Y32.321 E.00756
G1 X83.79 Y32.428 E.00455
G1 X83.631 Y32.521 E.00779
G1 X83.419 Y32.548 E.00903
G1 X83.176 Y32.517 E.01034
G1 X83.025 Y32.433 E.00733
G1 X82.973 Y32.375 E.00329
G1 X82.973 Y32.183 E.00809
G1 X83.137 Y32.072 E.00836
G1 X83.227 Y32.044 E.00399
G1 X83.701 Y31.955 E.02039
G1 E-.5 F1800
G17
G3 Z.3 I.199 J.23 P1  F30000
G1 X86.627 Y29.431 Z.3
G1 Z.2
G1 E.5 F1800
;TYPE:Outer wall
G1 F6000
G1 X87.567 Y29.688 E.04117
G1 X87.881 Y29.83 E.01453
G1 X88.188 Y30 E.01485
G1 X88.43 Y30.202 E.01331
G1 X88.645 Y30.423 E.01302
G1 X88.819 Y30.676 E.01299
G1 X88.968 Y30.946 E.013
G1 X89.087 Y31.264 E.01437
G1 X89.177 Y31.588 E.0142
G1 X89.223 Y31.92 E.01417
G1 X89.241 Y32.26 E.01437
G1 X89.19 Y32.799 E.02286
G1 X89.139 Y33.071 E.01172
G1 X89.055 Y33.34 E.0119
G1 X88.933 Y33.595 E.01194
G1 X88.783 Y33.83 E.01179
G1 X88.44 Y34.265 E.0234
G1 X88.102 Y34.53 E.01811
G1 X87.739 Y34.74 E.01774
G1 X87.334 Y34.855 E.01777
G1 X86.894 Y34.913 E.01878
G1 X86.293 Y34.786 E.02592
G1 X86.005 Y34.684 E.01293
G1 X85.736 Y34.532 E.01305
G1 X85.504 Y34.331 E.01296
G1 X85.321 Y34.118 E.01187
G1 X85.262 Y34.231 E.00538
G1 X85.041 Y34.522 E.01544
G1 X84.772 Y34.793 E.01612
G1 X84.444 Y34.999 E.01635
G1 X84.1 Y35.156 E.01597
G1 X83.731 Y35.235 E.01594
G1 X83.35 Y35.267 E.01618
G1 X82.804 Y35.201 E.02322
G1 X82.532 Y35.142 E.01176
G1 X82.265 Y35.05 E.01193
G1 X82.014 Y34.92 E.01193
G1 X81.784 Y34.764 E.01175
G1 X81.355 Y34.411 E.02344
G1 X81.009 Y33.948 E.02443
G1 X80.858 Y33.701 E.01223
G1 X80.734 Y33.436 E.01238
G1 X80.648 Y33.156 E.01236
G1 X80.594 Y32.872 E.0122
G1 X80.537 Y32.305 E.02408
G1 X80.582 Y31.779 E.02233
G1 X80.626 Y31.515 E.01128
G1 X80.697 Y31.253 E.01146
G1 X80.801 Y31.002 E.01149
G1 X80.93 Y30.767 E.01135
G1 X81.229 Y30.319 E.02275
G1 X81.617 Y29.971 E.02202
G1 X81.825 Y29.815 E.01099
G1 X82.053 Y29.68 E.01115
G1 X82.301 Y29.575 E.01141
G1 X82.78 Y29.451 E.02088
G1 X83.337 Y29.332 E.02408
G1 X83.589 Y31.409 E.0884
G1 X83.092 Y31.502 E.02136
G1 X82.913 Y31.558 E.0079
G1 X82.754 Y31.649 E.00773
G1 X82.611 Y31.759 E.00763
G1 X82.522 Y31.875 E.00619
G1 X82.453 Y32 E.00603
G1 X82.418 Y32.139 E.00605
G1 X82.401 Y32.289 E.0064
G1 X82.422 Y32.456 E.00709
G1 X82.465 Y32.604 E.0065
G1 X82.548 Y32.734 E.00651
G1 X82.655 Y32.857 E.0069
G1 X82.822 Y32.967 E.00842
G1 X83.001 Y33.05 E.00835
G1 X83.198 Y33.09 E.00851
G1 X83.42 Y33.106 E.00937
G1 X83.626 Y33.091 E.00876
G1 X83.809 Y33.053 E.00789
G1 X83.975 Y32.975 E.00773
G1 X84.128 Y32.872 E.00782
G1 X84.303 Y32.636 E.01242
G1 X84.363 Y32.337 E.01285
G1 X84.335 Y32.046 E.01238
G1 X84.161 Y31.292 E.03267
G1 X86.083 Y31.553 E.08195
G1 X86.097 Y32.042 E.02068
G1 X86.127 Y32.233 E.00817
G1 X86.198 Y32.407 E.00792
G1 X86.291 Y32.562 E.00764
G1 X86.518 Y32.727 E.01186
G1 X86.817 Y32.781 E.01283
G1 X87.053 Y32.745 E.01011
G1 X87.238 Y32.629 E.0092
G1 X87.353 Y32.447 E.0091
G1 X87.389 Y32.215 E.00994
G1 X87.343 Y31.964 E.01076
G1 X87.208 Y31.761 E.01031
G1 X86.938 Y31.588 E.01354
G1 X86.778 Y31.54 E.00704
G1 X86.284 Y31.454 E.02122
G1 X86.621 Y29.47 E.085
G1 E-.35 F1800
;WIPE_START
G1 F6000
G1 X87.567 Y29.688 E-.13841
G1 X87.593 Y29.7 E-.00409
;WIPE_END
G1 E-.0075 F1800
G17
G3 Z.3 I.217 J.213 P1  F30000
G1 X87.913 Y29.373 Z.3
G1 X88.045 Y29.502
G1 X88.319 Y29.809
G1 X88.516 Y30.109
G1 X88.671 Y30.402
G1 X88.783 Y30.699
G1 X88.869 Y30.991
G1 X88.933 Y31.315
G1 X88.979 Y31.629
G1 X89.001 Y31.942
G1 X89.01 Y32.256
G1 X88.985 Y32.77
G1 X88.96 Y33.027
G1 X88.917 Y33.286
G1 X88.849 Y33.548
G1 X88.758 Y33.813
G1 X85.973 Y36.845
G1 Z.2
G1 E.5 F1800
;TYPE:Inner wall
G1 F6000
G1 X85.732 Y36.725 E.01136
G1 X84.498 Y36.199 E.05668
G1 X84.974 Y35.982 E.02209
G1 X85.465 Y35.674 E.02448
G1 X85.973 Y35.855 E.0228
G1 X85.973 Y36.805 E.04013
G1 E-.5 F1800
G17
G3 Z.3 I.094 J-.289 P1  F30000
G1 X80.393 Y34.984 Z.3
G1 Z.2
G1 E.5 F1800
G1 F6000
G1 X80.543 Y35.186 E.01064
G1 X80.679 Y35.298 E.00743
G1 X80.584 Y35.526 E.01046
G1 X80.164 Y35.486 E.01785
G1 X80.164 Y35.06 E.01797
G1 X80.355 Y34.997 E.0085
G1 E-.35 F1800
;WIPE_START
G1 F6000
G1 X80.543 Y35.186 E-.03808
G1 X80.679 Y35.298 E-.02506
G1 X80.584 Y35.526 E-.03527
G1 X80.276 Y35.497 E-.0441
;WIPE_END
G1 E-.0075 F1800
G17
G3 Z.3 I-.302 J.039 P1  F30000
G1 X80.697 Y38.714 Z.3
G1 X85.262 Y41.746
G1 Z.2
G1 E.5 F1800
G1 F6000
G1 X85.683 Y42.007 E.02092
G1 X86.014 Y42.267 E.01777
G1 X86.953 Y43.091 E.05278
G1 X88.778 Y43.091 E.07713
G1 X88.778 Y54.286 E.47294
G1 X80.721 Y54.286 E.34039
G1 X80.721 Y40.412 E.58611
G1 X81.422 Y40.449 E.02965
G1 X81.891 Y40.499 E.01995
G1 X82.846 Y40.7 E.0412
G1 X83.392 Y40.866 E.02412
G1 X83.913 Y41.052 E.02337
G1 X84.417 Y41.279 E.02336
G1 X84.928 Y41.539 E.02423
G1 X85.228 Y41.725 E.0149
G1 X85.555 Y41.273 F30000
G1 F6000
G1 X86.007 Y41.554 E.02251
G1 X86.37 Y41.838 E.01944
G1 X87.163 Y42.534 E.04458
G1 X89.335 Y42.534 E.09179
G1 X89.335 Y54.844 E.52
G1 X80.164 Y54.844 E.38746
G1 X80.164 Y39.825 E.63446
G1 X81.466 Y39.894 E.05507
G1 X81.972 Y39.947 E.0215
G1 X82.99 Y40.162 E.04397
G1 X83.567 Y40.337 E.02544
G1 X84.121 Y40.535 E.02488
G1 X84.658 Y40.776 E.02487
G1 X85.196 Y41.051 E.02552
G1 X85.521 Y41.252 E.01613
G1 E-.35 F1800
;WIPE_START
G1 F6000
G1 X86.007 Y41.554 E-.08162
G1 X86.344 Y41.817 E-.06088
;WIPE_END
G1 E-.0075 F1800
G17
G3 Z.3 I-.04 J.302 P1  F30000
G1 X87.381 Y41.956 Z.3
G1 X88.939 Y41.259
G1 X89.01 Y32.256
G1 X89.001 Y31.942
G1 X88.979 Y31.629
G1 X88.933 Y31.315
G1 X88.869 Y30.991
G1 X88.783 Y30.699
G1 X88.671 Y30.402
G1 X88.516 Y30.109
G1 X88.319 Y29.809
G1 X88.045 Y29.502
G1 X87.752 Y29.216
G1 X85.289 Y27.33
G1 Z.2
G1 E.5 F1800
G1 F6000
G1 X85.159 Y28.097 E.03283
G1 X84.87 Y28.09 E.01221
G1 X84.776 Y27.314 E.03299
G1 X82.395 Y27.824 E.10284
G1 X81.763 Y27.988 E.02759
G1 X81.298 Y28.185 E.02133
G1 X80.721 Y28.526 E.02832
G1 X80.721 Y18.229 E.435
G1 X88.778 Y18.23 E.34039
G1 X88.778 Y28.402 E.42972
G1 X88.136 Y28.111 E.02979
G1 X85.328 Y27.341 E.12301
G1 E-.5 F1800
G17
G3 Z.3 I-.304 J.002 P1  F30000
G1 X85.345 Y30.328 Z.3
G1 Z.2
G1 E.5 F1800
G1 F6000
G1 X84.567 Y30.223 E.03314
G1 X84.296 Y27.987 E.09516
G1 X82.523 Y28.367 E.07659
G1 X81.942 Y28.517 E.02536
G1 X81.55 Y28.683 E.01802
G1 X81.206 Y28.886 E.01686
G1 X80.909 Y29.108 E.01565
G1 X80.164 Y29.778 E.04232
G1 X80.164 Y18.313 E.48431
G1 X80.197 Y18.078 E.01004
G1 X80.277 Y17.919 E.00753
G1 X80.344 Y17.842 E.00429
G1 X80.486 Y17.74 E.0074
G1 X80.659 Y17.683 E.00769
G1 X80.805 Y17.672 E.00621
G1 X88.704 Y17.673 E.33371
G1 X88.929 Y17.705 E.0096
G1 X89.091 Y17.787 E.00769
G1 X89.161 Y17.847 E.00386
G1 X89.218 Y17.913 E.0037
G1 X89.303 Y18.078 E.00783
G1 X89.335 Y18.313 E.01003
G1 X89.335 Y29.507 E.47287
G1 X88.821 Y29.077 E.02834
G1 X88.38 Y28.833 E.02125
G1 X87.946 Y28.637 E.02013
G1 X85.735 Y28.031 E.09686
G1 X85.351 Y30.289 E.09677
G1 E-.35 F1800
;WIPE_START
G1 F6000
G1 X84.567 Y30.223 E-.11211
G1 X84.542 Y30.011 E-.03039
;WIPE_END
G1 E-.0075 F1800
G17
G3 Z.3 I.146 J.267 P1  F30000
G1 X86.348 Y29.022 Z.3
G1 X87.391 Y29.073
G1 X87.752 Y29.216
G1 X88.045 Y29.502
G1 X88.319 Y29.809
G1 X88.516 Y30.109
G1 X88.671 Y30.402
G1 X88.783 Y30.699
G1 X88.869 Y30.991
G1 X88.933 Y31.315
G1 X88.979 Y31.629
G1 X89.001 Y31.942
G1 X89.893 Y55.401
G1 Z.2
G1 E.5 F1800
G1 F6000
G1 X79.607 Y55.401 E.43453
G1 X79.607 Y18.291 E1.56768
G1 X79.623 Y18.079 E.00899
G1 X79.665 Y17.905 E.00756
G1 X79.734 Y17.74 E.00756
G1 X79.826 Y17.589 E.00747
G1 X79.95 Y17.446 E.008
G1 X80.079 Y17.335 E.00721
G1 X80.232 Y17.242 E.00756
G1 X80.397 Y17.173 E.00756
G1 X80.571 Y17.131 E.00756
G1 X80.783 Y17.115 E.00898
G1 X88.726 Y17.116 E.33556
G1 X88.928 Y17.131 E.00855
G1 X89.102 Y17.173 E.00756
G1 X89.267 Y17.242 E.00756
G1 X89.42 Y17.335 E.00756
G1 X89.556 Y17.451 E.00756
G1 X89.671 Y17.586 E.00747
G1 X89.769 Y17.748 E.008
G1 X89.834 Y17.905 E.00721
G1 X89.876 Y18.079 E.00756
G1 X89.893 Y18.291 E.00899
G1 X89.893 Y31.044 E.53875
G1 X89.618 Y31.094 E.0118
G1 X89.475 Y30.712 E.01721
G1 X89.293 Y30.383 E.01588
G1 X89.077 Y30.068 E.01614
G1 X88.809 Y29.793 E.01624
G1 X88.504 Y29.538 E.01678
G1 X88.13 Y29.332 E.01805
G1 X87.757 Y29.163 E.01733
G1 X86.181 Y28.731 E.06901
G1 X85.804 Y30.953 E.09522
G1 X84.066 Y30.717 E.07407
G1 X83.817 Y28.659 E.08758
G1 X82.652 Y28.909 E.05033
G1 X82.122 Y29.046 E.02312
G1 X81.801 Y29.182 E.01471
G1 X81.516 Y29.35 E.01401
G1 X81.263 Y29.54 E.01332
G1 X80.805 Y29.951 E.02602
G1 X80.453 Y30.478 E.02674
G1 X80.298 Y30.761 E.01365
G1 X80.169 Y31.073 E.01427
G1 X80.081 Y31.396 E.01414
G1 X80.028 Y31.709 E.01341
G1 X79.977 Y32.31 E.02548
G1 X80.042 Y32.953 E.02731
G1 X80.107 Y33.29 E.01452
G1 X80.213 Y33.636 E.01528
G1 X80.366 Y33.965 E.01535
G1 X80.548 Y34.261 E.01465
G1 X80.949 Y34.799 E.02835
G1 X81.45 Y35.211 E.02739
G1 X81.729 Y35.4 E.01423
G1 X82.045 Y35.563 E.01502
G1 X82.381 Y35.679 E.01504
G1 X82.711 Y35.751 E.01426
G1 X83.34 Y35.827 E.02677
G1 X83.814 Y35.787 E.02008
G1 X84.276 Y35.688 E.01999
G1 X84.709 Y35.49 E.0201
G1 X85.122 Y35.231 E.02061
G1 X85.381 Y34.971 E.01549
G1 X85.773 Y35.192 E.01903
G1 X86.142 Y35.323 E.01654
G1 X86.53 Y35.405 E.01677
G1 X86.53 Y37.743 E.09877
G1 X85.499 Y37.231 E.04864
G1 X84.63 Y36.861 E.03989
G1 X83.75 Y36.574 E.03912
G1 X82.861 Y36.344 E.0388
G1 X82.373 Y36.259 E.02093
G1 X80.116 Y36.041 E.09577
G1 X80.116 Y39.265 E.1362
G1 X81.509 Y39.338 E.05894
