; HEADER_BLOCK_START
; generated by OrcaSlicer 1.6.6 on 2023-12-07 at 01:30:14
; total layer number: 56
; HEADER_BLOCK_END

; THUMBNAIL_BLOCK_START
; THUMBNAIL_BLOCK_END

; external perimeters extrusion width = 0.48mm
; perimeters extrusion width = 0.48mm
; infill extrusion width = 0.48mm
; solid infill extrusion width = 0.48mm
; top infill extrusion width = 0.48mm
; support material extrusion width = 0.40mm
; first layer extrusion width = 0.60mm

; EXECUTABLE_BLOCK_START
EXCLUDE_OBJECT_DEFINE NAME=adxl-nozzle-mount_id_0_copy_0 CENTER=57.6783,53.1467 POLYGON=[[45.0606,41.8103],[70.296,41.8103],[70.296,51.2103],[63.5092,64.4832],[51.8473,64.4832],[45.0606,51.2103],[45.0606,41.8103]]
M73 P0 R9
;TYPE:Custom
M104 S0
M140 S0

print_start EXTRUDER=280 BED=110

G92 E0.0
G90
G21
M83 ; use relative distances for extrusion
; Filament gcode
SET_PRESSURE_ADVANCE ADVANCE=0.015; Override pressure advance value
M106 S0
;LAYER_CHANGE
;Z:0.2
;HEIGHT:0.2
;BEFORE_LAYER_CHANGE
;0.2
G92 E0

G1 E-.5 F1800
;AFTER_LAYER_CHANGE
;0.2
SET_VELOCITY_LIMIT ACCEL=10000
SET_VELOCITY_LIMIT SQUARE_CORNER_VELOCITY=9
; printing object adxl-nozzle-mount id:0 copy 0
EXCLUDE_OBJECT_START NAME=adxl-nozzle-mount_id_0_copy_0
G1 X53.819 Y55.762 F30000
G1 Z.2
G1 E.5 F1800
;TYPE:Inner wall
;WIDTH:0.6
G1 F6000
G1 X54.094 Y55.988 E.01535
G1 X54.522 Y56.281 E.02237
G1 X54.707 Y56.386 E.00917
G1 X54.707 Y62.512 E.2642
G1 X53.819 Y62.512 E.03832
G1 X53.819 Y55.802 E.28935
G1 E-.5 F1800
G17
G3 Z.3 I.293 J-.082 P1  F30000
G1 X53.49 Y54.635 Z.3
G1 Z.2
G1 E.5 F1800
G1 F6000
G1 X53.57 Y54.741 E.00575
G1 X54.054 Y55.235 E.02983
G1 X54.428 Y55.542 E.02087
G1 X54.816 Y55.808 E.02029
G1 X55.264 Y56.06 E.02216
G1 X55.264 Y63.069 E.30226
G1 X53.261 Y63.069 E.08636
G1 X53.261 Y54.711 E.36045
G1 X53.452 Y54.647 E.00866
G1 E-.35 F1800
;WIPE_START
G1 F6000
G1 X53.57 Y54.741 E-.0215
G1 X54.054 Y55.235 E-.09856
G1 X54.176 Y55.335 E-.02244
;WIPE_END
G1 E-.0075 F1800
G17
G3 Z.3 I.287 J-.1 P1  F30000
G1 X53.25 Y52.673 Z.3
G1 X53.19 Y52.479
G1 X53.139 Y52.283
G1 X53.097 Y52.085
G1 X53.064 Y51.885
G1 X53.039 Y51.684
G1 X53.04 Y51.481
G1 X53.099 Y51.278
G1 X53.162 Y51.081
G1 X53.227 Y50.889
G1 X53.294 Y50.702
G1 X53.361 Y50.518
G1 X53.427 Y50.338
G1 X53.494 Y50.161
G1 X53.565 Y49.986
G1 X53.639 Y49.815
G1 X53.717 Y49.646
G1 X53.799 Y49.48
G1 X53.884 Y49.316
G1 X53.973 Y49.155
G1 X54.065 Y48.996
G1 X54.161 Y48.838
G1 X54.261 Y48.683
G1 X54.365 Y48.53
G1 X54.473 Y48.378
G1 X54.585 Y48.229
G1 X54.702 Y48.08
G1 X58.185 Y43.781
G1 Z.2
G1 E.5 F1800
G1 F6000
G1 X61.36 Y43.781 E.13691
G1 X60.192 Y45.803 E.10069
G1 X59.835 Y45.638 E.017
G1 X59.092 Y45.405 E.03356
G1 X58.326 Y45.27 E.03356
G1 X57.549 Y45.236 E.03356
G1 X56.773 Y45.304 E.03356
G1 X56.013 Y45.471 E.03356
G1 X55.302 Y45.729 E.03263
G1 X55.161 Y45.798 E.00676
G1 X53.997 Y43.781 E.10043
G1 X58.145 Y43.781 E.1789
G1 E-.5 F1800
G17
G3 Z.3 I-.294 J.077 P1  F30000
G1 X58.699 Y45.901 Z.3
G1 Z.2
G1 E.5 F1800
G1 F6000
G1 X58.265 Y45.825 E.01899
G1 X57.561 Y45.794 E.03042
G1 X56.858 Y45.856 E.03043
G1 X56.169 Y46.008 E.03042
G1 X55.52 Y46.243 E.02976
G1 X54.939 Y46.528 E.02791
G1 X53.032 Y43.224 E.1645
G1 X62.325 Y43.224 E.40076
G1 X60.42 Y46.523 E.16427
G1 X59.633 Y46.158 E.0374
G1 X58.96 Y45.947 E.03043
G1 X58.739 Y45.908 E.00971
G1 E-.35 F1800
;WIPE_START
G1 F6000
G1 X58.265 Y45.825 E-.06844
G1 X57.746 Y45.802 E-.07406
;WIPE_END
G1 E-.0075 F1800
G17
G3 Z.3 I-.156 J.261 P1  F30000
G1 X59.026 Y46.566 Z.3
G1 X59.209 Y46.681
G1 X59.379 Y46.816
G1 X59.542 Y46.953
G1 X59.699 Y47.092
G1 X59.85 Y47.231
G1 X59.996 Y47.369
G1 X60.137 Y47.506
G1 X60.275 Y47.648
G1 X60.407 Y47.79
G1 X60.533 Y47.934
G1 X60.654 Y48.08
G1 X60.771 Y48.229
G1 X60.883 Y48.378
G1 X60.991 Y48.53
G1 X61.095 Y48.683
G1 X61.195 Y48.838
G1 X61.291 Y48.996
G1 X61.384 Y49.155
G1 X61.473 Y49.316
G1 X61.558 Y49.48
G1 X61.639 Y49.646
G1 X61.717 Y49.815
G1 X61.792 Y49.986
G1 X61.862 Y50.161
G1 X61.929 Y50.338
G1 X61.995 Y50.518
G1 X62.062 Y50.702
G1 X62.129 Y50.889
G1 X62.195 Y51.081
G1 X62.258 Y51.278
G1 X62.317 Y51.481
G1 X62.318 Y51.684
G1 X62.293 Y51.883
G1 X62.259 Y52.085
G1 X61.538 Y55.762
G1 Z.2
G1 E.5 F1800
G1 F6000
G1 X61.538 Y62.512 E.29108
G1 X60.65 Y62.512 E.03832
G1 X60.65 Y56.383 E.26431
G1 X60.817 Y56.293 E.0082
G1 X61.263 Y55.988 E.0233
G1 X61.507 Y55.788 E.01362
G1 E-.5 F1800
G17
G3 Z.3 I.281 J.117 P1  F30000
G1 X62.095 Y54.372 Z.3
G1 Z.2
G1 E.5 F1800
G1 F6000
G1 X62.095 Y63.069 E.37507
G1 X60.092 Y63.069 E.08636
G1 X60.092 Y56.049 E.30272
G1 X60.527 Y55.816 E.02128
G1 X60.928 Y55.542 E.02095
G1 X61.292 Y55.244 E.02028
G1 X61.628 Y54.915 E.02029
G1 X62.069 Y54.402 E.02916
G1 E-.5 F1800
G17
G3 Z.3 I.294 J.078 P1  F30000
G1 X63.219 Y50.067 Z.3
G1 Z.2
G1 E.5 F1800
G1 F6000
G1 X63.868 Y50.067 E.02801
G1 X63.799 Y51.724 E.07151
G1 X63.689 Y52.478 E.03287
G1 X63.558 Y52.985 E.02257
G1 X63.389 Y53.471 E.02218
G1 X63.066 Y54.161 E.03288
G1 X62.652 Y54.844 E.03443
G1 X62.652 Y63.626 E.37873
G1 X59.535 Y63.626 E.13441
G1 X59.535 Y55.694 E.34206
G1 X59.696 Y55.63 E.00748
G1 X60.238 Y55.34 E.02648
G1 X60.594 Y55.096 E.0186
G1 X60.92 Y54.828 E.0182
G1 X61.222 Y54.534 E.0182
G1 X61.497 Y54.213 E.0182
G1 X61.749 Y53.862 E.01867
G1 X62.05 Y53.329 E.02641
G1 X62.221 Y52.932 E.0186
G1 X62.353 Y52.532 E.0182
G1 X62.452 Y52.112 E.0186
G1 X62.528 Y51.503 E.02648
G1 X62.534 Y51.071 E.0186
G1 X62.504 Y50.65 E.0182
G1 X62.436 Y50.225 E.0186
G1 X62.271 Y49.623 E.02689
G1 X62.026 Y49.04 E.02729
G1 X61.711 Y48.502 E.02689
G1 X61.449 Y48.147 E.019
G1 X61.027 Y47.689 E.02689
G1 X60.54 Y47.284 E.02729
G1 X60.006 Y46.945 E.02729
G1 X59.432 Y46.679 E.02729
G1 X58.828 Y46.489 E.02729
G1 X58.205 Y46.38 E.02729
G1 X57.573 Y46.353 E.02729
G1 X56.942 Y46.407 E.02729
G1 X56.324 Y46.544 E.02729
G1 X55.738 Y46.756 E.02689
G1 X55.343 Y46.95 E.019
G1 X54.816 Y47.284 E.02689
G1 X54.33 Y47.689 E.02729
G1 X53.901 Y48.154 E.02729
G1 X53.536 Y48.671 E.02729
G1 X53.241 Y49.231 E.02729
G1 X53.021 Y49.824 E.02729
G1 X52.881 Y50.441 E.02729
G1 X52.821 Y51.071 E.02729
G1 X52.844 Y51.694 E.02688
G1 X52.907 Y52.121 E.0186
G1 X53.006 Y52.541 E.0186
G1 X53.211 Y53.12 E.02648
G1 X53.398 Y53.508 E.0186
G1 X53.619 Y53.879 E.0186
G1 X53.993 Y54.377 E.02689
G1 X54.431 Y54.824 E.02695
G1 X54.763 Y55.096 E.01853
G1 X55.111 Y55.334 E.0182
G1 X55.479 Y55.542 E.0182
G1 X55.821 Y55.697 E.01622
G1 X55.821 Y63.626 E.34194
G1 X52.704 Y63.626 E.13441
G1 X52.704 Y54.844 E.37873
G1 X52.296 Y54.169 E.03405
G1 X52.063 Y53.7 E.02257
G1 X51.798 Y52.985 E.03287
G1 X51.669 Y52.481 E.02246
G1 X51.558 Y51.724 E.03298
G1 X51.488 Y50.067 E.07151
G1 X52.232 Y50.067 E.03207
G1 X54.286 Y46.51 E.17713
G1 X52.067 Y42.667 E.19136
G1 X63.29 Y42.667 E.48398
G1 X61.071 Y46.51 E.19136
G1 X63.125 Y50.067 E.17713
G1 X63.179 Y50.067 E.00234
G1 X63.446 Y49.51 F30000
;TYPE:Outer wall
G1 F6000
G1 X61.714 Y46.51 E.14939
G1 X63.446 Y43.51 E.14939
G1 X66.91 Y43.51 E.14939
G1 X68.642 Y46.51 E.14939
G1 X66.91 Y49.51 E.14939
G1 X63.486 Y49.51 E.14766
G1 E-.35 F1800
;WIPE_START
G1 F6000
G1 X62.978 Y48.649 E-.1425
;WIPE_END
G1 E-.0075 F1800
G17
G3 Z.3 I-.267 J.147 P1  F30000
G1 X63.449 Y49.506 Z.3
G1 X66.832 Y49.375
G1 X67.644 Y48.725
G1 X67.932 Y48.363
G1 X68.486 Y46.51
G1 X68.634 Y44.268
G1 Z.2
G1 E.5 F1800
;TYPE:Inner wall
G1 F6000
G1 X68.032 Y43.224 E.05195
G1 X68.882 Y43.224 E.03666
G1 X68.882 Y44.201 E.04212
G1 X68.673 Y44.257 E.00934
G1 E-.5 F1800
G17
G3 Z.3 I-.295 J.073 P1  F30000
G1 X69.191 Y46.347 Z.3
G1 Z.2
G1 E.5 F1800
G1 F6000
G1 X67.067 Y42.667 E.18322
G1 X69.439 Y42.667 E.10229
G1 X69.439 Y46.28 E.15581
G1 X69.23 Y46.336 E.00934
G1 E-.5 F1800
G17
G3 Z.3 I-.287 J-.1 P1  F30000
G1 X68.032 Y49.796 Z.3
G1 Z.2
G1 E.5 F1800
G1 F6000
G1 X68.634 Y48.753 E.05195
G1 X68.882 Y48.819 E.01106
G1 X68.882 Y49.796 E.04212
G1 X68.072 Y49.796 E.03493
G1 E-.5 F1800
G17
G3 Z.3 I-.148 J-.266 P1  F30000
G1 X67.067 Y50.353 Z.3
G1 Z.2
G1 E.5 F1800
G1 F6000
G1 X69.191 Y46.674 E.18322
G1 X69.439 Y46.74 E.01106
G1 X69.439 Y50.353 E.15581
G1 X67.107 Y50.353 E.10057
G1 E-.35 F1800
;WIPE_START
G1 F6000
G1 X67.6 Y49.483 E-.1425
;WIPE_END
G1 E-.0075 F1800
G17
G3 Z.3 I-.002 J-.304 P1  F30000
G1 X63.449 Y49.506 Z.3
G1 X59.209 Y46.681
G1 X59.026 Y46.566
G1 X58.823 Y46.512
G1 X58.616 Y46.466
G1 X58.411 Y46.43
G1 X58.202 Y46.403
G1 X57.993 Y46.385
G1 X57.783 Y46.375
G1 X57.573 Y46.375
G1 X57.362 Y46.385
G1 X57.154 Y46.403
G1 X56.946 Y46.43
G1 X56.737 Y46.467
G1 X56.534 Y46.512
G1 X56.331 Y46.566
G1 X56.147 Y46.682
G1 X51.91 Y49.51
G1 Z.2
G1 E.5 F1800
;TYPE:Outer wall
G1 F6000
G1 X48.446 Y49.51 E.14939
G1 X46.714 Y46.51 E.14939
G1 X48.446 Y43.51 E.14939
G1 X51.91 Y43.51 E.14939
G1 X53.642 Y46.51 E.14939
G1 X51.93 Y49.476 E.14767
G1 E-.35 F1800
;WIPE_START
G1 F6000
G1 X50.93 Y49.486 E-.1425
;WIPE_END
G1 E-.0075 F1800
G17
G3 Z.3 I.014 J-.304 P1  F30000
G1 X48.525 Y49.375 Z.3
M73 P1 R9
G1 X47.712 Y48.725
G1 X47.425 Y48.363
G1 X46.871 Y46.51
G1 X46.722 Y44.268
G1 Z.2
G1 E.5 F1800
;TYPE:Inner wall
G1 F6000
G1 X46.475 Y44.201 E.01106
G1 X46.475 Y43.224 E.04212
G1 X47.325 Y43.224 E.03666
G1 X46.742 Y44.233 E.05022
G1 E-.5 F1800
G17
G3 Z.3 I-.293 J-.08 P1  F30000
G1 X46.165 Y46.347 Z.3
G1 Z.2
G1 E.5 F1800
G1 F6000
G1 X45.918 Y46.28 E.01106
G1 X45.918 Y42.667 E.15581
G1 X48.29 Y42.667 E.10229
G1 X46.185 Y46.312 E.18149
G1 E-.5 F1800
G17
G3 Z.3 I-.289 J.095 P1  F30000
G1 X47.325 Y49.796 Z.3
G1 Z.2
G1 E.5 F1800
G1 F6000
G1 X46.475 Y49.796 E.03666
G1 X46.475 Y48.819 E.04212
G1 X46.722 Y48.753 E.01106
G1 X47.305 Y49.761 E.05022
G1 E-.5 F1800
G17
G3 Z.3 I-.157 J.261 P1  F30000
G1 X48.29 Y50.353 Z.3
G1 Z.2
G1 E.5 F1800
G1 F6000
G1 X45.918 Y50.353 E.10229
G1 X45.918 Y46.74 E.15581
G1 X46.165 Y46.674 E.01106
G1 X48.27 Y50.319 E.18149
G1 E-.35 F1800
;WIPE_START
G1 F6000
G1 X47.27 Y50.333 E-.1425
;WIPE_END
G1 E-.0075 F1800
G17
G3 Z.3 I.3 J-.05 P1  F30000
G1 X45.976 Y42.632 Z.3
G1 X69.552 Y43.655
G1 X67.487 Y50.978
G1 X64.391 Y50.91
G1 Z.2
G1 E.5 F1800
;TYPE:Outer wall
G1 F6000
G1 X64.355 Y51.771 E.03714
G1 X64.284 Y52.33 E.02433
G1 X64.092 Y53.146 E.03614
G1 X63.908 Y53.676 E.02419
G1 X63.679 Y54.189 E.02422
G1 X63.551 Y54.435 E.01194
G1 X63.209 Y54.999 E.02848
G1 X63.209 Y64.183 E.39605
G1 X58.978 Y64.183 E.18246
G1 X58.978 Y55.305 E.38286
G1 X59.46 Y55.124 E.0222
G1 X59.948 Y54.863 E.02387
G1 X60.259 Y54.65 E.01625
G1 X60.548 Y54.413 E.01611
G1 X60.815 Y54.152 E.01611
G1 X61.058 Y53.869 E.01611
G1 X61.279 Y53.561 E.01632
G1 X61.551 Y53.081 E.0238
G1 X61.699 Y52.735 E.01625
G1 X61.816 Y52.38 E.01611
G1 X61.903 Y52.013 E.01625
G1 X61.971 Y51.464 E.02387
G1 X61.977 Y51.087 E.01625
G1 X61.95 Y50.715 E.01611
G1 X61.89 Y50.343 E.01625
G1 X61.743 Y49.806 E.02401
G1 X61.526 Y49.289 E.02415
G1 X61.245 Y48.808 E.02401
G1 X61.02 Y48.503 E.01639
G1 X60.642 Y48.094 E.02401
G1 X60.212 Y47.735 E.02416
G1 X59.739 Y47.435 E.02415
G1 X59.23 Y47.2 E.02415
G1 X58.696 Y47.032 E.02415
G1 X58.144 Y46.935 E.02415
G1 X57.585 Y46.911 E.02415
G1 X57.027 Y46.959 E.02416
G1 X56.48 Y47.08 E.02415
G1 X55.956 Y47.27 E.02401
G1 X55.615 Y47.437 E.01639
G1 X55.145 Y47.735 E.02401
G1 X54.715 Y48.094 E.02415
G1 X54.335 Y48.505 E.02416
G1 X54.012 Y48.963 E.02415
G1 X53.751 Y49.458 E.02415
G1 X53.556 Y49.984 E.02416
G1 X53.432 Y50.53 E.02415
G1 X53.379 Y51.087 E.02415
G1 X53.4 Y51.644 E.02401
G1 X53.454 Y52.017 E.01625
G1 X53.541 Y52.383 E.01625
G1 X53.726 Y52.905 E.02387
G1 X53.89 Y53.244 E.01625
G1 X54.082 Y53.568 E.01625
G1 X54.417 Y54.013 E.02401
G1 X54.807 Y54.412 E.02408
G1 X55.098 Y54.65 E.01618
G1 X55.406 Y54.861 E.01611
G1 X55.731 Y55.044 E.01611
G1 X56.074 Y55.2 E.01625
G1 X56.378 Y55.3 E.01381
G1 X56.378 Y64.183 E.38308
G1 X52.147 Y64.183 E.18246
G1 X52.147 Y54.999 E.39605
G1 X51.807 Y54.437 E.02835
G1 X51.556 Y53.932 E.02433
G1 X51.264 Y53.146 E.03614
G1 X51.073 Y52.33 E.03614
G1 X51.002 Y51.771 E.02433
G1 X50.966 Y50.91 E.03714
G1 X45.361 Y50.91 E.24173
G1 X45.361 Y42.11 E.3795
G1 X69.996 Y42.11 E1.06241
G1 X69.996 Y50.91 E.3795
G1 X64.431 Y50.91 E.24001
G1 X64.141 Y50.21 F30000
;TYPE:Gap infill
;WIDTH:0.88584
G1 F6000
G1 X66.828 Y50.21 E.17531
G1 E-.5 F1800
G17
G3 Z.3 I-.011 J-.304 P1  F30000
G1 X63.17 Y50.346 Z.3
G1 Z.2
G1 E.5 F1800
;WIDTH:0.795549
G1 F6000
G1 X63.18 Y51.069 E.04213
G1 X63.157 Y51.667 E.03485
;WIDTH:0.771609
G1 X63.078 Y52.244 E.03289
G1 X62.973 Y52.691 E.02586
G1 X62.814 Y53.174 E.02871
G1 X62.693 Y53.453 E.01713
;WIDTH:0.76377
G1 X62.664 Y53.762 E.01737
;WIDTH:0.725752
G1 X62.635 Y54.072 E.01645
;WIDTH:0.687733
G1 X62.606 Y54.382 E.01554
G1 E-.5 F1800
G17
G3 Z.3 I-.245 J-.18 P1  F30000
G1 X61.094 Y56.439 Z.3
G1 Z.2
G1 E.5 F1800
;WIDTH:0.374318
G1 F6000
G1 X61.094 Y62.233 E.14866
G1 E-.35 F1800
;WIPE_START
G1 F6000
G1 X61.094 Y61.233 E-.1425
;WIPE_END
G1 E-.0075 F1800
G17
G3 Z.3 I.302 J.039 P1  F30000
G1 X62.293 Y51.883 Z.3
G1 X62.318 Y51.684
G1 X62.317 Y51.481
G1 X62.258 Y51.278
G1 X62.195 Y51.081
G1 X62.129 Y50.889
G1 X62.062 Y50.702
G1 X61.995 Y50.518
G1 X61.929 Y50.338
G1 X61.862 Y50.161
G1 X61.792 Y49.986
G1 X61.717 Y49.815
G1 X61.639 Y49.646
G1 X61.558 Y49.48
G1 X61.473 Y49.316
G1 X61.384 Y49.155
G1 X61.291 Y48.996
G1 X61.195 Y48.838
G1 X61.095 Y48.683
G1 X60.991 Y48.53
G1 X60.883 Y48.378
G1 X60.771 Y48.229
G1 X60.654 Y48.08
G1 X60.533 Y47.934
G1 X60.407 Y47.79
G1 X60.275 Y47.648
G1 X60.137 Y47.506
G1 X59.996 Y47.369
G1 X59.85 Y47.231
G1 X59.699 Y47.092
G1 X59.542 Y46.953
G1 X59.379 Y46.816
G1 X59.209 Y46.681
G1 X59.026 Y46.566
G1 X58.823 Y46.512
G1 X58.616 Y46.466
G1 X58.411 Y46.43
G1 X58.202 Y46.403
G1 X57.993 Y46.385
G1 X57.783 Y46.375
G1 X57.573 Y46.375
G1 X57.362 Y46.385
G1 X57.154 Y46.403
G1 X56.946 Y46.43
G1 X56.737 Y46.467
G1 X56.534 Y46.512
G1 X56.331 Y46.566
G1 X56.147 Y46.682
G1 X55.978 Y46.816
G1 X55.814 Y46.953
G1 X55.658 Y47.092
G1 X55.506 Y47.231
G1 X55.36 Y47.369
G1 X55.218 Y47.507
G1 X55.081 Y47.648
G1 X54.95 Y47.79
G1 X54.824 Y47.934
G1 X54.702 Y48.08
G1 X54.585 Y48.229
G1 X54.473 Y48.378
G1 X54.365 Y48.53
G1 X54.261 Y48.683
G1 X54.161 Y48.838
G1 X54.065 Y48.996
G1 X53.973 Y49.155
G1 X53.884 Y49.316
G1 X53.799 Y49.48
G1 X53.717 Y49.646
G1 X53.639 Y49.815
G1 X53.565 Y49.986
G1 X53.494 Y50.161
G1 X53.427 Y50.338
G1 X53.361 Y50.518
G1 X53.294 Y50.702
G1 X53.227 Y50.889
G1 X53.162 Y51.081
G1 X53.099 Y51.278
G1 X53.04 Y51.481
G1 X53.039 Y51.684
G1 X54.263 Y62.233
G1 Z.2
G1 E.5 F1800
G1 F6000
G1 X54.263 Y56.642 E.14344
;WIDTH:0.374316
G1 X54.284 Y56.631 E.0006
;WIDTH:0.332682
G1 X54.304 Y56.62 E.00053
;WIDTH:0.291048
G1 X54.429 Y56.552 E.00272
G1 E-.5 F1800
G17
G3 Z.3 I.263 J-.152 P1  F30000
G1 X53.205 Y54.436 Z.3
G1 Z.2
G1 E.5 F1800
;WIDTH:0.768421
G1 F6000
G1 X52.841 Y53.825 E.03994
G1 X52.57 Y53.241 E.03619
G1 X52.397 Y52.741 E.02972
G1 X52.299 Y52.348 E.02274
G1 X52.199 Y51.667 E.03866
;WIDTH:0.798432
G1 X52.176 Y51.029 E.03732
G1 X52.194 Y50.346 E.03996
G1 X52.491 Y50.402 F30000
;WIDTH:0.269302
G1 F6000
G1 X52.323 Y50.643 E.00514
;WIDTH:0.3115
G1 X52.156 Y50.884 E.0061
;WIDTH:0.353698
G1 X51.989 Y51.125 E.00705
;WIDTH:0.395896
G1 X51.821 Y51.365 E.00801
G1 E-.5 F1800
G17
G3 Z.3 I.25 J.174 P1  F30000
G1 X52.491 Y50.402 Z.3
G1 Z.2
G1 E.5 F1800
;WIDTH:0.259888
G1 F6000
G1 X52.501 Y50.373 E.00052
;WIDTH:0.209715
G1 X52.563 Y50.214 E.00221
;WIDTH:0.162318
G1 X52.625 Y50.055 E.00158
;WIDTH:0.11492
G1 X52.688 Y49.896 E.00095
G1 E-.5 F1800
G17
G3 Z.3 I-.063 J-.298 P1  F30000
G1 X51.215 Y50.21 Z.3
G1 Z.2
G1 E.5 F1800
;WIDTH:0.88584
G1 F6000
G1 X48.529 Y50.21 E.17531
G1 E-.35 F1800
;WIPE_START
G1 F6000
G1 X49.529 Y50.21 E-.1425
;WIPE_END
G1 E-.0075 F1800
G17
G3 Z.3 I.086 J.292 P1  F30000
G1 X51.908 Y49.506 Z.3
G1 X54.057 Y47.526
G1 Z.2
G1 E.5 F1800
;WIDTH:0.168227
G1 F6000
G1 X54.155 Y47.408 E.00149
;WIDTH:0.217283
G1 X54.253 Y47.29 E.00207
;WIDTH:0.266338
G1 X54.351 Y47.172 E.00265
;WIDTH:0.315394
G1 X54.449 Y47.054 E.00323
;WIDTH:0.36445
G1 X54.547 Y46.936 E.00382
;WIDTH:0.402184
G1 X54.738 Y46.736 E.00769
G1 E-.5 F1800
G17
G3 Z.3 I.244 J-.181 P1  F30000
G1 X51.828 Y42.81 Z.3
G1 Z.2
G1 E.5 F1800
;WIDTH:0.885842
G1 F6000
G1 X48.529 Y42.81 E.21527
G1 E-.5 F1800
G17
G3 Z.3 I-.03 J.303 P1  F30000
G1 X59.88 Y43.949 Z.3
G1 Z.2
G1 E.5 F1800
;TYPE:Bottom surface
;WIDTH:0.639702
G1 F9000
