; HEADER_BLOCK_START
; generated by OrcaSlicer 1.6.6 on 2023-12-07 at 03:02:10
; total layer number: 57
; HEADER_BLOCK_END

; THUMBNAIL_BLOCK_START
; THUMBNAIL_BLOCK_END

; external perimeters extrusion width = 0.48mm
; perimeters extrusion width = 0.48mm
; infill extrusion width = 0.48mm
; solid infill extrusion width = 0.48mm
; top infill extrusion width = 0.48mm
; support material extrusion width = 0.40mm
; first layer extrusion width = 0.60mm

; EXECUTABLE_BLOCK_START
EXCLUDE_OBJECT_DEFINE NAME=ADXL_Generic.stl_id_0_copy_0 CENTER=60,60 POLYGON=[[48,47.15],[48.0019,47.063],[48.0076,46.9761],[48.017,46.8896],[48.0302,46.8035],[48.0472,46.7182],[48.0678,46.6336],[48.0921,46.55],[48.1007,46.5238],[48.1056,46.51],[48.1155,46.4838],[48.1208,46.4706],[48.132,46.4444],[48.1376,46.4319],[48.1502,46.4057],[48.1561,46.394],[48.17,46.3679],[48.1761,46.3568],[48.1913,46.3309],[48.1977,46.3206],[48.2143,46.2949],[48.2208,46.2853],[48.2387,46.2599],[48.2454,46.2509],[48.2647,46.226],[48.2713,46.2177],[48.292,46.1932],[48.2987,46.1856],[48.3208,46.1616],[48.3274,46.1546],[48.3508,46.1312],[48.3574,46.1249],[48.3821,46.1022],[48.3886,46.0965],[48.4147,46.0745],[48.421,46.0695],[48.4484,46.0483],[48.4545,46.0438],[48.4831,46.0235],[48.489,46.0195],[48.5189,46.0002],[48.5245,45.9968],[48.5557,45.9785],[48.561,45.9755],[48.5934,45.9583],[48.5983,45.9558],[48.6318,45.9398],[48.6364,45.9377],[48.6711,45.923],[48.6753,45.9213],[48.711,45.9078],[48.7148,45.9065],[48.7515,45.8944],[48.7549,45.8933],[48.7926,45.8827],[48.7955,45.8819],[48.8341,45.8727],[48.8366,45.8722],[48.8761,45.8646],[48.878,45.8642],[48.9183,45.8582],[48.9198,45.858],[48.9607,45.8536],[48.9618,45.8536],[49.0034,45.8509],[49.0039,45.8509],[49.0461,45.85],[70.9539,45.85],[70.9961,45.8509],[70.9966,45.8509],[71.0382,45.8536],[71.0393,45.8536],[71.0802,45.858],[71.0817,45.8582],[71.122,45.8642],[71.1239,45.8646],[71.1634,45.8722],[71.1659,45.8727],[71.2045,45.8819],[71.2074,45.8827],[71.2451,45.8933],[71.2485,45.8944],[71.2852,45.9065],[71.289,45.9078],[71.3247,45.9213],[71.3289,45.923],[71.3636,45.9377],[71.3682,45.9398],[71.4017,45.9558],[71.4066,45.9583],[71.439,45.9755],[71.4443,45.9785],[71.4755,45.9968],[71.4811,46.0002],[71.511,46.0195],[71.5169,46.0235],[71.5455,46.0438],[71.5516,46.0483],[71.579,46.0695],[71.5853,46.0745],[71.6114,46.0965],[71.6179,46.1022],[71.6426,46.1249],[71.6492,46.1312],[71.6726,46.1546],[71.6792,46.1616],[71.7013,46.1856],[71.708,46.1932],[71.7287,46.2177],[71.7353,46.226],[71.7546,46.2509],[71.7613,46.2599],[71.7792,46.2853],[71.7857,46.2949],[71.8023,46.3206],[71.8087,46.3309],[71.8239,46.3568],[71.83,46.3679],[71.8439,46.394],[71.8498,46.4057],[71.8624,46.4319],[71.868,46.4444],[71.8792,46.4706],[71.8845,46.4838],[71.8944,46.51],[71.8993,46.5238],[71.9079,46.55],[71.9322,46.6336],[71.9528,46.7182],[71.9698,46.8035],[71.983,46.8896],[71.9924,46.9761],[71.9981,47.063],[72,47.15],[72,58.15],[71.9984,58.2305],[71.9984,58.231],[71.9935,58.3109],[71.9934,58.3119],[71.9854,58.3911],[71.9852,58.3925],[71.9741,58.4708],[71.9738,58.4727],[71.9596,58.5501],[71.9591,58.5524],[71.9419,58.6286],[71.9412,58.6314],[71.921,58.7064],[71.9201,58.7097],[71.8971,58.7833],[71.8958,58.787],[66.8794,72.834],[66.8478,72.9154],[66.8126,72.9952],[66.774,73.0735],[66.7321,73.15],[66.6868,73.2246],[66.6383,73.2972],[66.5867,73.3675],[66.5321,73.4356],[66.4746,73.5012],[66.4142,73.5642],[66.3512,73.6246],[66.2856,73.6821],[66.2175,73.7367],[66.1472,73.7883],[66.0746,73.8368],[66,73.8821],[65.9235,73.924],[65.8452,73.9626],[65.7654,73.9978],[65.684,74.0294],[65.6014,74.0574],[65.5176,74.0819],[65.4329,74.1026],[65.3473,74.1196],[65.2611,74.1329],[65.1743,74.1424],[65.0872,74.1481],[65,74.15],[55,74.15],[54.9128,74.1481],[54.8257,74.1424],[54.7389,74.1329],[54.6527,74.1196],[54.5671,74.1026],[54.4824,74.0819],[54.3986,74.0574],[54.316,74.0294],[54.2346,73.9978],[54.1548,73.9626],[54.0765,73.924],[54,73.8821],[53.9254,73.8368],[53.8528,73.7883],[53.7825,73.7367],[53.7144,73.6821],[53.6488,73.6246],[53.5858,73.5642],[53.5254,73.5012],[53.4679,73.4356],[53.4133,73.3675],[53.3617,73.2972],[53.3132,73.2246],[53.2679,73.15],[53.226,73.0735],[53.1874,72.9952],[53.1522,72.9154],[53.1206,72.834],[48.1042,58.787],[48.1029,58.7833],[48.0799,58.7097],[48.079,58.7064],[48.0588,58.6314],[48.0581,58.6286],[48.0409,58.5524],[48.0404,58.5501],[48.0262,58.4727],[48.0259,58.4708],[48.0148,58.3925],[48.0146,58.3911],[48.0066,58.3119],[48.0065,58.3109],[48.0016,58.231],[48.0016,58.2305],[48,58.15],[48,47.15]]
M73 P0 R5
;TYPE:Custom
M104 S0
M140 S0

print_start EXTRUDER=280 BED=110

G92 E0.0
G90
G21
M83 ; use relative distances for extrusion
; Filament gcode
SET_PRESSURE_ADVANCE ADVANCE=0.015; Override pressure advance value
M106 S0
;LAYER_CHANGE
;Z:0.2
;HEIGHT:0.2
;BEFORE_LAYER_CHANGE
;0.2
G92 E0

G1 E-.5 F1800
;AFTER_LAYER_CHANGE
;0.2
SET_VELOCITY_LIMIT ACCEL=10000
SET_VELOCITY_LIMIT SQUARE_CORNER_VELOCITY=9
; printing object ADXL Generic.stl id:0 copy 0
EXCLUDE_OBJECT_START NAME=ADXL_Generic.stl_id_0_copy_0
G1 X76.164 Y61.878 F30000
G1 Z.2
G1 E.5 F1800
;TYPE:Support
;WIDTH:0.6
G1 F6000
G1 X67.085 Y61.878 E.39154
G1 X67.084 Y53.573 E.35817
G1 X67.083 Y53.545 E.00122
G1 X67.069 Y53.392 E.00662
G1 X67.066 Y53.364 E.00122
G1 X67.039 Y53.212 E.00662
G1 X67.033 Y53.185 E.00122
G1 X66.993 Y53.036 E.00662
G1 X66.985 Y53.009 E.00122
G1 X66.932 Y52.864 E.00669
G1 X66.919 Y52.835 E.00135
G1 X66.842 Y52.673 E.00771
G1 X66.826 Y52.643 E.00148
G1 X66.721 Y52.472 E.00866
G1 X66.702 Y52.444 E.00145
G1 X66.607 Y52.32 E.00674
G1 X66.588 Y52.299 E.00122
G1 X66.485 Y52.185 E.00662
G1 X66.465 Y52.165 E.00122
G1 X66.353 Y52.063 E.00655
G1 X66.334 Y52.047 E.00107
G1 X66.251 Y51.982 E.00455
G1 X66.235 Y51.97 E.00083
G1 X66.131 Y51.898 E.0055
G1 X66.108 Y51.883 E.00116
G1 X65.976 Y51.807 E.00659
G1 X65.95 Y51.794 E.00122
G1 X65.811 Y51.729 E.00662
G1 X65.785 Y51.718 E.00122
G1 X65.641 Y51.665 E.00662
G1 X65.614 Y51.657 E.00122
G1 X65.465 Y51.617 E.00662
G1 X65.437 Y51.611 E.00122
G1 X65.285 Y51.584 E.00669
G1 X65.254 Y51.58 E.00135
G1 X65.08 Y51.566 E.00752
G1 X65.054 Y51.566 E.00109
G1 X54.993 Y51.565 E.43391
G1 X54.979 Y51.565 E.00061
G1 X54.832 Y51.571 E.00632
G1 X54.804 Y51.574 E.00122
G1 X54.655 Y51.593 E.00647
G1 X54.634 Y51.597 E.00092
G1 X54.552 Y51.613 E.00362
G1 X54.531 Y51.618 E.00092
G1 X54.39 Y51.656 E.00632
G1 X54.37 Y51.662 E.00092
G1 X54.29 Y51.689 E.00362
G1 X54.27 Y51.697 E.00092
G1 X54.135 Y51.753 E.00632
G1 X54.115 Y51.761 E.00092
G1 X54.039 Y51.799 E.00368
G1 X54.017 Y51.811 E.00105
G1 X53.866 Y51.9 E.00756
G1 X53.838 Y51.919 E.00147
G1 X53.679 Y52.036 E.00851
G1 X53.659 Y52.053 E.00115
G1 X53.594 Y52.11 E.00373
G1 X53.578 Y52.125 E.00092
G1 X53.475 Y52.228 E.00632
G1 X53.46 Y52.244 E.00092
G1 X53.405 Y52.307 E.00362
G1 X53.391 Y52.323 E.00092
G1 X53.302 Y52.439 E.00632
G1 X53.29 Y52.457 E.00092
G1 X53.243 Y52.526 E.00362
G1 X53.232 Y52.545 E.00092
G1 X53.159 Y52.671 E.00632
G1 X53.149 Y52.69 E.00092
G1 X53.111 Y52.765 E.00362
G1 X53.103 Y52.785 E.00092
G1 X53.045 Y52.923 E.00647
G1 X53.036 Y52.95 E.00122
G1 X52.989 Y53.097 E.00662
G1 X52.982 Y53.124 E.00122
G1 X52.95 Y53.27 E.00647
G1 X52.946 Y53.291 E.00092
G1 X52.933 Y53.373 E.00354
G1 X52.931 Y53.39 E.00076
G1 X52.921 Y53.491 E.00439
G1 X52.92 Y53.511 E.00083
G1 X52.915 Y53.631 E.00519
G1 X52.915 Y53.644 E.00055
G1 X52.915 Y61.878 E.35513
G1 X43.836 Y61.878 E.39154
G1 X43.836 Y43.836 E.77808
G1 X76.164 Y43.836 E1.39414
G1 X76.164 Y61.795 E.77447
G1 X67.586 Y61.377 F30000
G1 F6000
G1 X67.585 Y53.562 E.33702
G1 X67.583 Y53.512 E.00217
G1 X67.568 Y53.337 E.00757
G1 X67.561 Y53.287 E.00217
G1 X67.531 Y53.115 E.00757
G1 X67.52 Y53.066 E.00217
G1 X67.475 Y52.896 E.00757
G1 X67.46 Y52.848 E.00217
G1 X67.399 Y52.681 E.00768
G1 X67.377 Y52.629 E.0024
G1 X67.289 Y52.445 E.0088
G1 X67.26 Y52.392 E.00261
G1 X67.141 Y52.199 E.00979
G1 X67.107 Y52.149 E.00257
G1 X66.998 Y52.007 E.00777
G1 X66.965 Y51.968 E.00217
G1 X66.847 Y51.839 E.00757
G1 X66.811 Y51.803 E.00217
G1 X66.684 Y51.687 E.00743
G1 X66.651 Y51.658 E.0019
G1 X66.555 Y51.583 E.00528
G1 X66.527 Y51.563 E.00146
G1 X66.408 Y51.48 E.00626
G1 X66.368 Y51.454 E.00206
G1 X66.217 Y51.367 E.00751
G1 X66.172 Y51.344 E.00217
G1 X66.013 Y51.27 E.00757
G1 X65.967 Y51.251 E.00217
G1 X65.802 Y51.19 E.00757
G1 X65.754 Y51.175 E.00217
G1 X65.584 Y51.13 E.00757
G1 X65.535 Y51.119 E.00217
G1 X65.36 Y51.088 E.00768
G1 X65.305 Y51.081 E.0024
G1 X65.109 Y51.066 E.00846
G1 X65.064 Y51.064 E.00193
G1 X54.988 Y51.063 E.43456
G1 X54.962 Y51.064 E.00109
G1 X54.8 Y51.071 E.00703
G1 X54.75 Y51.075 E.00217
G1 X54.582 Y51.097 E.0073
G1 X54.545 Y51.103 E.00163
G1 X54.446 Y51.123 E.00432
G1 X54.41 Y51.132 E.00162
G1 X54.252 Y51.174 E.00703
G1 X54.216 Y51.185 E.00163
G1 X54.121 Y51.217 E.00433
G1 X54.086 Y51.23 E.00162
G1 X53.935 Y51.293 E.00703
G1 X53.901 Y51.308 E.00162
G1 X53.809 Y51.354 E.00444
G1 X53.771 Y51.374 E.00186
G1 X53.6 Y51.475 E.00853
G1 X53.55 Y51.508 E.00261
G1 X53.373 Y51.64 E.00952
G1 X53.336 Y51.669 E.00203
G1 X53.257 Y51.738 E.00453
G1 X53.229 Y51.764 E.00163
G1 X53.114 Y51.879 E.00702
G1 X53.088 Y51.907 E.00162
G1 X53.022 Y51.982 E.00433
G1 X52.998 Y52.012 E.00163
G1 X52.899 Y52.141 E.00702
G1 X52.877 Y52.171 E.00162
G1 X52.822 Y52.255 E.00433
G1 X52.802 Y52.287 E.00162
G1 X52.72 Y52.428 E.00702
G1 X52.703 Y52.461 E.00163
G1 X52.658 Y52.551 E.00433
G1 X52.643 Y52.585 E.00162
G1 X52.578 Y52.742 E.0073
G1 X52.561 Y52.789 E.00217
G1 X52.508 Y52.956 E.00757
G1 X52.495 Y53.005 E.00217
G1 X52.458 Y53.17 E.00729
G1 X52.451 Y53.207 E.00163
G1 X52.437 Y53.303 E.00419
G1 X52.433 Y53.334 E.00135
G1 X52.421 Y53.45 E.00501
G1 X52.419 Y53.484 E.00146
G1 X52.414 Y53.616 E.00572
G1 X52.413 Y53.639 E.00098
G1 X52.414 Y61.377 E.33372
G1 X44.338 Y61.377 E.34829
G1 X44.338 Y44.338 E.73483
G1 X75.662 Y44.338 E1.35089
G1 X75.662 Y61.377 E.73483
G1 X67.586 Y61.377 E.3483
G1 X68.205 Y60.758 F30000
G1 F6000
G1 X68.204 Y53.549 E.31091
G1 X68.201 Y53.472 E.00333
G1 X68.183 Y53.27 E.00873
G1 X68.173 Y53.193 E.00333
G1 X68.138 Y52.994 E.00874
G1 X68.121 Y52.918 E.00333
G1 X68.069 Y52.723 E.00873
G1 X68.046 Y52.649 E.00333
G1 X67.975 Y52.455 E.00891
G1 X67.942 Y52.376 E.00369
G1 X67.841 Y52.164 E.01015
G1 X67.796 Y52.082 E.00402
G1 X67.66 Y51.861 E.01119
G1 X67.608 Y51.785 E.00396
G1 X67.481 Y51.619 E.00904
G1 X67.431 Y51.56 E.00333
G1 X67.294 Y51.411 E.00873
G1 X67.24 Y51.356 E.00333
G1 X67.094 Y51.222 E.00852
G1 X67.042 Y51.179 E.00292
G1 X66.929 Y51.09 E.00618
G1 X66.888 Y51.059 E.00225
G1 X66.75 Y50.964 E.00721
G1 X66.688 Y50.925 E.00317
G1 X66.515 Y50.824 E.00865
G1 X66.446 Y50.789 E.00333
G1 X66.263 Y50.703 E.00873
G1 X66.191 Y50.673 E.00333
G1 X66.001 Y50.604 E.00873
G1 X65.927 Y50.581 E.00333
G1 X65.732 Y50.529 E.00873
G1 X65.656 Y50.512 E.00333
G1 X65.453 Y50.476 E.00891
G1 X65.368 Y50.465 E.00369
G1 X65.145 Y50.448 E.00963
G1 X65.076 Y50.445 E.00297
G1 X54.981 Y50.444 E.43537
M73 P1 R5
G1 X54.942 Y50.445 E.00167
G1 X54.759 Y50.453 E.0079
G1 X54.682 Y50.46 E.00333
G1 X54.491 Y50.485 E.00832
G1 X54.434 Y50.494 E.0025
G1 X54.316 Y50.518 E.0052
G1 X54.259 Y50.531 E.0025
G1 X54.082 Y50.578 E.0079
G1 X54.027 Y50.595 E.0025
G1 X53.913 Y50.634 E.0052
G1 X53.858 Y50.654 E.0025
G1 X53.689 Y50.725 E.0079
G1 X53.636 Y50.749 E.0025
G1 X53.524 Y50.804 E.00538
G1 X53.466 Y50.835 E.00286
G1 X53.272 Y50.95 E.00973
G1 X53.194 Y51.001 E.00402
G1 X52.994 Y51.15 E.01077
G1 X52.937 Y51.196 E.00312
G1 X52.841 Y51.28 E.00551
G1 X52.799 Y51.319 E.0025
G1 X52.669 Y51.449 E.0079
G1 X52.63 Y51.491 E.0025
G1 X52.55 Y51.582 E.0052
G1 X52.513 Y51.627 E.0025
G1 X52.402 Y51.772 E.0079
G1 X52.368 Y51.819 E.0025
G1 X52.301 Y51.919 E.0052
G1 X52.271 Y51.968 E.0025
G1 X52.179 Y52.127 E.0079
G1 X52.152 Y52.178 E.0025
G1 X52.098 Y52.286 E.0052
G1 X52.075 Y52.339 E.0025
G1 X52.001 Y52.517 E.00831
G1 X51.974 Y52.59 E.00333
G1 X51.913 Y52.783 E.00874
G1 X51.893 Y52.858 E.00333
G1 X51.852 Y53.046 E.00831
G1 X51.841 Y53.103 E.0025
G1 X51.823 Y53.217 E.00499
G1 X51.817 Y53.265 E.00208
G1 X51.804 Y53.398 E.00577
G1 X51.801 Y53.45 E.00225
G1 X51.795 Y53.598 E.00638
G1 X51.794 Y53.633 E.0015
G1 X51.795 Y60.758 E.30728
G1 X44.957 Y60.758 E.2949
G1 X44.957 Y44.957 E.68145
G1 X75.043 Y44.957 E1.29751
G1 X75.043 Y60.758 E.68145
G1 X68.205 Y60.758 E.29491
G1 X68.824 Y60.139 F30000
G1 F6000
G1 X68.823 Y53.535 E.2848
G1 X68.819 Y53.431 E.00449
G1 X68.799 Y53.202 E.00989
G1 X68.785 Y53.099 E.00449
G1 X68.745 Y52.873 E.0099
G1 X68.723 Y52.771 E.0045
G1 X68.663 Y52.55 E.00989
G1 X68.632 Y52.45 E.0045
G1 X68.552 Y52.229 E.01014
G1 X68.507 Y52.123 E.00498
G1 X68.392 Y51.882 E.0115
G1 X68.332 Y51.772 E.00542
G1 X68.179 Y51.523 E.01258
G1 X68.109 Y51.421 E.00534
G1 X67.963 Y51.231 E.01032
G1 X67.896 Y51.152 E.0045
G1 X67.741 Y50.982 E.0099
G1 X67.668 Y50.909 E.0045
G1 X67.503 Y50.758 E.00962
G1 X67.434 Y50.699 E.00393
G1 X67.304 Y50.598 E.00708
G1 X67.248 Y50.556 E.00304
G1 X67.092 Y50.448 E.00816
G1 X67.009 Y50.395 E.00427
G1 X66.812 Y50.282 E.00978
G1 X66.72 Y50.233 E.0045
G1 X66.512 Y50.136 E.0099
G1 X66.416 Y50.096 E.0045
G1 X66.2 Y50.018 E.0099
G1 X66.1 Y49.987 E.0045
G1 X65.879 Y49.927 E.0099
G1 X65.777 Y49.905 E.0045
G1 X65.545 Y49.864 E.01014
G1 X65.431 Y49.849 E.00498
G1 X65.181 Y49.83 E.01079
G1 X65.088 Y49.826 E.00401
G1 X54.974 Y49.825 E.43618
G1 X54.922 Y49.826 E.00225
G1 X54.719 Y49.835 E.00878
G1 X54.615 Y49.844 E.0045
G1 X54.4 Y49.873 E.00933
G1 X54.323 Y49.885 E.00338
G1 X54.185 Y49.913 E.00607
G1 X54.109 Y49.931 E.00337
G1 X53.912 Y49.983 E.00877
G1 X53.837 Y50.006 E.00337
G1 X53.704 Y50.051 E.00608
G1 X53.631 Y50.079 E.00337
G1 X53.443 Y50.157 E.00877
G1 X53.372 Y50.189 E.00337
G1 X53.24 Y50.254 E.00632
G1 X53.162 Y50.296 E.00385
G1 X52.943 Y50.425 E.01093
G1 X52.839 Y50.494 E.00542
G1 X52.615 Y50.66 E.01202
G1 X52.539 Y50.722 E.00421
G1 X52.425 Y50.821 E.0065
G1 X52.368 Y50.875 E.00337
G1 X52.225 Y51.018 E.00877
G1 X52.171 Y51.075 E.00337
G1 X52.078 Y51.181 E.00608
G1 X52.029 Y51.242 E.00337
G1 X51.905 Y51.403 E.00877
G1 X51.859 Y51.467 E.00337
G1 X51.781 Y51.584 E.00607
G1 X51.74 Y51.65 E.00337
G1 X51.638 Y51.826 E.00877
G1 X51.601 Y51.895 E.00337
G1 X51.539 Y52.022 E.00608
G1 X51.507 Y52.093 E.00337
G1 X51.424 Y52.293 E.00933
G1 X51.388 Y52.391 E.0045
G1 X51.319 Y52.61 E.0099
G1 X51.292 Y52.711 E.0045
G1 X51.245 Y52.922 E.00933
G1 X51.231 Y52.999 E.00337
G1 X51.21 Y53.131 E.00579
G1 X51.202 Y53.196 E.00281
G1 X51.187 Y53.346 E.00652
G1 X51.183 Y53.417 E.00304
G1 X51.176 Y53.58 E.00703
G1 X51.175 Y53.627 E.00203
G1 X51.176 Y60.139 E.28085
G1 X45.575 Y60.139 E.24151
G1 X45.575 Y45.575 E.62806
G1 X74.425 Y45.575 E1.24412
G1 X74.425 Y60.139 E.62806
G1 X68.824 Y60.139 E.24153
G1 X69.443 Y59.52 F30000
G1 F6000
G1 X69.442 Y53.522 E.25869
G1 X69.437 Y53.391 E.00565
G1 X69.414 Y53.135 E.01106
G1 X69.397 Y53.005 E.00566
G1 X69.353 Y52.752 E.01107
G1 X69.324 Y52.624 E.00566
G1 X69.258 Y52.376 E.01106
G1 X69.218 Y52.251 E.00566
G1 X69.128 Y52.004 E.01136
G1 X69.072 Y51.87 E.00627
G1 X68.944 Y51.601 E.01284
G1 X68.868 Y51.462 E.00683
G1 X68.698 Y51.186 E.01398
G1 X68.61 Y51.057 E.00672
G1 X68.446 Y50.844 E.01159
G1 X68.362 Y50.743 E.00566
G1 X68.189 Y50.554 E.01106
G1 X68.096 Y50.461 E.00566
G1 X67.913 Y50.294 E.01071
G1 X67.825 Y50.219 E.00495
G1 X67.679 Y50.105 E.00798
G1 X67.608 Y50.052 E.00382
G1 X67.435 Y49.932 E.00911
G1 X67.329 Y49.865 E.00538
G1 X67.11 Y49.739 E.01092
G1 X66.994 Y49.678 E.00566
G1 X66.761 Y49.57 E.01106
G1 X66.64 Y49.519 E.00566
G1 X66.399 Y49.432 E.01106
G1 X66.274 Y49.392 E.00566
G1 X66.026 Y49.326 E.01106
G1 X65.898 Y49.297 E.00566
G1 X65.638 Y49.252 E.01137
G1 X65.494 Y49.233 E.00627
G1 X65.218 Y49.212 E.01196
G1 X65.101 Y49.207 E.00505
G1 X54.967 Y49.206 E.43699
G1 X54.902 Y49.208 E.00283
G1 X54.678 Y49.217 E.00966
G1 X54.547 Y49.229 E.00566
G1 X54.309 Y49.26 E.01035
G1 X54.212 Y49.276 E.00425
G1 X54.054 Y49.308 E.00694
G1 X53.958 Y49.33 E.00424
G1 X53.742 Y49.388 E.00965
G1 X53.648 Y49.417 E.00424
G1 X53.495 Y49.468 E.00695
G1 X53.403 Y49.503 E.00424
G1 X53.197 Y49.589 E.00965
G1 X53.107 Y49.629 E.00424
