; HEADER_BLOCK_START
; generated by OrcaSlicer 1.6.6 on 2023-12-28 at 16:38:10
; total layer number: 40
; HEADER_BLOCK_END

; THUMBNAIL_BLOCK_START
; THUMBNAIL_BLOCK_END

; external perimeters extrusion width = 0.48mm
; perimeters extrusion width = 0.48mm
; infill extrusion width = 0.48mm
; solid infill extrusion width = 0.48mm
; top infill extrusion width = 0.48mm
; support material extrusion width = 0.40mm
; first layer extrusion width = 0.60mm

; EXECUTABLE_BLOCK_START
EXCLUDE_OBJECT_DEFINE NAME=backplate-plain-bottom-left.stl_id_0_copy_0 CENTER=60.1932,68.2348 POLYGON=[[2.69324,86.5088],[20.6932,21.9848],[117.693,21.9848],[117.693,114.485],[4.71724,114.485],[2.69324,112.461],[2.69324,86.5088]]
M73 P0 R25
;TYPE:Custom
M104 S0
M140 S0

print_start EXTRUDER=280 BED=110

G92 E0.0
G90
G21
M83 ; use relative distances for extrusion
; Filament gcode
SET_PRESSURE_ADVANCE ADVANCE=0.02; Override pressure advance value
M106 S0
;LAYER_CHANGE
;Z:0.2
;HEIGHT:0.2
;BEFORE_LAYER_CHANGE
;0.2
G92 E0

G1 E-.5 F1800
;AFTER_LAYER_CHANGE
;0.2
SET_VELOCITY_LIMIT ACCEL=10000
SET_VELOCITY_LIMIT SQUARE_CORNER_VELOCITY=9
; printing object backplate-plain-bottom-left.stl id:0 copy 0
EXCLUDE_OBJECT_START NAME=backplate-plain-bottom-left.stl_id_0_copy_0
G1 X65.993 Y26.934 F30000
G1 Z.2
G1 E.5 F1800
;TYPE:Inner wall
;WIDTH:0.599999
G1 F6000
G1 X66.113 Y26.871 E.00586
G1 X66.697 Y26.778 E.02545
G1 X67.263 Y26.815 E.02444
G1 X67.618 Y26.911 E.01586
;WIDTH:0.588562
G1 X67.785 Y27.001 E.008
;WIDTH:0.551465
G1 X67.952 Y27.091 E.00746
;WIDTH:0.514368
G1 X68.12 Y27.18 E.00691
;WIDTH:0.477271
G1 X68.121 Y27.181 E.00004
;WIDTH:0.480363
G1 X72.644 Y29.796 E.17676
;WIDTH:0.520242
G1 X72.789 Y29.878 E.00613
;WIDTH:0.560121
G1 X72.933 Y29.961 E.00664
;WIDTH:0.599999
G1 X73.077 Y30.043 E.00716
G1 X73.457 Y30.51 E.02592
G1 X73.652 Y30.814 E.01557
G1 X73.856 Y31.35 E.02472
G1 X73.865 Y31.566 E.0093
;WIDTH:0.558502
G1 X73.874 Y31.782 E.00861
;WIDTH:0.517005
G1 X73.875 Y31.999 E.00797
;WIDTH:0.47716
G1 X73.873 Y37.144 E.17277
;WIDTH:0.518107
G1 X73.876 Y37.32 E.00645
;WIDTH:0.559053
G1 X73.878 Y37.495 E.00701
;WIDTH:0.599999
G1 X73.881 Y37.671 E.00756
G1 X73.705 Y38.212 E.02451
G1 X73.567 Y38.471 E.01267
G1 X73.23 Y38.936 E.02475
G1 X72.995 Y39.161 E.01399
;WIDTH:0.599506
G1 X72.856 Y39.237 E.00684
;WIDTH:0.558722
G1 X72.716 Y39.314 E.00634
;WIDTH:0.517937
G1 X72.577 Y39.39 E.00584
;WIDTH:0.477159
G1 X68.122 Y41.964 E.17278
;WIDTH:0.518106
G1 X67.954 Y42.058 E.00708
;WIDTH:0.559053
G1 X67.785 Y42.152 E.00769
;WIDTH:0.599999
G1 X67.617 Y42.247 E.0083
G1 X67.088 Y42.345 E.0232
G1 X66.716 Y42.366 E.01604
G1 X66.125 Y42.279 E.02574
G1 X65.977 Y42.202 E.00719
;WIDTH:0.561613
G1 X65.829 Y42.125 E.00669
;WIDTH:0.523227
G1 X65.681 Y42.048 E.0062
;WIDTH:0.48484
G1 X65.595 Y42.003 E.0033
;WIDTH:0.480365
G1 X61.006 Y39.348 E.17936
;WIDTH:0.520243
G1 X60.836 Y39.24 E.00744
;WIDTH:0.560121
G1 X60.666 Y39.132 E.00806
;WIDTH:0.599999
G1 X60.496 Y39.024 E.00868
G1 X60.097 Y38.512 E.02792
G1 X59.828 Y37.904 E.02865
G1 X59.771 Y37.529 E.01636
;WIDTH:0.566324
G1 X59.772 Y37.337 E.00779
;WIDTH:0.52174
G1 X59.774 Y37.144 E.00712
;WIDTH:0.477157
G1 X59.775 Y31.999 E.17276
;WIDTH:0.518105
G1 X59.773 Y31.824 E.00645
;WIDTH:0.559052
G1 X59.77 Y31.648 E.00701
;WIDTH:0.599999
G1 X59.768 Y31.472 E.00757
G1 X59.943 Y30.932 E.02448
G1 X60.066 Y30.693 E.01158
G1 X60.419 Y30.207 E.02586
G1 X60.576 Y30.043 E.00978
G1 X60.719 Y29.959 E.00715
;WIDTH:0.559343
G1 X60.862 Y29.875 E.00663
;WIDTH:0.518686
G1 X61.005 Y29.791 E.00611
;WIDTH:0.47947
G1 X65.527 Y27.178 E.1763
;WIDTH:0.519647
G1 X65.722 Y27.076 E.00814
;WIDTH:0.559823
G1 X65.918 Y26.973 E.00883
;WIDTH:0.599999
G1 X65.957 Y26.952 E.00193
G1 E-.5 F1800
G17
G3 Z.3 I.286 J.102 P1  F30000
G1 X67.229 Y23.397 Z.3
G1 Z.2
G1 E.5 F1800
;WIDTH:0.67594
G1 F6000
G1 X67.33 Y23.358 E.00531
;WIDTH:0.627927
G1 X67.447 Y23.312 E.00567
;WIDTH:0.579914
G1 X67.564 Y23.267 E.0052
;WIDTH:0.531901
G1 X67.68 Y23.222 E.00474
;WIDTH:0.483888
G1 X67.815 Y23.214 E.00459
;WIDTH:0.476383
G1 X80.368 Y23.214 E.42078
;WIDTH:0.525898
G1 X80.511 Y23.261 E.00564
;WIDTH:0.575412
G1 X80.655 Y23.308 E.00622
;WIDTH:0.624927
G1 X80.799 Y23.355 E.0068
;WIDTH:0.674441
G1 X80.942 Y23.402 E.00738
;WIDTH:0.723955
G1 X81.086 Y23.449 E.00796
G1 X81.097 Y23.557 E.00572
;WIDTH:0.674416
G1 X81.108 Y23.665 E.00531
;WIDTH:0.624877
G1 X81.119 Y23.773 E.00489
;WIDTH:0.575338
G1 X81.13 Y23.881 E.00447
;WIDTH:0.525799
G1 X81.142 Y23.989 E.00406
;WIDTH:0.479985
G1 X81.142 Y24.636 E.02185
;WIDTH:0.51999
G1 X81.119 Y24.867 E.00858
;WIDTH:0.559995
G1 X81.095 Y25.099 E.0093
;WIDTH:0.599999
G1 X81.072 Y25.33 E.01002
G1 X80.955 Y25.66 E.01511
G1 X80.64 Y26.18 E.02615
G1 X80.423 Y26.423 E.01406
G1 X80.275 Y26.538 E.00809
;WIDTH:0.572885
G1 X80.127 Y26.654 E.0077
;WIDTH:0.545771
G1 X79.984 Y26.727 E.00622
;WIDTH:0.51262
G1 X79.842 Y26.8 E.00581
;WIDTH:0.479468
G1 X75.321 Y29.415 E.1763
;WIDTH:0.518686
G1 X75.138 Y29.507 E.00756
;WIDTH:0.559343
G1 X74.955 Y29.6 E.0082
;WIDTH:0.599999
G1 X74.771 Y29.693 E.00885
G1 X74.084 Y29.781 E.02985
G1 X73.493 Y29.714 E.02564
G1 X73.227 Y29.621 E.01211
;WIDTH:0.579358
G1 X73.045 Y29.519 E.00866
;WIDTH:0.529861
G1 X72.863 Y29.417 E.00786
;WIDTH:0.480363
G1 X68.338 Y26.805 E.17676
;WIDTH:0.514367
G1 X68.182 Y26.713 E.0066
;WIDTH:0.551465
G1 X68.026 Y26.621 E.00712
;WIDTH:0.588562
G1 X67.87 Y26.529 E.00763
;WIDTH:0.599999
G1 X67.553 Y26.199 E.01969
G1 X67.176 Y25.543 E.03263
G1 X67.074 Y25.213 E.01488
G1 X67.064 Y25.02 E.00832
;WIDTH:0.559994
G1 X67.054 Y24.827 E.00773
;WIDTH:0.519989
G1 X67.045 Y24.634 E.00713
;WIDTH:0.479983
G1 X67.041 Y23.994 E.02162
;WIDTH:0.525816
G1 X67.052 Y23.885 E.0041
;WIDTH:0.57535
G1 X67.063 Y23.776 E.00452
;WIDTH:0.624884
G1 X67.074 Y23.667 E.00494
;WIDTH:0.674418
G1 X67.085 Y23.558 E.00536
;WIDTH:0.723952
G1 X67.097 Y23.449 E.00578
G1 X67.192 Y23.412 E.00538
G1 E-.5 F1800
G17
G3 Z.3 I0 J.304 P1  F30000
G1 X95.47 Y23.4 Z.3
G1 Z.2
G1 E.5 F1800
;WIDTH:0.674439
G1 F6000
G1 X95.476 Y23.402 E.00032
;WIDTH:0.723953
G1 X95.62 Y23.449 E.00796
G1 X95.631 Y23.557 E.00572
;WIDTH:0.674414
G1 X95.642 Y23.665 E.00531
;WIDTH:0.624875
G1 X95.653 Y23.773 E.00489
;WIDTH:0.575336
G1 X95.664 Y23.881 E.00447
;WIDTH:0.525797
G1 X95.676 Y23.989 E.00406
;WIDTH:0.479985
G1 X95.676 Y24.636 E.02185
;WIDTH:0.51999
G1 X95.653 Y24.867 E.00857
;WIDTH:0.559995
G1 X95.63 Y25.098 E.00929
;WIDTH:0.599999
G1 X95.606 Y25.33 E.01001
G1 X95.489 Y25.66 E.01512
G1 X95.174 Y26.18 E.02615
G1 X94.951 Y26.428 E.01438
G1 X94.806 Y26.541 E.00792
;WIDTH:0.572876
G1 X94.661 Y26.654 E.00754
;WIDTH:0.545753
G1 X94.518 Y26.727 E.00622
;WIDTH:0.512611
G1 X94.376 Y26.8 E.00581
;WIDTH:0.479468
G1 X89.855 Y29.415 E.1763
;WIDTH:0.518686
G1 X89.672 Y29.507 E.00756
;WIDTH:0.559343
G1 X89.489 Y29.6 E.0082
;WIDTH:0.599999
G1 X89.305 Y29.693 E.00885
G1 X88.595 Y29.783 E.03086
G1 X88.027 Y29.714 E.02464
G1 X87.761 Y29.621 E.01211
;WIDTH:0.579361
G1 X87.579 Y29.519 E.00866
;WIDTH:0.529861
G1 X87.397 Y29.417 E.00786
;WIDTH:0.480361
G1 X82.872 Y26.805 E.17676
;WIDTH:0.514361
G1 X82.716 Y26.713 E.0066
;WIDTH:0.551452
G1 X82.56 Y26.621 E.00711
;WIDTH:0.588542
G1 X82.404 Y26.529 E.00763
;WIDTH:0.599999
G1 X82.088 Y26.2 E.01968
G1 X81.784 Y25.686 E.02569
G1 X81.633 Y25.33 E.01668
G1 X81.602 Y25.072 E.01117
;WIDTH:0.554744
G1 X81.572 Y24.815 E.01027
;WIDTH:0.509489
G1 X81.575 Y23.994 E.0296
;WIDTH:0.52582
G1 X81.586 Y23.885 E.0041
;WIDTH:0.575354
G1 X81.597 Y23.776 E.00452
;WIDTH:0.624888
G1 X81.608 Y23.667 E.00494
;WIDTH:0.674422
G1 X81.619 Y23.558 E.00536
;WIDTH:0.723955
G1 X81.631 Y23.449 E.00578
G1 X81.747 Y23.403 E.0066
;WIDTH:0.675942
G1 X81.864 Y23.358 E.00613
;WIDTH:0.627929
G1 X81.981 Y23.312 E.00567
;WIDTH:0.579915
G1 X82.098 Y23.267 E.0052
;WIDTH:0.531902
G1 X82.214 Y23.222 E.00474
;WIDTH:0.483888
G1 X82.349 Y23.214 E.00459
;WIDTH:0.476383
G1 X94.902 Y23.214 E.42078
;WIDTH:0.525897
G1 X95.045 Y23.261 E.00564
;WIDTH:0.575411
G1 X95.189 Y23.308 E.00622
;WIDTH:0.624925
G1 X95.333 Y23.355 E.0068
;WIDTH:0.674439
G1 X95.432 Y23.387 E.00511
G1 E-.35 F1800
;WIPE_START
G1 F6000
G1 X95.476 Y23.402 E-.00663
G1 X95.62 Y23.449 E-.02153
G1 X95.631 Y23.557 E-.01549
G1 X95.642 Y23.665 E-.01549
G1 X95.653 Y23.773 E-.01549
G1 X95.664 Y23.881 E-.01549
G1 X95.676 Y23.989 E-.01549
G1 X95.676 Y24.248 E-.03689
;WIPE_END
G1 E-.0075 F1800
G17
G3 Z.3 I-.234 J.195 P1  F30000
G1 X100.129 Y29.591 Z.3
G1 X101.339 Y30.289
G1 X101.478 Y30.373
G1 X101.613 Y30.457
G1 X101.689 Y30.509
G1 X101.761 Y30.559
G1 X101.894 Y30.657
G1 X102.037 Y30.772
G1 X102.171 Y30.891
G1 X102.217 Y30.972
G1 X102.239 Y31.064
G1 X102.268 Y31.236
G1 X102.283 Y31.328
G1 X102.302 Y31.498
G1 X102.947 Y37.545
G1 Z.2
G1 E.5 F1800
;WIDTH:0.599999
G1 F6000
G1 X102.949 Y37.671 E.00543
G1 X102.773 Y38.212 E.02451
G1 X102.635 Y38.471 E.01266
G1 X102.298 Y38.936 E.02475
G1 X102.063 Y39.161 E.01399
;WIDTH:0.599499
G1 X101.924 Y39.237 E.00684
;WIDTH:0.558718
G1 X101.784 Y39.314 E.00634
;WIDTH:0.517937
G1 X101.645 Y39.39 E.00584
;WIDTH:0.477158
G1 X97.19 Y41.964 E.17278
;WIDTH:0.518105
G1 X97.022 Y42.058 E.00708
;WIDTH:0.559052
G1 X96.853 Y42.152 E.00769
;WIDTH:0.599999
G1 X96.685 Y42.247 E.0083
G1 X96.156 Y42.345 E.0232
G1 X95.783 Y42.366 E.01609
G1 X95.226 Y42.288 E.02426
G1 X95.073 Y42.212 E.00733
;WIDTH:0.564434
G1 X94.921 Y42.137 E.00686
;WIDTH:0.528869
G1 X94.768 Y42.061 E.00639
;WIDTH:0.493304
G1 X94.663 Y42.003 E.00417
;WIDTH:0.480362
G1 X90.074 Y39.348 E.17936
;WIDTH:0.520241
M73 P0 R24
G1 X89.904 Y39.24 E.00744
;WIDTH:0.56012
G1 X89.734 Y39.132 E.00806
;WIDTH:0.599999
G1 X89.564 Y39.024 E.00868
G1 X89.165 Y38.512 E.02792
G1 X88.896 Y37.904 E.02865
G1 X88.837 Y37.627 E.01223
;WIDTH:0.595143
G1 X88.838 Y37.466 E.00687
;WIDTH:0.555815
G1 X88.84 Y37.305 E.00638
;WIDTH:0.516486
G1 X88.842 Y37.144 E.00589
;WIDTH:0.477159
G1 X88.843 Y31.999 E.17277
;WIDTH:0.518106
G1 X88.841 Y31.824 E.00645
;WIDTH:0.559053
G1 X88.838 Y31.648 E.007
;WIDTH:0.599999
G1 X88.836 Y31.473 E.00756
G1 X89.011 Y30.932 E.0245
G1 X89.118 Y30.714 E.01044
G1 X89.414 Y30.308 E.02165
G1 X89.644 Y30.043 E.0151
G1 X89.787 Y29.959 E.00715
;WIDTH:0.559343
G1 X89.93 Y29.875 E.00663
;WIDTH:0.518686
G1 X90.073 Y29.791 E.00611
;WIDTH:0.479468
G1 X94.595 Y27.178 E.1763
;WIDTH:0.519645
G1 X94.788 Y27.076 E.00806
;WIDTH:0.559822
G1 X94.981 Y26.974 E.00874
;WIDTH:0.599999
G1 X95.175 Y26.873 E.00941
G1 X95.788 Y26.779 E.02672
G1 X96.341 Y26.815 E.02388
G1 X96.666 Y26.901 E.01448
;WIDTH:0.594625
G1 X96.817 Y26.98 E.00726
;WIDTH:0.556078
G1 X96.967 Y27.059 E.00675
;WIDTH:0.51753
G1 X97.118 Y27.139 E.00624
;WIDTH:0.478982
G1 X97.189 Y27.181 E.00278
;WIDTH:0.480362
G1 X101.712 Y29.796 E.17676
;WIDTH:0.520241
G1 X101.857 Y29.878 E.00613
;WIDTH:0.56012
G1 X102.001 Y29.961 E.00664
;WIDTH:0.599999
G1 X102.145 Y30.043 E.00716
G1 X102.525 Y30.51 E.02592
G1 X102.72 Y30.814 E.01556
G1 X102.924 Y31.35 E.02472
G1 X102.929 Y31.534 E.00792
;WIDTH:0.560569
G1 X102.934 Y31.718 E.00736
;WIDTH:0.521139
G1 X102.939 Y31.901 E.0068
;WIDTH:0.481708
G1 X102.943 Y31.999 E.00332
;WIDTH:0.477159
G1 X102.941 Y37.144 E.17277
;WIDTH:0.518106
G1 X102.944 Y37.32 E.00645
;WIDTH:0.559053
G1 X102.946 Y37.495 E.007
;WIDTH:0.599999
G1 X102.946 Y37.505 E.00041
G1 E-.35 F1800
;WIPE_START
G1 F6000
G1 X102.949 Y37.671 E-.02366
G1 X102.773 Y38.212 E-.08108
G1 X102.649 Y38.446 E-.03776
;WIPE_END
G1 E-.0075 F1800
G17
G3 Z.3 I-.14 J-.27 P1  F30000
G1 X96.655 Y41.552 Z.3
G1 X96.573 Y41.593
G1 X96.416 Y41.668
G1 X96.258 Y41.737
G1 X96.164 Y41.774
G1 X96.072 Y41.805
G1 X95.892 Y41.862
G1 X95.713 Y41.805
G1 X95.621 Y41.773
G1 X95.533 Y41.739
G1 X95.371 Y41.669
G1 X95.286 Y41.63
G1 X95.131 Y41.553
G1 X94.979 Y41.471
G1 X90.445 Y38.854
G1 X90.308 Y38.772
G1 X90.234 Y38.725
G1 X90.1 Y38.638
G1 X89.956 Y38.535
G1 X89.823 Y38.434
G1 X89.748 Y38.371
G1 X89.678 Y38.309
G1 X89.569 Y38.175
G1 X89.546 Y38.079
G1 X89.514 Y37.905
G1 X89.492 Y37.733
G1 X89.482 Y37.643
G1 X89.47 Y37.479
G1 X89.466 Y37.393
G1 X89.463 Y37.308
G1 X89.46 Y37.147
G1 X89.461 Y31.917
G1 X81.987 Y26.866
G1 Z.2
G1 E.5 F1800
G1 F6000
G1 X82.152 Y26.911 E.00737
;WIDTH:0.588542
G1 X82.319 Y27.001 E.008
;WIDTH:0.551452
G1 X82.486 Y27.091 E.00746
;WIDTH:0.514362
G1 X82.654 Y27.18 E.00691
;WIDTH:0.477271
G1 X82.655 Y27.181 E.00004
;WIDTH:0.480361
G1 X87.178 Y29.796 E.17676
;WIDTH:0.520241
G1 X87.322 Y29.878 E.00613
;WIDTH:0.56012
G1 X87.467 Y29.961 E.00664
;WIDTH:0.599999
G1 X87.611 Y30.043 E.00716
G1 X87.991 Y30.51 E.02592
G1 X88.186 Y30.814 E.01557
G1 X88.401 Y31.405 E.02711
G1 X88.403 Y31.583 E.00767
;WIDTH:0.559544
G1 X88.405 Y31.761 E.00711
;WIDTH:0.519089
G1 X88.407 Y31.939 E.00655
;WIDTH:0.478633
G1 X88.409 Y31.999 E.00201
;WIDTH:0.477159
G1 X88.407 Y37.144 E.17277
;WIDTH:0.518105
G1 X88.41 Y37.325 E.00664
;WIDTH:0.559052
G1 X88.412 Y37.505 E.00721
;WIDTH:0.599999
G1 X88.414 Y37.686 E.00778
G1 X88.234 Y38.228 E.02462
G1 X88.101 Y38.471 E.01192
G1 X87.764 Y38.936 E.02475
G1 X87.529 Y39.161 E.01399
;WIDTH:0.599492
G1 X87.39 Y39.237 E.00684
;WIDTH:0.558713
G1 X87.25 Y39.314 E.00634
;WIDTH:0.517934
G1 X87.111 Y39.39 E.00584
;WIDTH:0.477155
G1 X82.656 Y41.964 E.17278
;WIDTH:0.518103
G1 X82.488 Y42.058 E.00708
;WIDTH:0.559051
G1 X82.319 Y42.152 E.00769
;WIDTH:0.599999
G1 X82.151 Y42.247 E.0083
G1 X81.467 Y42.366 E.02991
G1 X80.777 Y42.304 E.02985
G1 X80.494 Y42.208 E.01286
;WIDTH:0.579364
G1 X80.312 Y42.106 E.00868
;WIDTH:0.529861
G1 X80.129 Y42.003 E.00788
;WIDTH:0.480365
G1 X75.54 Y39.348 E.17936
;WIDTH:0.520243
G1 X75.37 Y39.24 E.00744
;WIDTH:0.560121
G1 X75.2 Y39.132 E.00806
;WIDTH:0.599999
G1 X75.03 Y39.024 E.00868
G1 X74.631 Y38.512 E.02792
G1 X74.362 Y37.904 E.02865
G1 X74.305 Y37.529 E.01636
;WIDTH:0.566247
G1 X74.306 Y37.337 E.00779
;WIDTH:0.521704
G1 X74.308 Y37.144 E.00712
;WIDTH:0.47716
G1 X74.309 Y31.999 E.17277
;WIDTH:0.518106
G1 X74.311 Y31.817 E.00672
;WIDTH:0.559053
G1 X74.314 Y31.634 E.00729
;WIDTH:0.599999
G1 X74.316 Y31.451 E.00787
G1 X74.403 Y31.117 E.01486
G1 X74.632 Y30.632 E.02311
G1 X74.985 Y30.165 E.0252
G1 X75.11 Y30.043 E.00753
G1 X75.253 Y29.959 E.00715
;WIDTH:0.559343
G1 X75.396 Y29.875 E.00663
;WIDTH:0.518686
G1 X75.539 Y29.791 E.00611
;WIDTH:0.479468
G1 X80.061 Y27.178 E.1763
;WIDTH:0.519645
G1 X80.256 Y27.076 E.00814
;WIDTH:0.559822
G1 X80.452 Y26.973 E.00883
;WIDTH:0.599999
G1 X80.647 Y26.871 E.00951
G1 X81.254 Y26.779 E.02642
G1 X81.807 Y26.815 E.02388
G1 X81.949 Y26.855 E.00633
G1 E-.35 F1800
;WIPE_START
G1 F6000
G1 X82.152 Y26.911 E-.03007
G1 X82.319 Y27.001 E-.02702
G1 X82.486 Y27.091 E-.02702
G1 X82.654 Y27.18 E-.02702
G1 X82.655 Y27.181 E-.00017
G1 X82.844 Y27.29 E-.0312
;WIPE_END
G1 E-.0075 F1800
G17
G3 Z.3 I-.182 J.244 P1  F30000
G1 X87.363 Y30.659 Z.3
G1 X87.436 Y30.717
G1 X87.567 Y30.828
G1 X87.684 Y30.971
G1 X89.569 Y38.175
G1 X89.678 Y38.309
G1 X94.575 Y43.206
G1 X94.94 Y42.706
G1 Z.2
G1 E.5 F1800
G1 F6000
G1 X95.322 Y43.178 E.0262
G1 X95.453 Y43.401 E.01111
G1 X95.621 Y43.826 E.01969
G1 X95.674 Y44.029 E.00902
G1 X95.674 Y44.214 E.008
;WIDTH:0.559051
G1 X95.675 Y44.4 E.00742
;WIDTH:0.518103
G1 X95.676 Y44.586 E.00683
;WIDTH:0.477155
G1 X95.674 Y49.731 E.17276
;WIDTH:0.518103
G1 X95.677 Y49.907 E.00645
;WIDTH:0.559051
G1 X95.679 Y50.082 E.00701
;WIDTH:0.599999
G1 X95.681 Y50.258 E.00757
G1 X95.506 Y50.799 E.02449
G1 X95.368 Y51.058 E.01267
G1 X95.031 Y51.523 E.02475
G1 X94.796 Y51.748 E.01399
;WIDTH:0.599495
G1 X94.657 Y51.824 E.00684
;WIDTH:0.558717
G1 X94.517 Y51.9 E.00634
;WIDTH:0.517938
G1 X94.378 Y51.977 E.00584
;WIDTH:0.477159
G1 X89.923 Y54.551 E.17278
;WIDTH:0.518104
G1 X89.755 Y54.645 E.00708
;WIDTH:0.559052
G1 X89.586 Y54.739 E.00769
;WIDTH:0.599999
G1 X89.418 Y54.833 E.0083
G1 X88.734 Y54.953 E.02993
G1 X88.14 Y54.912 E.02562
G1 X87.76 Y54.788 E.01724
;WIDTH:0.579576
G1 X87.578 Y54.689 E.0086
;WIDTH:0.529969
G1 X87.396 Y54.59 E.0078
;WIDTH:0.480361
G1 X82.807 Y51.935 E.17935
;WIDTH:0.520239
G1 X82.637 Y51.827 E.00744
;WIDTH:0.560119
G1 X82.467 Y51.719 E.00806
;WIDTH:0.599999
G1 X82.297 Y51.61 E.00868
G1 X81.898 Y51.099 E.02792
G1 X81.629 Y50.491 E.02865
G1 X81.572 Y50.116 E.01636
;WIDTH:0.566251
G1 X81.573 Y49.923 E.00779
