; HEADER_BLOCK_START
; generated by OrcaSlicer 1.6.6 on 2023-12-28 at 19:19:54
; total layer number: 40
; HEADER_BLOCK_END

; THUMBNAIL_BLOCK_START
; THUMBNAIL_BLOCK_END

; external perimeters extrusion width = 0.48mm
; perimeters extrusion width = 0.48mm
; infill extrusion width = 0.48mm
; solid infill extrusion width = 0.48mm
; top infill extrusion width = 0.48mm
; support material extrusion width = 0.40mm
; first layer extrusion width = 0.60mm

; EXECUTABLE_BLOCK_START
EXCLUDE_OBJECT_DEFINE NAME=backplate-plain-top-left.stl_id_0_copy_0 CENTER=60.2128,67.9497 POLYGON=[[2.71283,21.6997],[99.7128,21.6997],[117.713,86.2237],[117.713,112.176],[115.689,114.2],[2.71283,114.2],[2.71283,21.6997]]
M73 P0 R27
;TYPE:Custom
M104 S0
M140 S0

print_start EXTRUDER=280 BED=110

G92 E0.0
G90
G21
M83 ; use relative distances for extrusion
; Filament gcode
SET_PRESSURE_ADVANCE ADVANCE=0.02; Override pressure advance value
M106 S0
;LAYER_CHANGE
;Z:0.2
;HEIGHT:0.2
;BEFORE_LAYER_CHANGE
;0.2
G92 E0

G1 E-.5 F1800
;AFTER_LAYER_CHANGE
;0.2
SET_VELOCITY_LIMIT ACCEL=10000
SET_VELOCITY_LIMIT SQUARE_CORNER_VELOCITY=9
; printing object backplate-plain-top-left.stl id:0 copy 0
EXCLUDE_OBJECT_START NAME=backplate-plain-top-left.stl_id_0_copy_0
G1 X82.658 Y101.046 F30000
G1 Z.2
G1 E.5 F1800
;TYPE:Inner wall
;WIDTH:0.364457
G1 F6000
G1 X82.78 Y101.319 E.00744
G1 X82.958 Y101.601 E.00828
G1 X82.326 Y101.593 E.01572
G1 X82.48 Y101.38 E.00652
G1 X82.639 Y101.081 E.00843
G1 E-.5 F1800
G17
G3 Z.3 I.304 J-.007 P1  F30000
G1 X82.446 Y93.008 Z.3
G1 Z.2
G1 E.5 F1800
;WIDTH:0.359718
G1 F6000
G1 X82.343 Y92.843 E.00478
G1 X82.484 Y92.861 E.00346
G1 X82.983 Y92.839 E.01226
G1 X82.884 Y92.976 E.00414
G1 X82.64 Y93.398 E.01194
G1 X82.517 Y93.123 E.00737
G1 X82.468 Y93.042 E.00231
G1 E-.5 F1800
G17
G3 Z.3 I.165 J-.255 P1  F30000
G1 X75.391 Y88.459 Z.3
G1 Z.2
G1 E.5 F1800
;WIDTH:0.364468
G1 F6000
G1 X75.513 Y88.733 E.00744
G1 X75.692 Y89.015 E.0083
G1 X75.055 Y89.012 E.01583
G1 X75.215 Y88.792 E.00677
G1 X75.372 Y88.495 E.00836
G1 E-.5 F1800
G17
G3 Z.3 I-.152 J-.264 P1  F30000
G1 X67.809 Y92.843 Z.3
G1 Z.2
G1 E.5 F1800
;WIDTH:0.359718
G1 F6000
G1 X67.95 Y92.861 E.00346
G1 X68.449 Y92.839 E.01226
G1 X68.35 Y92.976 E.00414
G1 X68.106 Y93.398 E.01194
G1 X67.983 Y93.123 E.00737
G1 X67.831 Y92.877 E.0071
G1 E-.5 F1800
G17
G3 Z.3 I-.304 J.011 P1  F30000
G1 X68.124 Y101.046 Z.3
G1 Z.2
G1 E.5 F1800
;WIDTH:0.364449
G1 F6000
G1 X68.246 Y101.319 E.00744
G1 X68.424 Y101.601 E.00829
G1 X67.792 Y101.593 E.01572
G1 X67.946 Y101.38 E.00652
G1 X68.105 Y101.081 E.00843
G1 E-.35 F1800
;WIPE_START
G1 F6000
G1 X68.246 Y101.319 E-.03941
G1 X68.424 Y101.601 E-.04748
G1 X68.034 Y101.596 E-.05561
;WIPE_END
G1 E-.0075 F1800
G17
G3 Z.3 I.302 J.038 P1  F30000
G1 X68.992 Y93.977 Z.3
G1 X69.007 Y93.885
G1 X69.037 Y93.71
G1 X69.096 Y93.55
G1 X69.17 Y93.481
G1 X69.24 Y93.419
G1 X69.372 Y93.313
G1 X69.516 Y93.207
G1 X69.656 Y93.111
G1 X69.791 Y93.026
G1 X69.869 Y92.978
G1 X74.398 Y90.362
G1 X74.544 Y90.281
G1 X74.622 Y90.24
G1 X74.702 Y90.2
G1 X74.859 Y90.123
G1 X75.023 Y90.053
G1 X75.112 Y90.019
G1 X75.203 Y89.987
G1 X75.377 Y89.931
G1 X75.562 Y89.987
G1 X75.657 Y90.02
G1 X75.821 Y90.087
G1 X75.908 Y90.124
G1 X76.066 Y90.2
G1 X82.081 Y93.273
G1 Z.2
G1 E.5 F1800
;WIDTH:0.599999
G1 F6000
G1 X82.251 Y93.599 E.01586
G1 X82.431 Y94.09 E.02253
G1 X82.432 Y94.276 E.00801
;WIDTH:0.559052
G1 X82.433 Y94.462 E.00742
;WIDTH:0.518104
G1 X82.433 Y94.648 E.00683
;WIDTH:0.477158
G1 X82.432 Y99.793 E.17277
;WIDTH:0.518105
G1 X82.434 Y99.969 E.00645
;WIDTH:0.559052
G1 X82.437 Y100.144 E.00701
;WIDTH:0.599999
G1 X82.439 Y100.32 E.00757
G1 X82.264 Y100.861 E.02448
G1 X82.125 Y101.122 E.01278
G1 X81.788 Y101.585 E.02465
G1 X81.554 Y101.81 E.01399
;WIDTH:0.5995
G1 X81.415 Y101.886 E.00684
;WIDTH:0.55872
G1 X81.275 Y101.962 E.00634
;WIDTH:0.51794
G1 X81.136 Y102.039 E.00584
;WIDTH:0.477159
G1 X76.68 Y104.613 E.17279
;WIDTH:0.517585
G1 X76.525 Y104.702 E.00657
;WIDTH:0.558792
G1 X76.37 Y104.791 E.00714
;WIDTH:0.599999
G1 X76.214 Y104.88 E.00771
G1 X75.795 Y104.975 E.01851
G1 X75.275 Y105.015 E.02249
G1 X74.615 Y104.905 E.02882
G1 X74.462 Y104.821 E.00749
;WIDTH:0.55966
G1 X74.31 Y104.737 E.00695
;WIDTH:0.519321
G1 X74.157 Y104.654 E.00641
;WIDTH:0.478981
G1 X74.087 Y104.612 E.00277
;WIDTH:0.479472
G1 X69.632 Y102.036 E.17371
;WIDTH:0.527373
G1 X69.392 Y101.915 E.01007
;WIDTH:0.563686
G1 X69.234 Y101.804 E.00778
;WIDTH:0.599999
G1 X69.076 Y101.692 E.00832
G1 X68.657 Y101.161 E.02916
G1 X68.4 Y100.586 E.02713
G1 X68.335 Y100.351 E.01052
G1 X68.334 Y100.165 E.00801
;WIDTH:0.559052
G1 X68.333 Y99.979 E.00742
;WIDTH:0.518105
G1 X68.332 Y99.793 E.00683
;WIDTH:0.477157
G1 X68.334 Y94.648 E.17276
;WIDTH:0.518104
G1 X68.331 Y94.468 E.00663
;WIDTH:0.559052
G1 X68.329 Y94.287 E.0072
;WIDTH:0.599999
G1 X68.327 Y94.107 E.00777
G1 X68.507 Y93.565 E.02459
G1 X68.704 Y93.233 E.01665
G1 X69.133 Y92.693 E.0297
G1 X69.299 Y92.596 E.00828
;WIDTH:0.559052
G1 X69.465 Y92.499 E.00767
;WIDTH:0.518105
G1 X69.63 Y92.402 E.00706
;WIDTH:0.477158
G1 X74.085 Y89.828 E.17277
;WIDTH:0.516743
G1 X74.244 Y89.741 E.00664
;WIDTH:0.556328
G1 X74.403 Y89.653 E.00719
;WIDTH:0.595913
G1 X74.561 Y89.566 E.00775
;WIDTH:0.599999
G1 X75.025 Y89.45 E.0206
G1 X75.699 Y89.456 E.029
G1 X76.063 Y89.513 E.01588
G1 X76.229 Y89.596 E.008
;WIDTH:0.560583
G1 X76.395 Y89.679 E.00743
;WIDTH:0.521166
G1 X76.561 Y89.761 E.00687
;WIDTH:0.481749
G1 X76.612 Y89.789 E.00197
;WIDTH:0.480363
G1 X81.202 Y92.444 E.17936
;WIDTH:0.520241
G1 X81.346 Y92.527 E.00614
;WIDTH:0.56012
G1 X81.491 Y92.609 E.00666
;WIDTH:0.599999
G1 X81.635 Y92.692 E.00717
G1 X81.988 Y93.094 E.02304
G1 X82.062 Y93.237 E.00694
G1 E-.35 F1800
;WIPE_START
G1 F6000
G1 X82.251 Y93.599 E-.05817
G1 X82.431 Y94.09 E-.07454
G1 X82.431 Y94.159 E-.00979
;WIPE_END
G1 E-.0075 F1800
G17
G3 Z.3 I.193 J-.236 P1  F30000
G1 X81.521 Y93.415 Z.3
G1 X81.39 Y93.311
G1 X81.313 Y93.252
G1 X81.18 Y93.158
G1 X81.041 Y93.067
G1 X80.967 Y93.021
G1 X80.83 Y92.938
G1 X76.298 Y90.323
G1 X76.214 Y90.276
G1 X76.066 Y90.2
G1 X75.908 Y90.124
G1 X75.821 Y90.087
G1 X75.657 Y90.02
G1 X75.562 Y89.987
G1 X75.377 Y89.931
G1 X75.203 Y89.987
G1 X75.112 Y90.019
G1 X75.023 Y90.053
G1 X74.859 Y90.123
G1 X74.702 Y90.2
G1 X74.622 Y90.24
G1 X74.544 Y90.281
G1 X74.398 Y90.362
G1 X69.869 Y92.978
G1 X69.791 Y93.026
G1 X69.656 Y93.111
G1 X69.516 Y93.207
G1 X69.372 Y93.313
G1 X69.24 Y93.419
G1 X69.17 Y93.481
G1 X69.096 Y93.55
G1 X67.28 Y98.101
G1 X67.28 Y99.875
G1 X67.276 Y100.034
G1 X67.271 Y100.127
G1 X67.258 Y100.294
G1 X67.24 Y100.464
G1 X67.226 Y100.557
G1 X67.194 Y100.731
G1 X67.131 Y100.895
G1 X67.06 Y100.963
G1 X66.925 Y101.077
G1 X66.792 Y101.179
G1 X66.714 Y101.236
G1 X66.582 Y101.325
G1 X66.504 Y101.377
G1 X66.364 Y101.463
G1 X61.834 Y104.078
G1 X61.693 Y104.158
G1 X61.608 Y104.202
G1 X61.46 Y104.276
G1 X61.37 Y104.318
G1 X61.208 Y104.388
G1 X61.12 Y104.422
G1 X61.028 Y104.454
G1 X60.849 Y104.512
G1 X60.669 Y104.454
G1 X60.578 Y104.422
G1 X60.489 Y104.388
G1 X53.877 Y101.587
G1 Z.2
G1 E.5 F1800
;WIDTH:0.361168
G1 F6000
G1 X53.273 Y101.605 E.01487
G1 X53.586 Y101.032 E.01607
G1 X53.714 Y101.319 E.00774
G1 X53.856 Y101.553 E.00676
G1 E-.35 F1800
;WIPE_START
G1 F6000
G1 X53.273 Y101.605 E-.08343
G1 X53.471 Y101.241 E-.05907
;WIPE_END
G1 E-.0075 F1800
G17
G3 Z.3 I.303 J-.032 P1  F30000
G1 X52.724 Y94.146 Z.3
G1 X52.714 Y94.053
G1 X52.693 Y93.89
G1 X52.675 Y93.791
G1 X52.642 Y93.623
G1 X52.589 Y93.536
G1 X52.459 Y93.421
G1 X52.323 Y93.312
G1 X52.25 Y93.256
G1 X46.646 Y89.018
G1 Z.2
G1 E.5 F1800
;WIDTH:0.361777
G1 F6000
G1 X46.02 Y88.998 E.01545
G1 X46.311 Y88.462 E.01505
G1 X46.441 Y88.742 E.00762
G1 X46.622 Y88.986 E.00748
G1 E-.5 F1800
G17
G3 Z.3 I.304 J-.012 P1  F30000
G1 X46.305 Y80.81 Z.3
G1 Z.2
G1 E.5 F1800
;WIDTH:0.359709
G1 F6000
G1 X46.182 Y80.536 E.00736
G1 X46.011 Y80.26 E.00797
G1 X46.176 Y80.278 E.00407
G1 X46.648 Y80.252 E.0116
G1 X46.549 Y80.389 E.00415
G1 X46.325 Y80.776 E.01094
G1 E-.5 F1800
G17
G3 Z.3 I.171 J.252 P1  F30000
G1 X53.586 Y75.862 Z.3
G1 Z.2
G1 E.5 F1800
;WIDTH:0.364258
G1 F6000
G1 X53.712 Y76.146 E.00773
G1 X53.891 Y76.428 E.0083
G1 X53.289 Y76.41 E.01496
G1 X53.567 Y75.897 E.0145
G1 E-.35 F1800
;WIPE_START
G1 F6000
G1 X53.712 Y76.146 E-.04111
G1 X53.891 Y76.428 E-.0476
G1 X53.513 Y76.417 E-.0538
;WIPE_END
G1 E-.0075 F1800
G17
G3 Z.3 I.303 J-.032 P1  F30000
G1 X52.724 Y68.973 Z.3
G1 X52.715 Y68.885
G1 X52.693 Y68.716
G1 X52.675 Y68.617
G1 X52.642 Y68.449
G1 X52.593 Y68.366
G1 X52.459 Y68.248
G1 X52.323 Y68.138
G1 X52.245 Y68.078
G1 X46.646 Y63.844
G1 Z.2
G1 E.5 F1800
;WIDTH:0.361782
G1 F6000
G1 X46.02 Y63.825 E.01545
G1 X46.311 Y63.288 E.01505
G1 X46.441 Y63.569 E.00762
G1 X46.622 Y63.812 E.00748
G1 E-.35 F1800
;WIPE_START
G1 F6000
G1 X46.02 Y63.825 E-.08584
G1 X46.209 Y63.475 E-.05666
;WIPE_END
G1 E-.0075 F1800
G17
G3 Z.3 I.301 J.041 P1  F30000
G1 X47.191 Y56.217 Z.3
G1 X47.205 Y56.124
G1 X47.237 Y55.95
G1 X47.3 Y55.786
G1 X47.371 Y55.717
G1 X47.504 Y55.606
G1 X53.586 Y50.688
G1 Z.2
G1 E.5 F1800
;WIDTH:0.364259
G1 F6000
G1 X53.712 Y50.972 E.00773
G1 X53.891 Y51.254 E.0083
G1 X53.289 Y51.237 E.01496
G1 X53.567 Y50.723 E.0145
G1 E-.35 F1800
;WIPE_START
G1 F6000
G1 X53.712 Y50.972 E-.0411
G1 X53.891 Y51.254 E-.0476
G1 X53.513 Y51.243 E-.0538
;WIPE_END
G1 E-.0075 F1800
G17
G3 Z.3 I-.115 J-.282 P1  F30000
G1 X46.674 Y54.041 Z.3
G1 X46.586 Y54.075
G1 X46.494 Y54.107
G1 X46.315 Y54.164
G1 X46.135 Y54.107
G1 X46.044 Y54.075
G1 X45.955 Y54.041
G1 X38.722 Y51.247
G1 Z.2
G1 E.5 F1800
;WIDTH:0.362172
G1 F6000
G1 X38.879 Y51.031 E.00659
G1 X39.051 Y50.72 E.00877
G1 X39.179 Y50.991 E.00741
G1 X39.378 Y51.257 E.0082
G1 X38.762 Y51.247 E.01523
G1 E-.35 F1800
;WIPE_START
G1 F6000
G1 X38.879 Y51.031 E-.03509
G1 X39.051 Y50.72 E-.05061
G1 X39.179 Y50.991 E-.04275
G1 X39.238 Y51.07 E-.01405
;WIPE_END
G1 E-.0075 F1800
G17
G3 Z.3 I.301 J-.043 P1  F30000
G1 X38.159 Y43.54 Z.3
G1 X38.127 Y43.366
G1 X38.104 Y43.27
G1 X37.995 Y43.136
G1 X37.924 Y43.071
G1 X31.789 Y38.112
G1 Z.2
G1 E.5 F1800
;WIDTH:0.364469
G1 F6000
G1 X31.911 Y38.385 E.00744
G1 X32.09 Y38.668 E.0083
G1 X31.457 Y38.659 E.01573
G1 X31.612 Y38.445 E.00658
G1 X31.77 Y38.147 E.00837
G1 E-.5 F1800
G17
G3 Z.3 I.304 J-.011 P1  F30000
G1 X31.467 Y29.915 Z.3
G1 Z.2
G1 E.5 F1800
;WIDTH:0.358736
G1 F6000
G1 X32.116 Y29.904 E.01583
G1 X31.936 Y30.151 E.00745
G1 X31.777 Y30.443 E.00812
G1 X31.748 Y30.369 E.00196
G1 X31.488 Y29.949 E.01205
G1 E-.5 F1800
G17
G3 Z.3 I.153 J-.263 P1  F30000
G1 X24.823 Y26.078 Z.3
G1 Z.2
G1 E.5 F1800
;WIDTH:0.369164
G1 F6000
G1 X24.217 Y26.067 E.01529
G1 X24.519 Y25.56 E.01488
G1 X24.802 Y26.044 E.01415
G1 E-.5 F1800
G17
G3 Z.3 I-.143 J-.268 P1  F30000
G1 X17.582 Y29.904 Z.3
G1 Z.2
G1 E.5 F1800
;WIDTH:0.358735
G1 F6000
G1 X17.402 Y30.151 E.00745
G1 X17.244 Y30.444 E.00814
G1 X17.214 Y30.369 E.00199
G1 X16.933 Y29.915 E.01303
G1 X17.542 Y29.905 E.01485
G1 E-.5 F1800
G17
G3 Z.3 I.152 J-.264 P1  F30000
G1 X9.986 Y25.546 Z.3
G1 Z.2
G1 E.5 F1800
;WIDTH:0.364958
G1 F6000
G1 X10.293 Y26.081 E.01537
G1 X9.683 Y26.063 E.01519
G1 X9.965 Y25.58 E.01392
G1 E-.5 F1800
G17
G3 Z.3 I.3 J.051 P1  F30000
G1 X10.385 Y23.112 Z.3
G1 Z.2
G1 E.5 F1800
;WIDTH:0.675942
G1 F6000
G1 X10.486 Y23.073 E.00531
;WIDTH:0.627929
G1 X10.602 Y23.027 E.00567
;WIDTH:0.579915
G1 X10.719 Y22.982 E.0052
;WIDTH:0.531902
G1 X10.836 Y22.936 E.00474
;WIDTH:0.483888
G1 X10.97 Y22.928 E.00459
;WIDTH:0.476383
G1 X23.523 Y22.928 E.42078
;WIDTH:0.525897
G1 X23.667 Y22.975 E.00564
;WIDTH:0.575411
G1 X23.811 Y23.023 E.00622
;WIDTH:0.624925
G1 X23.954 Y23.07 E.0068
;WIDTH:0.674439
G1 X24.098 Y23.117 E.00738
;WIDTH:0.723953
G1 X24.241 Y23.164 E.00796
G1 X24.253 Y23.272 E.00572
;WIDTH:0.674414
G1 X24.264 Y23.38 E.00531
;WIDTH:0.624875
G1 X24.275 Y23.488 E.00489
;WIDTH:0.575336
G1 X24.286 Y23.596 E.00447
;WIDTH:0.525797
G1 X24.297 Y23.704 E.00406
;WIDTH:0.479984
G1 X24.297 Y24.351 E.02185
;WIDTH:0.519989
G1 X24.274 Y24.582 E.00858
;WIDTH:0.559994
G1 X24.251 Y24.813 E.0093
;WIDTH:0.599999
G1 X24.228 Y25.045 E.01002
G1 X24.128 Y25.345 E.01363
G1 X23.793 Y25.905 E.0281
G1 X23.397 Y26.263 E.023
;WIDTH:0.554732
G1 X23.197 Y26.389 E.00936
;WIDTH:0.517102
G1 X22.997 Y26.515 E.00867
;WIDTH:0.479472
G1 X18.477 Y29.129 E.17628
;WIDTH:0.518688
G1 X18.294 Y29.222 E.00756
;WIDTH:0.559344
G1 X18.11 Y29.315 E.0082
;WIDTH:0.599999
G1 X17.927 Y29.407 E.00885
G1 X17.24 Y29.496 E.02985
G1 X16.648 Y29.429 E.02564
G1 X16.472 Y29.382 E.00784
G1 X16.321 Y29.299 E.00744
;WIDTH:0.560122
G1 X16.17 Y29.215 E.00691
;WIDTH:0.520244
G1 X16.019 Y29.132 E.00638
;WIDTH:0.480366
G1 X11.493 Y26.519 E.17676
;WIDTH:0.514365
G1 X11.338 Y26.427 E.0066
;WIDTH:0.551461
G1 X11.182 Y26.336 E.00712
;WIDTH:0.588557
G1 X11.026 Y26.244 E.00763
;WIDTH:0.599999
G1 X10.709 Y25.914 E.01968
G1 X10.356 Y25.306 E.0303
G1 X10.226 Y24.912 E.01788
G1 X10.218 Y24.724 E.00809
;WIDTH:0.559995
G1 X10.209 Y24.537 E.00751
;WIDTH:0.519991
G1 X10.2 Y24.349 E.00693
;WIDTH:0.479987
G1 X10.196 Y23.709 E.02163
;WIDTH:0.525822
G1 X10.208 Y23.6 E.0041
;WIDTH:0.575355
G1 X10.219 Y23.491 E.00452
;WIDTH:0.624889
G1 X10.23 Y23.382 E.00494
;WIDTH:0.674422
G1 X10.241 Y23.273 E.00536
;WIDTH:0.723955
G1 X10.252 Y23.164 E.00578
G1 X10.347 Y23.127 E.00538
G1 E-.35 F1800
;WIPE_START
G1 F6000
G1 X10.486 Y23.073 E-.02114
G1 X10.602 Y23.027 E-.01785
G1 X10.719 Y22.982 E-.01785
G1 X10.836 Y22.936 E-.01785
G1 X10.97 Y22.928 E-.01918
G1 X11.311 Y22.928 E-.04863
;WIPE_END
G1 E-.0075 F1800
G17
G3 Z.3 I-.221 J-.209 P1  F30000
G1 X8.994 Y25.378 Z.3
G1 X8.859 Y25.497
G1 X8.786 Y25.558
G1 X8.65 Y25.664
G1 X8.51 Y25.762
G1 X8.369 Y25.855
G1 X4.298 Y28.515
G1 Z.2
G1 E.5 F1800
;WIDTH:0.599999
G1 F6000
G1 X4.182 Y28.318 E.00983
;WIDTH:0.561296
G1 X4.066 Y28.122 E.00915
;WIDTH:0.522592
G1 X3.95 Y27.925 E.00847
;WIDTH:0.483888
G1 X3.942 Y27.791 E.00459
;WIDTH:0.476383
G1 X3.942 Y23.702 E.13705
;WIDTH:0.51887
G1 X3.983 Y23.55 E.00579
;WIDTH:0.561357
G1 X4.025 Y23.399 E.00631
;WIDTH:0.603844
G1 X4.066 Y23.247 E.00683
;WIDTH:0.646331
G1 X4.108 Y23.095 E.00735
G1 X4.226 Y23.055 E.00582
;WIDTH:0.605721
G1 X4.345 Y23.016 E.00543
;WIDTH:0.56511
G1 X4.463 Y22.976 E.00504
;WIDTH:0.524499
G1 X4.581 Y22.936 E.00464
;WIDTH:0.483888
G1 X4.715 Y22.928 E.00459
;WIDTH:0.476383
G1 X8.989 Y22.928 E.14326
;WIDTH:0.525898
G1 X9.133 Y22.975 E.00564
;WIDTH:0.575412
G1 X9.277 Y23.023 E.00622
;WIDTH:0.624927
G1 X9.42 Y23.07 E.0068
;WIDTH:0.674441
G1 X9.564 Y23.117 E.00738
;WIDTH:0.723955
G1 X9.707 Y23.164 E.00796
G1 X9.719 Y23.272 E.00572
;WIDTH:0.674417
G1 X9.73 Y23.38 E.00531
;WIDTH:0.624878
G1 X9.741 Y23.488 E.00489
;WIDTH:0.575339
G1 X9.752 Y23.596 E.00448
;WIDTH:0.5258
G1 X9.763 Y23.704 E.00406
;WIDTH:0.479987
G1 X9.763 Y24.351 E.02184
;WIDTH:0.519991
G1 X9.759 Y24.531 E.00666
;WIDTH:0.559995
G1 X9.754 Y24.712 E.00722
;WIDTH:0.599999
G1 X9.75 Y24.892 E.00778
G1 X9.61 Y25.314 E.01914
G1 X9.391 Y25.721 E.0199
G1 X9.015 Y26.173 E.02536
G1 X8.864 Y26.268 E.00768
;WIDTH:0.561232
G1 X8.713 Y26.363 E.00715
;WIDTH:0.522464
G1 X8.562 Y26.458 E.00661
;WIDTH:0.483696
G1 X8.466 Y26.519 E.00388
;WIDTH:0.477223
G1 X5.102 Y28.461 E.13045
;WIDTH:0.484075
G1 X4.982 Y28.522 E.0046
;WIDTH:0.522717
G1 X4.754 Y28.519 E.00846
;WIDTH:0.561358
G1 X4.526 Y28.517 E.00914
;WIDTH:0.599999
G1 X4.338 Y28.515 E.0081
G1 E-.35 F1800
;WIPE_START
G1 F6000
G1 X4.182 Y28.318 E-.0358
G1 X4.066 Y28.122 E-.03252
G1 X3.95 Y27.925 E-.03252
G1 X3.942 Y27.791 E-.01918
G1 X3.942 Y27.633 E-.02247
;WIPE_END
G1 E-.0075 F1800
G17
G3 Z.3 I-.197 J.232 P1  F30000
G1 X5.847 Y29.246 Z.3
G1 X9.065 Y27.389
G1 X9.144 Y27.346
G1 X9.292 Y27.268
G1 X9.454 Y27.191
G1 X9.541 Y27.153
G1 X9.706 Y27.085
G1 X9.8 Y27.053
G1 X9.974 Y26.998
G1 X10.159 Y27.053
G1 X10.254 Y27.086
G1 X10.418 Y27.153
G1 X10.505 Y27.19
G1 X10.663 Y27.266
G1 X10.811 Y27.342
G1 X10.895 Y27.388
G1 X15.427 Y30.004
G1 X15.564 Y30.087
G1 X15.638 Y30.133
G1 X15.772 Y30.221
G1 X15.917 Y30.322
G1 X16.053 Y30.428
G1 X16.126 Y30.49
G1 X16.259 Y30.606
G1 X16.307 Y30.689
G1 X16.341 Y30.862
G1 X16.358 Y30.956
G1 X16.38 Y31.125
G1 X16.39 Y31.213
G1 X16.397 Y31.3
G1 X16.954 Y38.65
G1 Z.2
G1 E.5 F1800
;WIDTH:0.36426
