; HEADER_BLOCK_START
; generated by OrcaSlicer 1.6.6 on 2023-12-28 at 19:29:25
; total layer number: 40
; HEADER_BLOCK_END

; THUMBNAIL_BLOCK_START
; THUMBNAIL_BLOCK_END

; external perimeters extrusion width = 0.48mm
; perimeters extrusion width = 0.48mm
; infill extrusion width = 0.48mm
; solid infill extrusion width = 0.48mm
; top infill extrusion width = 0.48mm
; support material extrusion width = 0.40mm
; first layer extrusion width = 0.60mm

; EXECUTABLE_BLOCK_START
EXCLUDE_OBJECT_DEFINE NAME=backplate-plain-top-left.stl_id_0_copy_0 CENTER=60.2128,67.9497 POLYGON=[[2.71283,21.6997],[99.7128,21.6997],[117.713,86.2237],[117.713,112.176],[115.689,114.2],[2.71283,114.2],[2.71283,21.6997]]
M73 P0 R29
;TYPE:Custom
M104 S0
M140 S0

print_start EXTRUDER=280 BED=110

G92 E0.0
G90
G21
M83 ; use relative distances for extrusion
; Filament gcode
SET_PRESSURE_ADVANCE ADVANCE=0.02; Override pressure advance value
M106 S0
;LAYER_CHANGE
;Z:0.2
;HEIGHT:0.2
;BEFORE_LAYER_CHANGE
;0.2
G92 E0

G1 E-.5 F1800
;AFTER_LAYER_CHANGE
;0.2
SET_VELOCITY_LIMIT ACCEL=10000
SET_VELOCITY_LIMIT SQUARE_CORNER_VELOCITY=9
; printing object backplate-plain-top-left.stl id:0 copy 0
EXCLUDE_OBJECT_START NAME=backplate-plain-top-left.stl_id_0_copy_0
G1 X60.132 Y79.166 F30000
G1 Z.2
G1 E.5 F1800
;TYPE:Outer wall
;WIDTH:0.6
G1 F6000
G1 X60.13 Y79.165 E.00009
G1 X59.882 Y79.056 E.0117
G1 X55.197 Y76.346 E.23313
G1 X54.988 Y76.18 E.01149
G1 X54.804 Y75.992 E.01136
G1 X54.644 Y75.782 E.01136
G1 X54.509 Y75.548 E.01164
G1 X54.36 Y75.148 E.01838
G1 X54.31 Y74.882 E.01164
G1 X54.294 Y74.628 E.01096
G1 X54.295 Y69.384 E.22594
G1 X54.323 Y69.125 E.01123
G1 X54.384 Y68.865 E.0115
G1 X54.511 Y68.544 E.01488
G1 X54.647 Y68.307 E.01177
G1 X54.923 Y67.973 E.01865
G1 X55.26 Y67.706 E.01852
G1 X59.813 Y65.076 E.22651
G1 X60.217 Y64.898 E.01901
G1 X60.662 Y64.81 E.01957
G1 X61.029 Y64.81 E.01578
G1 X61.303 Y64.852 E.01198
G1 X61.567 Y64.929 E.01184
G1 X61.816 Y65.038 E.0117
G1 X66.5 Y67.748 E.23313
G1 X66.709 Y67.914 E.0115
G1 X66.894 Y68.102 E.01136
G1 X67.053 Y68.312 E.01136
G1 X67.189 Y68.546 E.01164
G1 X67.337 Y68.946 E.01838
G1 X67.388 Y69.212 E.01164
G1 X67.404 Y69.465 E.01096
G1 X67.402 Y74.71 E.22594
G1 X67.375 Y74.972 E.01136
G1 X67.289 Y75.307 E.01488
G1 X67.185 Y75.553 E.0115
G1 X67.05 Y75.787 E.01164
G1 X66.774 Y76.121 E.01865
G1 X66.437 Y76.388 E.01852
G1 X61.89 Y79.015 E.22622
G1 X61.653 Y79.132 E.01142
G1 X61.392 Y79.22 E.01184
G1 X61.123 Y79.274 E.01184
G1 X60.842 Y79.292 E.01212
G1 X60.4 Y79.244 E.01915
G1 X60.171 Y79.177 E.01031
G1 E-.35 F1800
;WIPE_START
G1 F6000
G1 X60.13 Y79.165 E-.006
G1 X59.882 Y79.056 E-.03871
G1 X59.288 Y78.712 E-.09779
;WIPE_END
G1 E-.0075 F1800
G17
G3 Z.3 I.159 J-.259 P1  F30000
G1 X55.263 Y76.246 Z.3
G1 X55.123 Y76.158
G1 X55.052 Y76.11
G1 X54.98 Y76.059
G1 X54.844 Y75.96
G1 X54.772 Y75.901
G1 X54.638 Y75.79
G1 X54.567 Y75.721
G1 X54.505 Y75.56
G1 X54.485 Y75.466
G1 X54.459 Y75.293
G1 X54.439 Y75.121
G1 X54.426 Y74.954
G1 X54.422 Y74.866
G1 X54.418 Y74.704
G1 X54.417 Y74.621
G1 X54.418 Y69.392
G1 X54.422 Y69.228
G1 X54.426 Y69.14
G1 X54.439 Y68.975
G1 X54.449 Y68.885
G1 X54.471 Y68.714
G1 X54.504 Y68.537
G1 X54.562 Y68.377
G1 X54.636 Y68.307
G1 X54.706 Y68.245
G1 X54.843 Y68.136
G1 X54.982 Y68.033
G1 X55.122 Y67.937
G1 X55.257 Y67.852
G1 X55.335 Y67.804
G1 X59.863 Y65.189
G1 X60.005 Y65.111
G1 X60.09 Y65.065
G1 X60.243 Y64.988
G1 X60.326 Y64.951
G1 X60.41 Y64.914
G1 X60.575 Y64.846
G1 X60.669 Y64.813
G1 X60.843 Y64.757
G1 X62.256 Y64.304
G1 Z.2
G1 E.5 F1800
;TYPE:Inner wall
G1 F6000
G1 X62.104 Y64.556 E.01267
G1 X61.758 Y64.404 E.01627
G1 X61.424 Y64.307 E.01498
G1 X61.071 Y64.253 E.01539
G1 X60.608 Y64.253 E.01998
G1 X60.048 Y64.364 E.02456
G1 X59.55 Y64.583 E.02347
G1 X59.398 Y64.331 E.01267
G1 X59.899 Y63.934 E.02756
G1 X60.242 Y63.519 E.02319
G1 X60.423 Y63.207 E.01555
G1 X60.58 Y62.81 E.0184
G1 X60.658 Y62.476 E.01477
G1 X60.699 Y62.091 E.01668
G1 X61.006 Y62.097 E.01324
G1 X61.023 Y62.365 E.01159
G1 X61.089 Y62.711 E.01516
G1 X61.27 Y63.199 E.02241
G1 X61.446 Y63.504 E.01516
G1 X61.648 Y63.77 E.01438
G1 X61.882 Y64.008 E.01438
G1 X62.224 Y64.28 E.01883
G1 E-.35 F1800
;WIPE_START
G1 F6000
G1 X62.104 Y64.556 E-.043
G1 X61.758 Y64.404 E-.05382
G1 X61.45 Y64.315 E-.04568
;WIPE_END
G1 E-.0075 F1800
G17
G3 Z.3 I.304 J-.018 P1  F30000
G1 X60.999 Y56.83 Z.3
G1 Z.2
G1 E.5 F1800
G1 F6000
G1 X60.692 Y56.823 E.01324
G1 X60.675 Y56.555 E.01159
G1 X60.612 Y56.227 E.01438
G1 X60.509 Y55.909 E.01438
G1 X60.367 Y55.607 E.01438
G1 X60.188 Y55.325 E.01438
G1 X59.963 Y55.054 E.01516
G1 X59.45 Y54.611 E.02924
G1 X59.595 Y54.369 E.01213
G1 X60.142 Y54.582 E.0253
G1 X60.502 Y54.654 E.01579
G1 X60.849 Y54.676 E.01498
G1 X61.196 Y54.654 E.01498
G1 X61.537 Y54.586 E.01498
G1 X61.866 Y54.474 E.01498
G1 X62.124 Y54.347 E.01236
G1 X62.284 Y54.601 E.01295
G1 X61.798 Y54.986 E.02671
G1 X61.455 Y55.401 E.02319
G1 X61.279 Y55.706 E.01516
G1 X61.146 Y56.022 E.01477
G1 X61.04 Y56.436 E.0184
G1 X61.003 Y56.79 E.01535
G1 E-.35 F1800
;WIPE_START
G1 F6000
G1 X60.692 Y56.823 E-.04464
G1 X60.675 Y56.555 E-.03834
G1 X60.612 Y56.227 E-.04758
G1 X60.586 Y56.147 E-.01195
;WIPE_END
G1 E-.0075 F1800
G17
G3 Z.3 I-.3 J.052 P1  F30000
G1 X61.752 Y62.879 Z.3
G1 X61.772 Y62.973
G1 X61.834 Y63.135
G1 X61.903 Y63.2
G1 X61.974 Y63.262
G1 X62.108 Y63.369
G1 X62.186 Y63.429
G1 X62.317 Y63.522
G1 X62.39 Y63.571
G1 X62.53 Y63.659
G1 X62.669 Y63.743
G1 X67.399 Y66.579
G1 Z.2
G1 E.5 F1800
;TYPE:Outer wall
G1 F6000
G1 X67.397 Y66.578 E.00009
G1 X67.149 Y66.469 E.0117
G1 X62.464 Y63.759 E.23313
G1 X62.255 Y63.593 E.01149
G1 X62.071 Y63.405 E.01136
G1 X61.911 Y63.195 E.01136
G1 X61.776 Y62.961 E.01164
G1 X61.627 Y62.561 E.01838
G1 X61.577 Y62.296 E.01164
G1 X61.561 Y62.042 E.01096
G1 X61.562 Y56.797 E.22594
G1 X61.59 Y56.535 E.01136
G1 X61.676 Y56.2 E.01487
G1 X61.779 Y55.954 E.0115
G1 X61.914 Y55.72 E.01164
G1 X62.19 Y55.386 E.01865
G1 X62.527 Y55.119 E.01852
G1 X67.152 Y52.45 E.23003
G1 X67.487 Y52.311 E.01564
G1 X67.929 Y52.223 E.01943
G1 X68.296 Y52.223 E.01578
G1 X68.57 Y52.265 E.01198
G1 X68.834 Y52.342 E.01184
G1 X69.083 Y52.451 E.0117
G1 X73.773 Y55.164 E.2334
G1 X74.098 Y55.445 E.01851
G1 X74.27 Y55.653 E.01164
G1 X74.412 Y55.876 E.01136
G1 X74.524 Y56.115 E.01136
G1 X74.605 Y56.366 E.01136
G1 X74.655 Y56.625 E.01136
G1 X74.671 Y56.879 E.01096
G1 X74.669 Y62.123 E.22594
G1 X74.642 Y62.383 E.01123
G1 X74.581 Y62.642 E.0115
G1 X74.454 Y62.964 E.01488
G1 X74.317 Y63.2 E.01177
G1 X74.041 Y63.534 E.01866
G1 X73.704 Y63.801 E.01852
G1 X69.157 Y66.428 E.22622
G1 X68.92 Y66.545 E.01142
G1 X68.66 Y66.633 E.01184
G1 X68.39 Y66.687 E.01184
G1 X68.109 Y66.705 E.01212
G1 X67.667 Y66.657 E.01914
G1 X67.438 Y66.59 E.01031
G1 E-.35 F1800
;WIPE_START
G1 F6000
G1 X67.397 Y66.578 E-.006
G1 X67.149 Y66.469 E-.0387
G1 X66.555 Y66.125 E-.09779
;WIPE_END
G1 E-.0075 F1800
G17
G3 Z.3 I.159 J-.259 P1  F30000
G1 X62.53 Y63.659 Z.3
G1 X62.39 Y63.571
G1 X62.317 Y63.522
G1 X62.186 Y63.429
G1 X62.108 Y63.369
G1 X61.974 Y63.262
G1 X61.903 Y63.2
G1 X61.834 Y63.135
G1 X61.772 Y62.973
G1 X61.752 Y62.879
G1 X61.726 Y62.706
G1 X61.706 Y62.534
G1 X61.693 Y62.367
G1 X61.689 Y62.279
G1 X61.685 Y62.117
G1 X61.684 Y62.034
G1 X61.685 Y56.805
G1 X61.689 Y56.641
G1 X61.693 Y56.553
G1 X61.706 Y56.386
G1 X61.725 Y56.214
G1 X61.751 Y56.047
G1 X61.772 Y55.947
G1 X61.833 Y55.785
G1 X61.903 Y55.72
G1 X61.974 Y55.658
G1 X62.11 Y55.549
G1 X62.247 Y55.448
G1 X62.32 Y55.396
G1 X62.455 Y55.308
G1 X62.601 Y55.218
G1 X67.129 Y52.603
G1 X67.204 Y52.56
G1 X67.355 Y52.479
G1 X67.51 Y52.401
G1 X67.593 Y52.364
G1 X67.677 Y52.327
G1 X67.842 Y52.259
G1 X67.936 Y52.227
G1 X69.523 Y51.718
G1 Z.2
G1 E.5 F1800
;TYPE:Inner wall
G1 F6000
G1 X69.371 Y51.97 E.01267
G1 X69.025 Y51.817 E.01627
G1 X68.691 Y51.72 E.01498
G1 X68.338 Y51.666 E.01539
G1 X67.875 Y51.666 E.01998
G1 X67.325 Y51.775 E.02416
G1 X66.833 Y51.979 E.02291
G1 X66.686 Y51.728 E.01253
G1 X67.166 Y51.347 E.0264
G1 X67.509 Y50.932 E.02319
G1 X67.69 Y50.62 E.01555
G1 X67.847 Y50.223 E.0184
G1 X67.925 Y49.889 E.01477
G1 X67.966 Y49.504 E.01668
G1 X68.273 Y49.51 E.01324
G1 X68.29 Y49.779 E.01159
G1 X68.356 Y50.125 E.01519
G1 X68.54 Y50.618 E.02265
G1 X68.714 Y50.917 E.0149
G1 X68.915 Y51.183 E.01436
G1 X69.149 Y51.421 E.01438
G1 X69.491 Y51.693 E.01883
G1 E-.35 F1800
;WIPE_START
G1 F6000
G1 X69.371 Y51.97 E-.043
G1 X69.025 Y51.817 E-.05383
G1 X68.718 Y51.728 E-.04568
;WIPE_END
G1 E-.0075 F1800
G17
G3 Z.3 I.304 J-.019 P1  F30000
G1 X68.26 Y44.271 Z.3
G1 Z.2
G1 E.5 F1800
G1 F6000
G1 X67.962 Y44.268 E.01284
G1 X67.909 Y43.766 E.02173
G1 X67.815 Y43.427 E.01516
G1 X67.685 Y43.119 E.01438
G1 X67.518 Y42.83 E.01438
G1 X67.317 Y42.564 E.01438
G1 X67.083 Y42.325 E.01438
G1 X66.707 Y42.027 E.02066
G1 X66.85 Y41.778 E.01238
G1 X67.416 Y41.997 E.02614
G1 X67.769 Y42.067 E.01552
G1 X68.116 Y42.09 E.01496
G1 X68.463 Y42.067 E.01498
G1 X68.804 Y41.999 E.01498
G1 X69.133 Y41.887 E.01498
G1 X69.391 Y41.76 E.01236
G1 X69.551 Y42.014 E.01295
G1 X69.065 Y42.399 E.02671
G1 X68.722 Y42.814 E.02319
G1 X68.546 Y43.119 E.01516
G1 X68.417 Y43.428 E.01442
G1 X68.324 Y43.764 E.01502
G1 X68.265 Y44.231 E.02029
G1 E-.35 F1800
;WIPE_START
G1 F6000
G1 X67.962 Y44.268 E-.04348
G1 X67.909 Y43.766 E-.07189
G1 X67.858 Y43.582 E-.02713
;WIPE_END
G1 E-.0075 F1800
G17
G3 Z.3 I-.3 J.052 P1  F30000
G1 X69.006 Y50.207 Z.3
G1 X69.039 Y50.389
G1 X69.101 Y50.548
G1 X69.171 Y50.614
G1 X69.245 Y50.679
G1 X69.377 Y50.784
G1 X69.514 Y50.886
G1 X69.586 Y50.936
G1 X69.662 Y50.987
G1 X69.797 Y51.072
G1 X69.936 Y51.156
G1 X74.742 Y54.014
G1 Z.2
G1 E.5 F1800
;TYPE:Outer wall
G1 F6000
G1 X74.664 Y53.991 E.00348
G1 X74.416 Y53.882 E.0117
G1 X69.731 Y51.172 E.23313
G1 X69.522 Y51.006 E.01149
G1 X69.338 Y50.818 E.01136
G1 X69.178 Y50.608 E.01136
G1 X69.046 Y50.379 E.0114
G1 X68.894 Y49.974 E.01861
G1 X68.844 Y49.709 E.01165
G1 X68.828 Y49.455 E.01096
G1 X68.829 Y44.207 E.22607
G1 X68.871 Y43.873 E.0145
G1 X68.944 Y43.611 E.01173
G1 X69.046 Y43.367 E.01138
G1 X69.181 Y43.133 E.01164
G1 X69.457 Y42.8 E.01866
G1 X69.794 Y42.533 E.01852
G1 X74.347 Y39.902 E.22651
G1 X74.751 Y39.725 E.01901
G1 X75.196 Y39.636 E.01957
G1 X75.563 Y39.636 E.01578
G1 X75.838 Y39.678 E.01198
G1 X76.101 Y39.755 E.01184
G1 X76.35 Y39.865 E.0117
G1 X81.034 Y42.574 E.23313
G1 X81.243 Y42.74 E.01149
G1 X81.428 Y42.929 E.01136
G1 X81.587 Y43.139 E.01136
G1 X81.723 Y43.373 E.01164
G1 X81.871 Y43.773 E.01838
G1 X81.922 Y44.038 E.01164
G1 X81.938 Y44.292 E.01096
G1 X81.936 Y49.537 E.22594
G1 X81.909 Y49.796 E.01123
G1 X81.848 Y50.056 E.0115
G1 X81.721 Y50.377 E.01487
G1 X81.584 Y50.613 E.01177
G1 X81.308 Y50.947 E.01865
G1 X80.971 Y51.214 E.01852
G1 X76.424 Y53.841 E.22622
G1 X76.187 Y53.958 E.01142
G1 X75.927 Y54.047 E.01184
G1 X75.657 Y54.1 E.01184
G1 X75.376 Y54.119 E.01212
G1 X74.935 Y54.07 E.01914
G1 X74.78 Y54.025 E.00692
G1 E-.35 F1800
;WIPE_START
G1 F6000
G1 X74.664 Y53.991 E-.01722
G1 X74.416 Y53.882 E-.0387
G1 X73.89 Y53.578 E-.08658
;WIPE_END
G1 E-.0075 F1800
G17
G3 Z.3 I.159 J-.259 P1  F30000
G1 X69.797 Y51.072 Z.3
G1 X69.662 Y50.987
G1 X69.586 Y50.936
G1 X69.514 Y50.886
G1 X69.377 Y50.784
G1 X69.245 Y50.679
G1 X69.171 Y50.614
G1 X69.101 Y50.548
G1 X69.039 Y50.389
G1 X69.006 Y50.207
G1 X68.984 Y50.041
G1 X68.974 Y49.947
G1 X68.965 Y49.86
G1 X68.956 Y49.694
G1 X68.952 Y49.53
G1 X68.951 Y49.447
G1 X68.951 Y44.218
G1 X68.956 Y44.052
G1 X68.966 Y43.892
G1 X68.974 Y43.798
G1 X68.992 Y43.63
G1 X69.006 Y43.537
G1 X69.038 Y43.363
G1 X69.101 Y43.199
G1 X75.536 Y36.891
G1 Z.2
G1 E.5 F1800
;TYPE:Inner wall
G1 F6000
G1 X75.591 Y37.4 E.02208
G1 X75.684 Y37.733 E.0149
G1 X75.813 Y38.041 E.01437
G1 X75.98 Y38.33 E.01438
G1 X76.182 Y38.596 E.01438
G1 X76.416 Y38.834 E.01438
G1 X76.79 Y39.131 E.02056
G1 X76.638 Y39.383 E.01267
G1 X76.292 Y39.231 E.01627
G1 X75.958 Y39.133 E.01498
G1 X75.605 Y39.079 E.01539
G1 X75.142 Y39.079 E.01998
G1 X74.582 Y39.19 E.02456
G1 X74.084 Y39.41 E.02347
G1 X73.932 Y39.158 E.01267
G1 X74.433 Y38.76 E.02756
G1 X74.776 Y38.346 E.02319
G1 X74.953 Y38.04 E.0152
G1 X75.087 Y37.718 E.01502
G1 X75.191 Y37.311 E.01814
G1 X75.236 Y36.891 E.01818
G1 X75.496 Y36.891 E.01123
G1 E-.35 F1800
;WIPE_START
G1 F6000
G1 X75.591 Y37.4 E-.07387
G1 X75.684 Y37.733 E-.04929
G1 X75.737 Y37.858 E-.01934
;WIPE_END
G1 E-.0075 F1800
G17
G3 Z.3 I.303 J.023 P1  F30000
G1 X76.227 Y31.38 Z.3
G1 X76.24 Y31.213
G1 X76.258 Y31.049
G1 X76.273 Y30.951
G1 X76.305 Y30.776
G1 X76.813 Y29.432
G1 Z.2
G1 E.5 F1800
G1 F6000
G1 X76.332 Y29.813 E.02639
G1 X75.989 Y30.227 E.02319
G1 X75.813 Y30.533 E.0152
G1 X75.678 Y30.855 E.01502
G1 X75.574 Y31.263 E.01814
G1 X75.533 Y31.656 E.01705
G1 X75.226 Y31.65 E.01324
G1 X75.209 Y31.381 E.01159
G1 X75.146 Y31.053 E.01438
G1 X75.043 Y30.736 E.01438
G1 X74.901 Y30.434 E.01438
G1 X74.722 Y30.152 E.01438
G1 X74.497 Y29.88 E.01516
G1 X73.984 Y29.437 E.02924
G1 X74.129 Y29.196 E.01213
G1 X74.694 Y29.415 E.02611
G1 X75.248 Y29.501 E.02416
G1 X75.615 Y29.493 E.01579
G1 X75.958 Y29.44 E.01498
G1 X76.292 Y29.342 E.01499
G1 X76.661 Y29.18 E.01735
G1 X76.792 Y29.398 E.01094
G1 E-.5 F1800
G17
G3 Z.3 I.121 J.279 P1  F30000
G1 X81.824 Y27.212 Z.3
G1 Z.2
G1 E.5 F1800
;TYPE:Outer wall
G1 F6000
G1 X81.846 Y27.202 E.00105
G1 X82.109 Y27.112 E.01198
G1 X82.467 Y27.049 E.01564
G1 X82.83 Y27.049 E.01564
G1 X83.104 Y27.091 E.01198
G1 X83.368 Y27.168 E.01184
G1 X83.617 Y27.278 E.0117
G1 X88.307 Y29.991 E.2334
G1 X88.632 Y30.272 E.01851
G1 X88.804 Y30.48 E.01164
G1 X88.946 Y30.702 E.01136
G1 X89.058 Y30.941 E.01136
G1 X89.139 Y31.192 E.01136
G1 X89.189 Y31.451 E.01136
G1 X89.205 Y31.705 E.01096
G1 X89.203 Y36.95 E.22594
G1 X89.176 Y37.209 E.01123
G1 X89.115 Y37.469 E.0115
G1 X88.988 Y37.79 E.01488
G1 X88.851 Y38.027 E.01177
G1 X88.575 Y38.36 E.01865
G1 X88.238 Y38.627 E.01852
G1 X83.691 Y41.254 E.22623
G1 X83.454 Y41.371 E.01141
G1 X83.194 Y41.46 E.01184
G1 X82.924 Y41.513 E.01184
G1 X82.65 Y41.531 E.01184
G1 X82.376 Y41.513 E.01184
G1 X82.1 Y41.458 E.01212
G1 X81.688 Y41.299 E.01901
G1 X76.998 Y38.585 E.23342
G1 X76.789 Y38.42 E.01149
G1 X76.605 Y38.231 E.01136
G1 X76.445 Y38.021 E.01136
G1 X76.313 Y37.793 E.01136
G1 X76.211 Y37.55 E.01136
G1 X76.14 Y37.295 E.0114
G1 X76.095 Y36.875 E.01821
G1 X76.096 Y31.623 E.22622
G1 X76.124 Y31.361 E.01135
G1 X76.208 Y31.032 E.01464
G1 X76.313 Y30.781 E.01173
G1 X76.448 Y30.547 E.01165
G1 X76.724 Y30.213 E.01865
G1 X77.061 Y29.946 E.01852
G1 X81.608 Y27.319 E.22622
G1 X81.788 Y27.23 E.00865
G1 E-.5 F1800
G17
G3 Z.3 I.086 J.292 P1  F30000
G1 X84.093 Y26.549 Z.3
G1 Z.2
G1 E.5 F1800
;TYPE:Inner wall
G1 F6000
G1 X83.945 Y26.813 E.01307
G1 X83.559 Y26.644 E.01815
G1 X83.225 Y26.546 E.01498
G1 X82.872 Y26.492 E.01539
G1 X82.418 Y26.492 E.01957
G1 X81.971 Y26.571 E.01957
G1 X81.632 Y26.686 E.01539
G1 X81.415 Y26.793 E.01043
G1 X81.253 Y26.548 E.01268
G1 X81.764 Y26.106 E.02912
G1 X81.989 Y25.835 E.01516
G1 X82.178 Y25.537 E.01519
G1 X82.381 Y25.052 E.02266
G1 X82.459 Y24.715 E.0149
G1 X82.497 Y24.359 E.01542
G1 X82.791 Y24.353 E.01269
G1 X82.861 Y24.825 E.02056
G1 X82.951 Y25.146 E.01438
G1 X83.081 Y25.455 E.01442
G1 X83.256 Y25.756 E.01502
G1 X83.517 Y26.086 E.01814
G1 X83.774 Y26.327 E.01514
G1 X84.06 Y26.526 E.01504
G1 E-.35 F1800
;WIPE_START
G1 F6000
G1 X83.945 Y26.813 E-.04416
G1 X83.559 Y26.644 E-.06003
G1 X83.301 Y26.569 E-.03831
;WIPE_END
G1 E-.0075 F1800
G17
G3 Z.3 I-.105 J.286 P1  F30000
G1 X89.646 Y28.901 Z.3
G1 X89.824 Y28.963
G1 X90.009 Y28.963
G1 X90.185 Y28.902
G1 X90.277 Y28.868
G1 X90.44 Y28.796
G1 X90.598 Y28.721
G1 X95.641 Y26.313
G1 X95.828 Y26.214
G1 X96.005 Y26.098
G1 X96.125 Y25.997
G1 X96.24 Y25.883
G1 X96.373 Y25.703
G1 X96.445 Y25.483
G1 X96.488 Y25.257
G1 X96.494 Y25.052
G1 X95.966 Y23.424
G1 Z.2
G1 E.5 F1800
;TYPE:Outer wall
G1 F6000
G1 X95.957 Y25.19 E.07611
G1 X95.877 Y25.503 E.01389
G1 X95.749 Y25.747 E.01186
G1 X95.574 Y25.959 E.01186
G1 X95.331 Y26.143 E.01311
G1 X90.884 Y28.709 E.22118
G1 X90.632 Y28.819 E.01184
G1 X90.285 Y28.912 E.01549
G1 X90.005 Y28.943 E.01212
G1 X89.639 Y28.927 E.01578
G1 X89.201 Y28.82 E.01943
G1 X88.878 Y28.669 E.01535
G1 X84.401 Y26.084 E.22271
