; HEADER_BLOCK_START
; generated by OrcaSlicer 1.6.6 on 2023-12-26 at 12:30:23
; total layer number: 4
; HEADER_BLOCK_END

; THUMBNAIL_BLOCK_START
; THUMBNAIL_BLOCK_END

; external perimeters extrusion width = 0.48mm
; perimeters extrusion width = 0.48mm
; infill extrusion width = 0.48mm
; solid infill extrusion width = 0.48mm
; top infill extrusion width = 0.48mm
; support material extrusion width = 0.40mm
; first layer extrusion width = 0.56mm

; EXECUTABLE_BLOCK_START
EXCLUDE_OBJECT_DEFINE NAME=Orca-PA-Calibration-Test CENTER=0,0 POLYGON=[[5,5],[115,5],[115,115],[5,115],[5,5]]
M73 P0 R4
;TYPE:Custom
M104 S0
M140 S0

print_start EXTRUDER=280 BED=110

G92 E0.0
G90
G21
M83 ; use relative distances for extrusion
; Filament gcode
SET_PRESSURE_ADVANCE ADVANCE=0.02; Override pressure advance value
M106 S0
;LAYER_CHANGE
;Z:0.25
;HEIGHT:0.25
;BEFORE_LAYER_CHANGE
;0.25
G92 E0

G1 E-.5 F1800
;AFTER_LAYER_CHANGE
;0.25
SET_VELOCITY_LIMIT ACCEL=10000
SET_VELOCITY_LIMIT SQUARE_CORNER_VELOCITY=9
;CUSTOM_GCODE
; start pressure advance pattern for layer
G1 E-.5
G1 X15.461 Y34.507 F30000
G1 E.5 F1800
G1 Z.25 F30000
SET_PRESSURE_ADVANCE ADVANCE=0; Override pressure advance value
G1 E-.5 F1800
G1 X15.461 Y34.507 F30000
G1 E.5 F1800

G1 X15.461 Y76.933 E2.07656

G1 X99.539 Y76.933 E4.11522

M73 P1 R4
G1 X99.539 Y34.507 E2.07656

M73 P2 R4
G1 X15.461 Y34.507 E4.11522
G1 E-.5
G1 X15.967 Y35.013 F30000
M73 P3 R4
G1 E.5 F1800

G1 X15.967 Y76.427 E2.02699

G1 X99.033 Y76.427 E4.06566

M73 P4 R4
G1 X99.033 Y35.013 E2.02699

G1 X15.967 Y35.013 E4.06566
M73 P5 R4
G1 E-.5
G1 X16.473 Y35.519 F30000
G1 E.5 F1800

G1 X16.473 Y75.921 E1.97742

M73 P6 R4
G1 X98.527 Y75.921 E4.01609

M73 P7 R4
G1 X98.527 Y35.519 E1.97742

G1 X16.473 Y35.519 E4.01609
M73 P8 R4
G1 E-.5
G1 X15.461 Y77.44 F30000
G1 E.5 F1800

G1 X15.461 Y90.946 E.66107

G1 X79.73 Y90.946 E3.14568

M73 P9 R4
G1 X79.73 Y77.44 E.66107

G1 X15.461 Y77.44 E3.14568
M73 P10 R4
G1 E-.5
G1 X15.967 Y77.946 F30000
G1 E.5 F1800

G1 X15.967 Y90.44 E.6115

G1 X79.224 Y90.44 E3.09611

M73 P11 R4
G1 X79.224 Y77.946 E.6115

G1 X15.967 Y77.946 E3.09611
M73 P12 R4
G1 E-.5
G1 X16.473 Y78.452 F30000
G1 E.5 F1800

G1 X16.473 Y89.933 E.56193

G1 X78.718 Y89.933 E3.04655

M73 P13 R4
G1 X78.718 Y78.452 E.56193

G1 X16.473 Y78.452 E3.04655
G1 E-.5
G1 X16.847 Y78.826 F30000
G1 E.5 F1800
G1 E-.5
M73 P14 R4
G1 X17.563 Y78.826 F30000
G1 E.5 F1800

G1 X16.847 Y79.542 E.04957
G1 E-.5
G1 X16.847 Y80.258 F30000
G1 E.5 F1800

G1 X18.279 Y78.826 E.09913
G1 E-.5
G1 X18.995 Y78.826 F30000
G1 E.5 F1800

G1 X16.847 Y80.974 E.1487
G1 E-.5
G1 X16.847 Y81.69 F30000
G1 E.5 F1800

G1 X19.711 Y78.826 E.19827
G1 E-.5
G1 X20.427 Y78.826 F30000
G1 E.5 F1800

G1 X16.847 Y82.406 E.24783
G1 E-.5
G1 X16.847 Y83.122 F30000
G1 E.5 F1800

G1 X21.143 Y78.826 E.2974
G1 E-.5
G1 X21.859 Y78.826 F30000
G1 E.5 F1800

G1 X16.847 Y83.838 E.34697
G1 E-.5
G1 X16.847 Y84.554 F30000
G1 E.5 F1800

G1 X22.575 Y78.826 E.39653
G1 E-.5
G1 X23.291 Y78.826 F30000
G1 E.5 F1800

G1 X16.847 Y85.27 E.4461
G1 E-.5
G1 X16.847 Y85.986 F30000
G1 E.5 F1800

G1 X24.008 Y78.826 E.49566
G1 E-.5
G1 X24.724 Y78.826 F30000
G1 E.5 F1800

G1 X16.847 Y86.703 E.54523
M73 P15 R4
G1 E-.5
G1 X16.847 Y87.419 F30000
G1 E.5 F1800

G1 X25.44 Y78.826 E.5948
G1 E-.5
G1 X26.156 Y78.826 F30000
G1 E.5 F1800

G1 X16.847 Y88.135 E.64436
G1 E-.5
G1 X16.847 Y88.851 F30000
G1 E.5 F1800

G1 X26.872 Y78.826 E.69393
G1 E-.5
G1 X27.588 Y78.826 F30000
G1 E.5 F1800

G1 X16.854 Y89.56 E.74301
G1 E-.5
G1 X17.57 Y89.56 F30000
G1 E.5 F1800

G1 X28.304 Y78.826 E.74301
G1 E-.5
G1 X29.02 Y78.826 F30000
G1 E.5 F1800

G1 X18.286 Y89.56 E.74301
M73 P16 R4
G1 E-.5
G1 X19.002 Y89.56 F30000
G1 E.5 F1800

G1 X29.736 Y78.826 E.74301
G1 E-.5
G1 X30.452 Y78.826 F30000
G1 E.5 F1800

G1 X19.718 Y89.56 E.74301
G1 E-.5
G1 X20.434 Y89.56 F30000
G1 E.5 F1800

G1 X31.168 Y78.826 E.74301
G1 E-.5
G1 X31.885 Y78.826 F30000
G1 E.5 F1800

G1 X21.15 Y89.56 E.74301
G1 E-.5
G1 X21.866 Y89.56 F30000
G1 E.5 F1800

G1 X32.601 Y78.826 E.74301
M73 P17 R4
G1 E-.5
G1 X33.317 Y78.826 F30000
G1 E.5 F1800

G1 X22.582 Y89.56 E.74301
G1 E-.5
G1 X23.298 Y89.56 F30000
G1 E.5 F1800

G1 X34.033 Y78.826 E.74301
G1 E-.5
G1 X34.749 Y78.826 F30000
G1 E.5 F1800

G1 X24.015 Y89.56 E.74301
G1 E-.5
G1 X24.731 Y89.56 F30000
G1 E.5 F1800

G1 X35.465 Y78.826 E.74301
G1 E-.5
G1 X36.181 Y78.826 F30000
G1 E.5 F1800

G1 X25.447 Y89.56 E.74301
M73 P18 R3
G1 E-.5
G1 X26.163 Y89.56 F30000
G1 E.5 F1800

G1 X36.897 Y78.826 E.74301
G1 E-.5
G1 X37.613 Y78.826 F30000
G1 E.5 F1800

G1 X26.879 Y89.56 E.74301
G1 E-.5
G1 X27.595 Y89.56 F30000
G1 E.5 F1800

G1 X38.329 Y78.826 E.74301
G1 E-.5
G1 X39.045 Y78.826 F30000
G1 E.5 F1800

G1 X28.311 Y89.56 E.74301
G1 E-.5
G1 X29.027 Y89.56 F30000
G1 E.5 F1800

G1 X39.761 Y78.826 E.74301
M73 P19 R3
G1 E-.5
G1 X40.478 Y78.826 F30000
G1 E.5 F1800

G1 X29.743 Y89.56 E.74301
G1 E-.5
G1 X30.459 Y89.56 F30000
G1 E.5 F1800

G1 X41.194 Y78.826 E.74301
G1 E-.5
G1 X41.91 Y78.826 F30000
G1 E.5 F1800

G1 X31.175 Y89.56 E.74301
G1 E-.5
G1 X31.892 Y89.56 F30000
G1 E.5 F1800

G1 X42.626 Y78.826 E.74301
G1 E-.5
G1 X43.342 Y78.826 F30000
G1 E.5 F1800

G1 X32.608 Y89.56 E.74301
M73 P20 R3
G1 E-.5
G1 X33.324 Y89.56 F30000
G1 E.5 F1800

G1 X44.058 Y78.826 E.74301
G1 E-.5
G1 X44.774 Y78.826 F30000
G1 E.5 F1800

G1 X34.04 Y89.56 E.74301
G1 E-.5
G1 X34.756 Y89.56 F30000
G1 E.5 F1800

G1 X45.49 Y78.826 E.74301
G1 E-.5
G1 X46.206 Y78.826 F30000
G1 E.5 F1800

G1 X35.472 Y89.56 E.74301
G1 E-.5
G1 X36.188 Y89.56 F30000
G1 E.5 F1800

G1 X46.922 Y78.826 E.74301
M73 P21 R3
G1 E-.5
G1 X47.638 Y78.826 F30000
G1 E.5 F1800

G1 X36.904 Y89.56 E.74301
G1 E-.5
G1 X37.62 Y89.56 F30000
G1 E.5 F1800

G1 X48.354 Y78.826 E.74301
G1 E-.5
G1 X49.071 Y78.826 F30000
G1 E.5 F1800

G1 X38.336 Y89.56 E.74301
G1 E-.5
G1 X39.052 Y89.56 F30000
G1 E.5 F1800

G1 X49.787 Y78.826 E.74301
G1 E-.5
G1 X50.503 Y78.826 F30000
G1 E.5 F1800

G1 X39.768 Y89.56 E.74301
G1 E-.5
G1 X40.485 Y89.56 F30000
M73 P22 R3
G1 E.5 F1800

G1 X51.219 Y78.826 E.74301
G1 E-.5
G1 X51.935 Y78.826 F30000
G1 E.5 F1800

G1 X41.201 Y89.56 E.74301
G1 E-.5
G1 X41.917 Y89.56 F30000
G1 E.5 F1800

G1 X52.651 Y78.826 E.74301
G1 E-.5
G1 X53.367 Y78.826 F30000
G1 E.5 F1800

G1 X42.633 Y89.56 E.74301
G1 E-.5
G1 X43.349 Y89.56 F30000
G1 E.5 F1800

G1 X54.083 Y78.826 E.74301
G1 E-.5
G1 X54.799 Y78.826 F30000
G1 E.5 F1800

G1 X44.065 Y89.56 E.74301
M73 P23 R3
G1 E-.5
G1 X44.781 Y89.56 F30000
G1 E.5 F1800

G1 X55.515 Y78.826 E.74301
G1 E-.5
G1 X56.231 Y78.826 F30000
G1 E.5 F1800

G1 X45.497 Y89.56 E.74301
G1 E-.5
G1 X46.213 Y89.56 F30000
G1 E.5 F1800

G1 X56.948 Y78.826 E.74301
G1 E-.5
G1 X57.664 Y78.826 F30000
G1 E.5 F1800

G1 X46.929 Y89.56 E.74301
G1 E-.5
G1 X47.645 Y89.56 F30000
G1 E.5 F1800

G1 X58.38 Y78.826 E.74301
M73 P24 R3
G1 E-.5
G1 X59.096 Y78.826 F30000
G1 E.5 F1800

G1 X48.362 Y89.56 E.74301
G1 E-.5
G1 X49.078 Y89.56 F30000
G1 E.5 F1800

G1 X59.812 Y78.826 E.74301
G1 E-.5
G1 X60.528 Y78.826 F30000
G1 E.5 F1800

G1 X49.794 Y89.56 E.74301
G1 E-.5
G1 X50.51 Y89.56 F30000
G1 E.5 F1800

G1 X61.244 Y78.826 E.74301
G1 E-.5
G1 X61.96 Y78.826 F30000
G1 E.5 F1800

G1 X51.226 Y89.56 E.74301
M73 P25 R3
G1 E-.5
G1 X51.942 Y89.56 F30000
G1 E.5 F1800

G1 X62.676 Y78.826 E.74301
G1 E-.5
G1 X63.392 Y78.826 F30000
G1 E.5 F1800

G1 X52.658 Y89.56 E.74301
G1 E-.5
G1 X53.374 Y89.56 F30000
G1 E.5 F1800

G1 X64.108 Y78.826 E.74301
G1 E-.5
G1 X64.824 Y78.826 F30000
G1 E.5 F1800

G1 X54.09 Y89.56 E.74301
G1 E-.5
G1 X54.806 Y89.56 F30000
G1 E.5 F1800

G1 X65.541 Y78.826 E.74301
M73 P26 R3
G1 E-.5
G1 X66.257 Y78.826 F30000
G1 E.5 F1800

G1 X55.522 Y89.56 E.74301
G1 E-.5
G1 X56.238 Y89.56 F30000
G1 E.5 F1800

G1 X66.973 Y78.826 E.74301
G1 E-.5
G1 X67.689 Y78.826 F30000
G1 E.5 F1800

G1 X56.955 Y89.56 E.74301
G1 E-.5
G1 X57.671 Y89.56 F30000
G1 E.5 F1800

G1 X68.405 Y78.826 E.74301
G1 E-.5
G1 X69.121 Y78.826 F30000
G1 E.5 F1800

G1 X58.387 Y89.56 E.74301
M73 P27 R3
G1 E-.5
G1 X59.103 Y89.56 F30000
G1 E.5 F1800

G1 X69.837 Y78.826 E.74301
G1 E-.5
G1 X70.553 Y78.826 F30000
G1 E.5 F1800

G1 X59.819 Y89.56 E.74301
G1 E-.5
G1 X60.535 Y89.56 F30000
G1 E.5 F1800

G1 X71.269 Y78.826 E.74301
G1 E-.5
G1 X71.985 Y78.826 F30000
G1 E.5 F1800

G1 X61.251 Y89.56 E.74301
G1 E-.5
G1 X61.967 Y89.56 F30000
G1 E.5 F1800

G1 X72.701 Y78.826 E.74301
M73 P28 R3
G1 E-.5
G1 X73.418 Y78.826 F30000
G1 E.5 F1800

G1 X62.683 Y89.56 E.74301
G1 E-.5
G1 X63.399 Y89.56 F30000
G1 E.5 F1800

G1 X74.134 Y78.826 E.74301
G1 E-.5
G1 X74.85 Y78.826 F30000
G1 E.5 F1800

G1 X64.115 Y89.56 E.74301
G1 E-.5
G1 X64.831 Y89.56 F30000
G1 E.5 F1800

G1 X75.566 Y78.826 E.74301
G1 E-.5
G1 X76.282 Y78.826 F30000
G1 E.5 F1800

G1 X65.548 Y89.56 E.74301
M73 P29 R3
G1 E-.5
G1 X66.264 Y89.56 F30000
G1 E.5 F1800

G1 X76.998 Y78.826 E.74301
G1 E-.5
G1 X77.714 Y78.826 F30000
G1 E.5 F1800

G1 X66.98 Y89.56 E.74301
G1 E-.5
G1 X67.696 Y89.56 F30000
G1 E.5 F1800

G1 X78.344 Y78.911 E.73708
G1 E-.5
G1 X78.344 Y79.627 F30000
G1 E.5 F1800

G1 X68.412 Y89.56 E.68751
G1 E-.5
G1 X69.128 Y89.56 F30000
G1 E.5 F1800

G1 X78.344 Y80.343 E.63795
G1 E-.5
G1 X78.344 Y81.06 F30000
G1 E.5 F1800

M73 P30 R3
G1 X69.844 Y89.56 E.58838
G1 E-.5
G1 X70.56 Y89.56 F30000
G1 E.5 F1800

G1 X78.344 Y81.776 E.53881
G1 E-.5
G1 X78.344 Y82.492 F30000
G1 E.5 F1800

G1 X71.276 Y89.56 E.48925
G1 E-.5
G1 X71.992 Y89.56 F30000
G1 E.5 F1800

G1 X78.344 Y83.208 E.43968
G1 E-.5
G1 X78.344 Y83.924 F30000
G1 E.5 F1800

G1 X72.708 Y89.56 E.39012
G1 E-.5
G1 X73.425 Y89.56 F30000
G1 E.5 F1800

G1 X78.344 Y84.64 E.34055
G1 E-.5
G1 X78.344 Y85.356 F30000
G1 E.5 F1800

G1 X74.141 Y89.56 E.29098
G1 E-.5
G1 X74.857 Y89.56 F30000
G1 E.5 F1800

G1 X78.344 Y86.072 E.24142
G1 E-.5
G1 X78.344 Y86.788 F30000
G1 E.5 F1800

G1 X75.573 Y89.56 E.19185
M73 P31 R3
G1 E-.5
G1 X76.289 Y89.56 F30000
G1 E.5 F1800

G1 X78.344 Y87.504 E.14228
G1 E-.5
G1 X78.344 Y88.22 F30000
G1 E.5 F1800

G1 X77.005 Y89.56 E.09272
G1 E-.5
G1 X77.721 Y89.56 F30000
G1 E.5 F1800

G1 X78.344 Y88.936 E.04315
G1 E-.5
G1 X19.419 Y35.893 F30000
G1 E.5 F1800
SET_PRESSURE_ADVANCE ADVANCE=0; Override pressure advance value

G1 X39.247 Y55.72 E1.07426

G1 X19.419 Y75.547 E1.07426
G1 E-.5
G1 X19.995 Y35.893 F30000
G1 E.5 F1800

G1 X39.822 Y55.72 E1.07426

M73 P32 R3
G1 X19.995 Y75.547 E1.07426
G1 E-.5
G1 X20.571 Y35.893 F30000
G1 E.5 F1800

G1 X40.398 Y55.72 E1.07426

G1 X20.571 Y75.547 E1.07426
M73 P33 R3
G1 E-.5
G1 X23.021 Y35.893 F30000
G1 E.5 F1800
SET_PRESSURE_ADVANCE ADVANCE=0.005; Override pressure advance value

G1 X42.848 Y55.72 E1.07426

G1 X23.021 Y75.547 E1.07426
G1 E-.5
G1 X23.596 Y35.893 F30000
M73 P34 R3
G1 E.5 F1800

G1 X43.424 Y55.72 E1.07426

G1 X23.596 Y75.547 E1.07426
G1 E-.5
G1 X24.172 Y35.893 F30000
G1 E.5 F1800

G1 X43.999 Y55.72 E1.07426

M73 P35 R3
G1 X24.172 Y75.547 E1.07426
G1 E-.5
G1 X26.622 Y35.893 F30000
G1 E.5 F1800
SET_PRESSURE_ADVANCE ADVANCE=0.01; Override pressure advance value

G1 X46.449 Y55.72 E1.07426

G1 X26.622 Y75.547 E1.07426
M73 P36 R3
G1 E-.5
G1 X27.198 Y35.893 F30000
G1 E.5 F1800

G1 X47.025 Y55.72 E1.07426

G1 X27.198 Y75.547 E1.07426
G1 E-.5
G1 X27.774 Y35.893 F30000
G1 E.5 F1800

G1 X47.601 Y55.72 E1.07426

M73 P37 R3
G1 X27.774 Y75.547 E1.07426
G1 E-.5
G1 X30.224 Y35.893 F30000
G1 E.5 F1800
SET_PRESSURE_ADVANCE ADVANCE=0.015; Override pressure advance value

G1 X50.051 Y55.72 E1.07426

G1 X30.224 Y75.547 E1.07426
M73 P38 R3
G1 E-.5
G1 X30.799 Y35.893 F30000
G1 E.5 F1800

G1 X50.626 Y55.72 E1.07426

M73 P38 R2
G1 X30.799 Y75.547 E1.07426
G1 E-.5
G1 X31.375 Y35.893 F30000
G1 E.5 F1800

G1 X51.202 Y55.72 E1.07426

M73 P39 R2
G1 X31.375 Y75.547 E1.07426
G1 E-.5
G1 X33.825 Y35.893 F30000
G1 E.5 F1800
SET_PRESSURE_ADVANCE ADVANCE=0.02; Override pressure advance value

G1 X53.652 Y55.72 E1.07426

G1 X33.825 Y75.547 E1.07426
M73 P40 R2
G1 E-.5
G1 X34.401 Y35.893 F30000
G1 E.5 F1800

G1 X54.228 Y55.72 E1.07426

G1 X34.401 Y75.547 E1.07426
M73 P41 R2
G1 E-.5
G1 X34.976 Y35.893 F30000
G1 E.5 F1800

G1 X54.804 Y55.72 E1.07426

G1 X34.976 Y75.547 E1.07426
G1 E-.5
G1 X37.426 Y35.893 F30000
G1 E.5 F1800
SET_PRESSURE_ADVANCE ADVANCE=0.025; Override pressure advance value

G1 X57.254 Y55.72 E1.07426

M73 P42 R2
G1 X37.426 Y75.547 E1.07426
G1 E-.5
G1 X38.002 Y35.893 F30000
G1 E.5 F1800

G1 X57.829 Y55.72 E1.07426

G1 X38.002 Y75.547 E1.07426
M73 P43 R2
G1 E-.5
G1 X38.578 Y35.893 F30000
G1 E.5 F1800

G1 X58.405 Y55.72 E1.07426

G1 X38.578 Y75.547 E1.07426
G1 E-.5
G1 X41.028 Y35.893 F30000
G1 E.5 F1800
SET_PRESSURE_ADVANCE ADVANCE=0.03; Override pressure advance value

G1 X60.855 Y55.72 E1.07426

M73 P44 R2
G1 X41.028 Y75.547 E1.07426
G1 E-.5
G1 X41.603 Y35.893 F30000
G1 E.5 F1800

G1 X61.431 Y55.72 E1.07426

G1 X41.603 Y75.547 E1.07426
M73 P45 R2
G1 E-.5
G1 X42.179 Y35.893 F30000
G1 E.5 F1800

G1 X62.006 Y55.72 E1.07426

G1 X42.179 Y75.547 E1.07426
G1 E-.5
G1 X44.629 Y35.893 F30000
G1 E.5 F1800
SET_PRESSURE_ADVANCE ADVANCE=0.035; Override pressure advance value

G1 X64.456 Y55.72 E1.07426

M73 P46 R2
G1 X44.629 Y75.547 E1.07426
G1 E-.5
G1 X45.205 Y35.893 F30000
G1 E.5 F1800

G1 X65.032 Y55.72 E1.07426

M73 P47 R2
G1 X45.205 Y75.547 E1.07426
G1 E-.5
G1 X45.781 Y35.893 F30000
G1 E.5 F1800

G1 X65.608 Y55.72 E1.07426

G1 X45.781 Y75.547 E1.07426
M73 P48 R2
G1 E-.5
G1 X48.231 Y35.893 F30000
G1 E.5 F1800
SET_PRESSURE_ADVANCE ADVANCE=0.04; Override pressure advance value

G1 X68.058 Y55.72 E1.07426

G1 X48.231 Y75.547 E1.07426
G1 E-.5
G1 X48.806 Y35.893 F30000
G1 E.5 F1800

G1 X68.633 Y55.72 E1.07426

M73 P49 R2
G1 X48.806 Y75.547 E1.07426
G1 E-.5
G1 X49.382 Y35.893 F30000
G1 E.5 F1800

G1 X69.209 Y55.72 E1.07426

G1 X49.382 Y75.547 E1.07426
M73 P50 R2
G1 E-.5
G1 X51.832 Y35.893 F30000
G1 E.5 F1800
SET_PRESSURE_ADVANCE ADVANCE=0.045; Override pressure advance value

G1 X71.659 Y55.72 E1.07426

G1 X51.832 Y75.547 E1.07426
G1 E-.5
G1 X52.408 Y35.893 F30000
G1 E.5 F1800

G1 X72.235 Y55.72 E1.07426

M73 P51 R2
G1 X52.408 Y75.547 E1.07426
G1 E-.5
G1 X52.983 Y35.893 F30000
G1 E.5 F1800

G1 X72.811 Y55.72 E1.07426

G1 X52.983 Y75.547 E1.07426
M73 P52 R2
G1 E-.5
G1 X55.433 Y35.893 F30000
G1 E.5 F1800
SET_PRESSURE_ADVANCE ADVANCE=0.05; Override pressure advance value

G1 X75.261 Y55.72 E1.07426

G1 X55.433 Y75.547 E1.07426
G1 E-.5
G1 X56.009 Y35.893 F30000
M73 P53 R2
G1 E.5 F1800

G1 X75.836 Y55.72 E1.07426

G1 X56.009 Y75.547 E1.07426
G1 E-.5
G1 X56.585 Y35.893 F30000
G1 E.5 F1800

G1 X76.412 Y55.72 E1.07426

M73 P54 R2
G1 X56.585 Y75.547 E1.07426
G1 E-.5
G1 X59.035 Y35.893 F30000
G1 E.5 F1800
SET_PRESSURE_ADVANCE ADVANCE=0.055; Override pressure advance value

G1 X78.862 Y55.72 E1.07426

G1 X59.035 Y75.547 E1.07426
M73 P55 R2
G1 E-.5
G1 X59.61 Y35.893 F30000
G1 E.5 F1800

G1 X79.438 Y55.72 E1.07426

G1 X59.61 Y75.547 E1.07426
G1 E-.5
G1 X60.186 Y35.893 F30000
G1 E.5 F1800

G1 X80.013 Y55.72 E1.07426

M73 P56 R2
G1 X60.186 Y75.547 E1.07426
G1 E-.5
G1 X62.636 Y35.893 F30000
G1 E.5 F1800
SET_PRESSURE_ADVANCE ADVANCE=0.06; Override pressure advance value

G1 X82.463 Y55.72 E1.07426

G1 X62.636 Y75.547 E1.07426
M73 P57 R2
G1 E-.5
G1 X63.212 Y35.893 F30000
G1 E.5 F1800

G1 X83.039 Y55.72 E1.07426

G1 X63.212 Y75.547 E1.07426
G1 E-.5
G1 X63.788 Y35.893 F30000
G1 E.5 F1800

G1 X83.615 Y55.72 E1.07426

M73 P58 R2
G1 X63.788 Y75.547 E1.07426
G1 E-.5
G1 X66.238 Y35.893 F30000
G1 E.5 F1800
SET_PRESSURE_ADVANCE ADVANCE=0.065; Override pressure advance value

G1 X86.065 Y55.72 E1.07426

G1 X66.238 Y75.547 E1.07426
M73 P59 R1
G1 E-.5
G1 X66.813 Y35.893 F30000
G1 E.5 F1800

G1 X86.64 Y55.72 E1.07426

G1 X66.813 Y75.547 E1.07426
G1 E-.5
M73 P60 R1
G1 X67.389 Y35.893 F30000
G1 E.5 F1800

G1 X87.216 Y55.72 E1.07426

G1 X67.389 Y75.547 E1.07426
G1 E-.5
G1 X69.839 Y35.893 F30000
G1 E.5 F1800
SET_PRESSURE_ADVANCE ADVANCE=0.07; Override pressure advance value

G1 X89.666 Y55.72 E1.07426

M73 P61 R1
G1 X69.839 Y75.547 E1.07426
G1 E-.5
G1 X70.415 Y35.893 F30000
G1 E.5 F1800

G1 X90.242 Y55.72 E1.07426

G1 X70.415 Y75.547 E1.07426
M73 P62 R1
G1 E-.5
G1 X70.99 Y35.893 F30000
G1 E.5 F1800

G1 X90.817 Y55.72 E1.07426

G1 X70.99 Y75.547 E1.07426
G1 E-.5
G1 X73.44 Y35.893 F30000
