; HEADER_BLOCK_START
; generated by OrcaSlicer 1.6.6 on 2023-12-06 at 12:59:52
; total layer number: 66
; HEADER_BLOCK_END

; THUMBNAIL_BLOCK_START
; THUMBNAIL_BLOCK_END

; external perimeters extrusion width = 0.48mm
; perimeters extrusion width = 0.48mm
; infill extrusion width = 0.48mm
; solid infill extrusion width = 0.48mm
; top infill extrusion width = 0.48mm
; support material extrusion width = 0.40mm
; first layer extrusion width = 0.60mm

; EXECUTABLE_BLOCK_START
EXCLUDE_OBJECT_DEFINE NAME=Door_Handle.stl_id_0_copy_0 CENTER=60,60 POLYGON=[[20,62.8284],[20,52.9289],[20,49.3933],[20.0502,49.0786],[20.1981,48.7797],[20.4364,48.5116],[20.753,48.2877],[21.1323,48.1192],[21.555,48.0146],[22,47.9791],[98,47.9794],[98.4451,48.0148],[98.8678,48.1194],[99.247,48.2879],[99.5637,48.5118],[99.802,48.7799],[99.9499,49.0788],[100,49.3935],[100,55.7573],[100,61.4142],[100,67.0712],[99.9904,67.2166],[99.9615,67.3743],[99.9138,67.5426],[99.8477,67.72],[99.6629,68.0952],[99.4142,68.4854],[99.1111,68.8756],[98.7653,69.2508],[98.3901,69.5965],[98,69.8996],[95,72.0209],[25,72.0207],[22,69.8994],[21.6098,69.5963],[21.2346,69.2506],[20.8888,68.8754],[20.5858,68.4852],[20.337,68.095],[20.1522,67.7198],[20.0861,67.5424],[20.0384,67.374],[20.0096,67.2164],[20,67.071],[20,62.8284]]
M73 P0 R12
;TYPE:Custom
M104 S0
M140 S0

print_start EXTRUDER=280 BED=110

G92 E0.0
G90
G21
M83 ; use relative distances for extrusion
; Filament gcode
SET_PRESSURE_ADVANCE ADVANCE=0.015; Override pressure advance value
M106 S0
;LAYER_CHANGE
;Z:0.2
;HEIGHT:0.2
;BEFORE_LAYER_CHANGE
;0.2
G92 E0

G1 E-.5 F1800
;AFTER_LAYER_CHANGE
;0.2
SET_VELOCITY_LIMIT ACCEL=10000
SET_VELOCITY_LIMIT SQUARE_CORNER_VELOCITY=9
; printing object Door_Handle.stl id:0 copy 0
EXCLUDE_OBJECT_START NAME=Door_Handle.stl_id_0_copy_0
G1 X95.3 Y51.315 F30000
G1 Z.2
G1 E.5 F1800
;TYPE:Outer wall
;WIDTH:0.6
G1 F6000
G1 X95.3 Y63.263 E.51524
G1 X95.258 Y63.58 E.01381
G1 X95.128 Y63.894 E.01466
G1 X94.921 Y64.164 E.01466
G1 X94.651 Y64.371 E.01466
G1 X94.337 Y64.501 E.01466
G1 X94.02 Y64.543 E.01381
G1 X25.98 Y64.543 E2.93421
G1 X25.663 Y64.501 E.01381
G1 X25.349 Y64.371 E.01466
G1 X25.079 Y64.164 E.01466
G1 X24.872 Y63.894 E.01466
G1 X24.74 Y63.574 E.01491
G1 X24.7 Y63.15 E.01838
G1 X24.7 Y51.314 E.51043
G1 X95.26 Y51.315 E3.04291
G1 E-.35 F1800
;WIPE_START
G1 F6000
G1 X95.263 Y52.315 E-.1425
;WIPE_END
G1 E-.0075 F1800
G17
G3 Z.3 I.136 J.272 P1  F30000
G1 X95.311 Y52.291 Z.3
G1 X95 Y51.615
G1 X25 Y51.614
G1 X23.029 Y51.972
G1 Z.2
G1 E.5 F1800
;TYPE:Inner wall
G1 F6000
G1 X23.029 Y63.228 E.4854
G1 X23.081 Y63.785 E.02412
G1 X22.202 Y63.785 E.03791
G1 X22.124 Y63.65 E.00672
G1 X22.049 Y63.452 E.00915
G1 X21.995 Y63.203 E.01097
G1 X21.971 Y62.859 E.01486
G1 X21.971 Y52.898 E.42955
G1 X21.995 Y52.553 E.01492
G1 X22.05 Y52.302 E.01111
G1 X22.119 Y52.118 E.00845
G1 X22.204 Y51.972 E.00728
G1 X22.989 Y51.972 E.03386
G1 X23.586 Y51.415 F30000
G1 F6000
G1 X23.586 Y63.202 E.50831
G1 X23.646 Y63.845 E.02787
G1 X23.851 Y64.342 E.02317
G1 X21.988 Y64.337 E.08038
G1 X21.862 Y64.242 E.0068
G1 X21.743 Y64.104 E.00785
G1 X21.619 Y63.89 E.01068
G1 X21.513 Y63.609 E.01293
G1 X21.442 Y63.281 E.01449
G1 X21.414 Y62.878 E.0174
G1 X21.414 Y52.879 E.43123
G1 X21.442 Y52.475 E.01747
G1 X21.514 Y52.143 E.01462
G1 X21.614 Y51.879 E.01222
G1 X21.75 Y51.644 E.01169
G1 X21.858 Y51.519 E.00714
G1 X21.987 Y51.421 E.00698
G1 X23.546 Y51.415 E.06724
G1 X24.143 Y50.858 F30000
G1 F6000
G1 X24.143 Y63.176 E.53122
G1 X24.193 Y63.71 E.02312
G1 X24.385 Y64.175 E.0217
G1 X24.682 Y64.561 E.02099
G1 X24.826 Y64.672 E.00787
G1 X24.749 Y64.899 E.01033
G1 X22.031 Y64.899 E.11722
G1 X21.919 Y64.891 E.00486
G1 X21.761 Y64.846 E.00708
G1 X21.478 Y64.651 E.0148
G1 X21.287 Y64.428 E.01265
G1 X21.114 Y64.13 E.01489
G1 X20.977 Y63.767 E.01672
G1 X20.889 Y63.359 E.018
G1 X20.857 Y62.898 E.01994
G1 X20.857 Y52.86 E.4329
G1 X20.889 Y52.396 E.02003
G1 X20.978 Y51.985 E.01812
G1 X21.109 Y51.639 E.01598
G1 X21.294 Y51.32 E.0159
G1 X21.474 Y51.111 E.01189
G1 X21.687 Y50.949 E.01153
G1 X21.914 Y50.867 E.01042
G1 X24.103 Y50.858 E.09438
G1 E-.35 F1800
;WIPE_START
G1 F6000
G1 X24.106 Y51.858 E-.1425
;WIPE_END
G1 E-.0075 F1800
G17
G3 Z.3 I.08 J.293 P1  F30000
G1 X25 Y51.614 Z.3
G1 X95 Y51.615
G1 X97.799 Y51.972
G1 Z.2
G1 E.5 F1800
G1 F6000
G1 X97.874 Y52.101 E.00645
G1 X97.951 Y52.303 E.00933
G1 X98.005 Y52.553 E.01101
G1 X98.029 Y52.898 E.01492
G1 X98.029 Y62.86 E.4296
G1 X98.005 Y63.204 E.01486
G1 X97.951 Y63.452 E.01098
G1 X97.88 Y63.642 E.00874
G1 X97.797 Y63.785 E.00713
G1 X96.917 Y63.785 E.03798
G1 X96.971 Y63.372 E.01798
G1 X96.971 Y51.972 E.49163
G1 X97.759 Y51.972 E.03396
G1 X98.012 Y51.419 F30000
G1 F6000
G1 X98.139 Y51.516 E.00693
G1 X98.261 Y51.659 E.00808
G1 X98.378 Y51.861 E.01007
G1 X98.486 Y52.145 E.0131
G1 X98.558 Y52.474 E.01454
G1 X98.586 Y52.879 E.01747
G1 X98.586 Y62.879 E.43127
G1 X98.558 Y63.282 E.0174
G1 X98.487 Y63.61 E.01449
G1 X98.385 Y63.881 E.01248
G1 X98.255 Y64.107 E.01126
G1 X98.138 Y64.243 E.00772
G1 X98.012 Y64.338 E.0068
G1 X96.148 Y64.343 E.08039
G1 X96.344 Y63.871 E.02202
G1 X96.414 Y63.336 E.02328
G1 X96.414 Y51.415 E.51408
G1 X97.972 Y51.419 E.06717
G1 X98.036 Y50.865 F30000
G1 F6000
G1 X98.071 Y50.865 E.00148
G1 X98.163 Y50.884 E.00405
G1 X98.313 Y50.948 E.00707
G1 X98.524 Y51.109 E.01145
G1 X98.718 Y51.336 E.01282
G1 X98.883 Y51.62 E.01421
G1 X99.022 Y51.986 E.01687
G1 X99.11 Y52.396 E.01808
G1 X99.143 Y52.859 E.02003
G1 X99.143 Y62.899 E.43295
G1 X99.111 Y63.36 E.01994
G1 X99.023 Y63.768 E.018
G1 X98.89 Y64.12 E.01621
G1 X98.712 Y64.431 E.01547
G1 X98.521 Y64.651 E.01257
G1 X98.239 Y64.847 E.0148
G1 X98.081 Y64.891 E.00708
G1 X97.969 Y64.9 E.00486
G1 X95.25 Y64.9 E.11725
G1 X95.173 Y64.673 E.01033
G1 X95.318 Y64.561 E.0079
G1 X95.615 Y64.175 E.02099
G1 X95.801 Y63.725 E.02099
G1 X95.857 Y63.299 E.01855
G1 X95.857 Y50.858 E.53653
G1 X97.996 Y50.865 E.09225
G1 X98.04 Y50.312 F30000
;TYPE:Outer wall
G1 F6000
G1 X98.146 Y50.312 E.00457
G1 X98.312 Y50.346 E.00731
G1 X98.61 Y50.474 E.01399
G1 X98.909 Y50.702 E.01623
G1 X99.174 Y51.012 E.01757
G1 X99.387 Y51.38 E.01834
G1 X99.558 Y51.827 E.02064
G1 X99.663 Y52.317 E.02162
G1 X99.7 Y52.84 E.02258
G1 X99.7 Y62.918 E.43462
G1 X99.664 Y63.438 E.02249
G1 X99.559 Y63.926 E.02151
G1 X99.396 Y64.358 E.01994
G1 X99.168 Y64.754 E.01968
G1 X98.905 Y65.06 E.01741
G1 X98.606 Y65.286 E.01613
G1 X98.458 Y65.36 E.00716
G1 X98.159 Y65.444 E.01339
G1 X97.989 Y65.457 E.00735
G1 X22.011 Y65.456 E3.27657
G1 X21.691 Y65.412 E.01392
G1 X21.394 Y65.285 E.01395
G1 X21.095 Y65.059 E.01613
G1 X20.831 Y64.753 E.01744
G1 X20.609 Y64.37 E.0191
G1 X20.441 Y63.925 E.02051
G1 X20.336 Y63.437 E.02151
G1 X20.3 Y62.917 E.02248
G1 X20.3 Y52.84 E.43458
G1 X20.337 Y52.318 E.02258
G1 X20.442 Y51.827 E.02163
G1 X20.604 Y51.399 E.01975
G1 X20.838 Y50.995 E.02011
G1 X21.09 Y50.703 E.01665
G1 X21.39 Y50.475 E.01626
G1 X21.544 Y50.397 E.00743
G1 X21.835 Y50.315 E.01305
G1 X22.012 Y50.301 E.00764
G1 X98 Y50.312 E3.27702
G1 E-.5 F1800
G17
G3 Z.3 I-.299 J-.055 P1  F30000
G1 X97.64 Y52.269 Z.3
G1 Z.2
G1 E.5 F1800
;TYPE:Gap infill
;WIDTH:0.451902
G1 F6000
G1 X97.557 Y52.372 E.00418
;WIDTH:0.490681
G1 X97.474 Y52.474 E.00458
;WIDTH:0.523063
G1 X97.49 Y52.626 E.00568
;WIDTH:0.542821
G1 X97.49 Y63.131 E.40651
;WIDTH:0.49098
G1 X97.474 Y63.283 E.00531
;WIDTH:0.453078
G1 X97.557 Y63.386 E.0042
;WIDTH:0.415178
G1 X97.64 Y63.489 E.00381
G1 E-.5 F1800
G17
G3 Z.3 I-.142 J-.269 P1  F30000
G1 X94.958 Y64.905 Z.3
G1 Z.2
G1 E.5 F1800
;WIDTH:0.46467
G1 F6000
G1 X94.436 Y64.974 E.01717
;WIDTH:0.450358
G1 X94.061 Y64.999 E.01186
;WIDTH:0.399645
G1 X25.939 Y64.999 E1.88121
;WIDTH:0.400716
M73 P1 R12
G1 X25.564 Y64.974 E.01041
;WIDTH:0.449886
G1 X25.51 Y64.967 E.00172
;WIDTH:0.464177
G1 X25.28 Y64.921 E.00762
;WIDTH:0.50569
G1 X25.051 Y64.876 E.00837
G1 E-.5 F1800
G17
G3 Z.3 I.139 J-.27 P1  F30000
G1 X22.36 Y63.488 Z.3
G1 Z.2
G1 E.5 F1800
;WIDTH:0.415396
G1 F6000
G1 X22.444 Y63.384 E.00384
;WIDTH:0.464067
G1 X22.527 Y63.281 E.00434
G1 X22.522 Y63.241 E.00131
;WIDTH:0.542362
G1 X22.5 Y62.841 E.0155
G1 X22.51 Y52.627 E.39491
;WIDTH:0.523068
G1 X22.526 Y52.475 E.00568
;WIDTH:0.490685
G1 X22.443 Y52.372 E.00459
;WIDTH:0.448074
G1 X22.36 Y52.269 E.00415
G1 E-.5 F1800
G17
G3 Z.3 I.176 J.248 P1  F30000
G1 X24.421 Y50.808 Z.3
G1 Z.2
G1 E.5 F1800
;WIDTH:0.499984
G1 F6000
G1 X95.579 Y50.808 E2.51773
; stop printing object Door_Handle.stl id:0 copy 0
M106 S35
;LAYER_CHANGE
;Z:0.4
;HEIGHT:0.2
;BEFORE_LAYER_CHANGE
;0.4
G92 E0

G1 E-.35 F1800
;WIPE_START
G1 F6000
G1 X94.579 Y50.808 E-.1425
;WIPE_END
G1 E-.0075 F1800
EXCLUDE_OBJECT_END NAME=Door_Handle.stl_id_0_copy_0
;AFTER_LAYER_CHANGE
;0.4
M140 S110 ; set bed temperature
; printing object Door_Handle.stl id:0 copy 0
SET_VELOCITY_LIMIT SQUARE_CORNER_VELOCITY=12
EXCLUDE_OBJECT_START NAME=Door_Handle.stl_id_0_copy_0
G17
G3 Z.4 I-.175 J.583 P1  F30000
G1 X95.677 Y51.138 Z.4
G1 E.5 F1800
SET_VELOCITY_LIMIT SQUARE_CORNER_VELOCITY=7
;TYPE:Inner wall
;WIDTH:0.48
G1 F12000
G1 X95.677 Y63.287 E.41108
G1 X95.626 Y63.678 E.01335
G1 X95.457 Y64.084 E.01486
G1 X95.19 Y64.433 E.01487
G1 X94.841 Y64.7 E.01486
G1 X94.436 Y64.868 E.01486
G1 X94.046 Y64.92 E.0133
G1 X25.956 Y64.92 E2.30389
G1 X25.564 Y64.868 E.01335
G1 X25.158 Y64.7 E.01487
G1 X24.81 Y64.433 E.01487
G1 X24.543 Y64.084 E.01486
G1 X24.374 Y63.678 E.01487
G1 X24.323 Y63.287 E.01335
G1 X24.323 Y62.922 E.01237
G1 X24.323 Y51.137 E.39873
G1 X95.637 Y51.138 E2.41296
SET_VELOCITY_LIMIT SQUARE_CORNER_VELOCITY=12
G1 X95.24 Y51.575 F30000
SET_VELOCITY_LIMIT SQUARE_CORNER_VELOCITY=7
;TYPE:Outer wall
G1 F12000
G1 X95.24 Y63.259 E.39534
G1 X95.2 Y63.564 E.01041
G1 X95.076 Y63.864 E.01098
G1 X94.878 Y64.121 E.01098
G1 X94.621 Y64.318 E.01096
G1 X94.322 Y64.443 E.01097
G1 X94.017 Y64.483 E.01041
G1 X25.984 Y64.483 E2.30194
G1 X25.678 Y64.442 E.01045
G1 X25.379 Y64.318 E.01095
G1 X25.122 Y64.121 E.01096
G1 X24.924 Y63.864 E.01098
G1 X24.8 Y63.564 E.01098
G1 X24.76 Y63.258 E.01044
G1 X24.76 Y62.922 E.01137
G1 X24.76 Y62.442 E.01624
G1 X24.76 Y52.051 E.35159
G1 X24.76 Y51.574 E.01614
M106 S51
G1 F5200.532
G1 X25.237 Y51.574 E.01614
G1 X94.684 Y51.575 E2.34978
G1 X95.2 Y51.575 E.01746
SET_VELOCITY_LIMIT SQUARE_CORNER_VELOCITY=12
G1 E-.5 F1800
G17
G3 Z.5 I.001 J-.304 P1  F30000
G1 X23.449 Y51.352 Z.5
G1 Z.4
G1 E.5 F1800
SET_VELOCITY_LIMIT SQUARE_CORNER_VELOCITY=7
;TYPE:Inner wall
G1 F12000
M106 S35
G1 X23.449 Y63.344 E.40575
G1 X23.523 Y63.906 E.01918
G1 X23.729 Y64.405 E.01825
G1 X22.04 Y64.405 E.05716
G1 X21.956 Y64.341 E.00355
G1 X21.855 Y64.224 E.00524
G1 X21.743 Y64.031 E.00756
G1 X21.644 Y63.769 E.00946
G1 X21.581 Y63.478 E.01008
G1 X21.551 Y63.071 E.01383
G1 X21.551 Y52.684 E.35143
G1 X21.579 Y52.292 E.01332
G1 X21.648 Y51.974 E.011
G1 X21.729 Y51.761 E.00773
G1 X21.876 Y51.506 E.00995
G1 X22.041 Y51.352 E.00761
G1 X23.409 Y51.352 E.04629
SET_VELOCITY_LIMIT SQUARE_CORNER_VELOCITY=12
G1 X23.886 Y50.915 F30000
SET_VELOCITY_LIMIT SQUARE_CORNER_VELOCITY=7
G1 F12000
G1 X23.886 Y63.316 E.41957
G1 X23.949 Y63.792 E.01627
G1 X24.161 Y64.305 E.01876
G1 X24.573 Y64.842 E.02291
G1 X21.948 Y64.834 E.08881
G1 X21.823 Y64.789 E.00452
G1 X21.655 Y64.662 E.0071
G1 X21.497 Y64.479 E.00819
G1 X21.347 Y64.219 E.01016
G1 X21.224 Y63.894 E.01177
G1 X21.148 Y63.541 E.01221
G1 X21.114 Y63.087 E.01541
G1 X21.114 Y52.669 E.35249
G1 X21.145 Y52.229 E.01491
G1 X21.228 Y51.85 E.01315
G1 X21.333 Y51.573 E.01002
G1 X21.518 Y51.252 E.01254
G1 X21.643 Y51.107 E.00645
G1 X21.843 Y50.959 E.00842
G1 X22.052 Y50.915 E.00723
G1 X23.846 Y50.915 E.0607
SET_VELOCITY_LIMIT SQUARE_CORNER_VELOCITY=12
G1 E-.5 F1800
G17
G3 Z.5 I-.002 J.304 P1  F30000
G1 X97.975 Y51.364 Z.5
G1 Z.4
G1 E.5 F1800
SET_VELOCITY_LIMIT SQUARE_CORNER_VELOCITY=7
G1 F12000
G1 X98.047 Y51.42 E.00309
G1 X98.157 Y51.551 E.00579
G1 X98.249 Y51.709 E.00619
G1 X98.353 Y51.979 E.00981
G1 X98.421 Y52.291 E.01081
G1 X98.449 Y52.684 E.01332
G1 X98.449 Y63.074 E.35157
G1 X98.422 Y63.462 E.01316
G1 X98.355 Y63.771 E.01069
G1 X98.257 Y64.032 E.00942
G1 X98.145 Y64.225 E.00756
G1 X98.044 Y64.342 E.00524
G1 X97.96 Y64.405 E.00355
G1 X96.271 Y64.405 E.05717
G1 X96.477 Y63.907 E.01827
G1 X96.551 Y63.344 E.01918
G1 X96.551 Y51.363 E.40539
G1 X97.935 Y51.364 E.0468
SET_VELOCITY_LIMIT SQUARE_CORNER_VELOCITY=12
G1 X98.06 Y50.927 F30000
SET_VELOCITY_LIMIT SQUARE_CORNER_VELOCITY=7
G1 F12000
G1 X98.182 Y50.972 E.00441
G1 X98.351 Y51.103 E.00724
G1 X98.516 Y51.298 E.00865
G1 X98.644 Y51.519 E.00864
G1 X98.773 Y51.853 E.01211
G1 X98.855 Y52.229 E.01302
G1 X98.886 Y52.669 E.01491
G1 X98.886 Y63.09 E.3526
G1 X98.856 Y63.524 E.01473
G1 X98.776 Y63.895 E.01285
G1 X98.653 Y64.22 E.01175
G1 X98.503 Y64.479 E.01016
G1 X98.345 Y64.663 E.00819
G1 X98.131 Y64.812 E.0088
G1 X97.956 Y64.843 E.00603
G1 X95.427 Y64.842 E.08558
G1 X95.839 Y64.305 E.02294
G1 X96.051 Y63.793 E.01876
G1 X96.114 Y63.316 E.01627
G1 X96.114 Y50.926 E.41921
G1 X98.02 Y50.927 E.06449
SET_VELOCITY_LIMIT SQUARE_CORNER_VELOCITY=12
G1 X98.103 Y50.489 F30000
SET_VELOCITY_LIMIT SQUARE_CORNER_VELOCITY=7
G1 F12000
G1 X98.219 Y50.512 E.00401
G1 X98.416 Y50.6 E.00732
G1 X98.656 Y50.786 E.01026
G1 X98.875 Y51.046 E.01152
G1 X99.039 Y51.33 E.01108
G1 X99.193 Y51.727 E.01441
G1 X99.289 Y52.167 E.01522
G1 X99.323 Y52.653 E.0165
G1 X99.323 Y63.105 E.35364
G1 X99.289 Y63.585 E.01629
G1 X99.196 Y64.019 E.01501
G1 X99.049 Y64.408 E.01408
G1 X98.86 Y64.734 E.01275
G1 X98.645 Y64.983 E.01114
G1 X98.408 Y65.163 E.01007
G1 X98.302 Y65.215 E.00399
G1 X98.114 Y65.268 E.00661
G1 X22.027 Y65.279 E2.57446
G1 X21.793 Y65.248 E.00797
G1 X21.592 Y65.162 E.0074
G1 X21.355 Y64.983 E.01007
G1 X21.14 Y64.733 E.01114
G1 X20.951 Y64.407 E.01275
G1 X20.803 Y64.018 E.01409
G1 X20.714 Y63.603 E.01435
G1 X20.677 Y63.103 E.01698
G1 X20.677 Y52.653 E.35356
G1 X20.711 Y52.167 E.0165
G1 X20.808 Y51.725 E.0153
G1 X20.937 Y51.385 E.01232
G1 X21.161 Y50.997 E.01514
G1 X21.341 Y50.789 E.00932
G1 X21.584 Y50.6 E.0104
G1 X21.684 Y50.55 E.00381
G1 X21.894 Y50.491 E.00736
G1 X22.032 Y50.478 E.00469
G1 X98.063 Y50.489 E2.57256
SET_VELOCITY_LIMIT SQUARE_CORNER_VELOCITY=12
G1 X98.109 Y50.052 F30000
SET_VELOCITY_LIMIT SQUARE_CORNER_VELOCITY=7
;TYPE:Outer wall
G1 F5282.825
M106 S51
G1 X98.145 Y50.052 E.00122
G1 X98.334 Y50.089 E.00652
G1 F5457.138
G1 X98.65 Y50.229 E.01169
G1 F6438.608
G1 X98.961 Y50.469 E.01329
G1 F7571.873
G1 X99.234 Y50.794 E.01436
G1 F9211.042
G1 X99.435 Y51.14 E.01354
M106 S35
G1 F12000
G1 X99.612 Y51.601 E.01671
G1 X99.722 Y52.104 E.01742
G1 X99.76 Y52.638 E.01811
G1 X99.76 Y53.132 E.01671
G1 X99.76 Y62.626 E.32124
G1 X99.76 Y63.12 E.01671
G1 X99.723 Y63.646 E.01784
G1 X99.617 Y64.143 E.01719
G1 X99.445 Y64.596 E.0164
M106 S51
G1 F9020.12
G1 X99.218 Y64.989 E.01536
G1 F7425.265
G1 X98.946 Y65.304 E.01408
G1 F6377.218
G1 X98.639 Y65.536 E.01302
G1 F5831.751
G1 X98.473 Y65.619 E.00628
G1 F5297.108
G1 X98.176 Y65.702 E.01043
G1 F5200.544
G1 X97.99 Y65.717 E.00631
G1 X97.31 Y65.717 E.02301
G1 X22.689 Y65.716 E2.52485
M73 P2 R12
G1 X22.009 Y65.716 E.02301
G1 X21.675 Y65.67 E.01141
G1 F5434.821
G1 X21.361 Y65.536 E.01155
G1 F6377.401
G1 X21.054 Y65.303 E.01304
G1 F7425.326
G1 X20.782 Y64.988 E.01408
G1 F9020.249
G1 X20.555 Y64.596 E.01533
M106 S35
G1 F12000
G1 X20.383 Y64.142 E.01643
G1 X20.28 Y63.666 E.01648
G1 X20.24 Y63.119 E.01856
G1 X20.24 Y62.625 E.01671
G1 X20.24 Y53.132 E.3212
G1 X20.24 Y52.638 E.01671
G1 X20.278 Y52.105 E.01808
G1 X20.388 Y51.601 E.01745
G1 X20.54 Y51.197 E.01461
M106 S51
G1 F8968.642
G1 X20.803 Y50.743 E.01775
G1 F7572.563
G1 X21.038 Y50.47 E.01219
G1 F6438.783
G1 X21.35 Y50.229 E.01334
G1 F5872.202
G1 X21.525 Y50.141 E.00663
G1 F5405.657
G1 X21.813 Y50.06 E.01012
G1 F5199.563
G1 X22.011 Y50.041 E.00673
G1 X22.691 Y50.041 E.02301
G1 F5205.304
G1 X97.396 Y50.052 E2.52769
G1 F5572.324
G1 X98.069 Y50.052 E.02277
SET_VELOCITY_LIMIT SQUARE_CORNER_VELOCITY=12
G1 E-.5 F1800
G17
G3 Z.5 I-.101 J-.287 P1  F30000
G1 X95.896 Y50.813 Z.5
G1 Z.4
G1 E.5 F1800
SET_VELOCITY_LIMIT SQUARE_CORNER_VELOCITY=9
;TYPE:Gap infill
;WIDTH:0.254506
G1 F6000
M106 S35
G1 X24.104 Y50.808 E1.1759
