; HEADER_BLOCK_START
; generated by OrcaSlicer 1.6.6 on 2023-11-23 at 23:39:38
; total layer number: 7
; HEADER_BLOCK_END

; THUMBNAIL_BLOCK_START
; THUMBNAIL_BLOCK_END

; external perimeters extrusion width = 0.48mm
; perimeters extrusion width = 0.48mm
; infill extrusion width = 0.48mm
; solid infill extrusion width = 0.48mm
; top infill extrusion width = 0.48mm
; support material extrusion width = 0.40mm
; first layer extrusion width = 0.60mm

; external perimeters extrusion width = 0.48mm
; perimeters extrusion width = 0.48mm
; infill extrusion width = 0.48mm
; solid infill extrusion width = 0.48mm
; top infill extrusion width = 0.48mm
; support material extrusion width = 0.40mm
; first layer extrusion width = 0.60mm

; external perimeters extrusion width = 0.48mm
; perimeters extrusion width = 0.48mm
; infill extrusion width = 0.48mm
; solid infill extrusion width = 0.48mm
; top infill extrusion width = 0.48mm
; support material extrusion width = 0.40mm
; first layer extrusion width = 0.60mm

; external perimeters extrusion width = 0.48mm
; perimeters extrusion width = 0.48mm
; infill extrusion width = 0.48mm
; solid infill extrusion width = 0.48mm
; top infill extrusion width = 0.48mm
; support material extrusion width = 0.40mm
; first layer extrusion width = 0.60mm

; external perimeters extrusion width = 0.48mm
; perimeters extrusion width = 0.48mm
; infill extrusion width = 0.48mm
; solid infill extrusion width = 0.48mm
; top infill extrusion width = 0.48mm
; support material extrusion width = 0.40mm
; first layer extrusion width = 0.60mm

; external perimeters extrusion width = 0.48mm
; perimeters extrusion width = 0.48mm
; infill extrusion width = 0.48mm
; solid infill extrusion width = 0.48mm
; top infill extrusion width = 0.48mm
; support material extrusion width = 0.40mm
; first layer extrusion width = 0.60mm

; EXECUTABLE_BLOCK_START
EXCLUDE_OBJECT_DEFINE NAME=flowrate_0_id_0_copy_0 CENTER=87.0317,23.0939 POLYGON=[[67.0317,18.0939],[77.0317,8.09389],[97.0317,8.09388],[107.032,18.0939],[107.032,38.0939],[67.0317,38.0939],[67.0317,18.0939]]
EXCLUDE_OBJECT_DEFINE NAME=flowrate_m1_id_1_copy_0 CENTER=37.1273,23.7999 POLYGON=[[17.1273,18.7999],[27.1273,8.79992],[47.1273,8.79992],[57.1273,18.7999],[57.1273,38.7999],[17.1273,38.7999],[17.1273,18.7999]]
EXCLUDE_OBJECT_DEFINE NAME=flowrate_m2_id_2_copy_0 CENTER=87.2706,58.648 POLYGON=[[67.2706,53.648],[77.2706,43.648],[97.2706,43.648],[107.271,53.648],[107.271,73.648],[67.2706,73.648],[67.2706,53.648]]
EXCLUDE_OBJECT_DEFINE NAME=flowrate_m3_id_3_copy_0 CENTER=38.0203,57.5392 POLYGON=[[18.0203,52.5392],[28.0203,42.5392],[48.0203,42.5392],[58.0203,52.5392],[58.0203,72.5392],[18.0203,72.5392],[18.0203,52.5392]]
EXCLUDE_OBJECT_DEFINE NAME=flowrate_m4_id_4_copy_0 CENTER=85.7515,96.2137 POLYGON=[[65.7515,91.2137],[75.7515,81.2137],[95.7515,81.2137],[105.752,91.2137],[105.752,111.214],[65.7515,111.214],[65.7515,91.2137]]
EXCLUDE_OBJECT_DEFINE NAME=flowrate_m5_id_5_copy_0 CENTER=38.4167,96.4177 POLYGON=[[18.4167,91.4177],[28.4167,81.4177],[48.4167,81.4177],[58.4167,91.4177],[58.4167,111.418],[18.4167,111.418],[18.4167,91.4177]]
M73 P0 R10
;TYPE:Custom
M104 S0
M140 S0

print_start EXTRUDER=280 BED=110

G92 E0.0
G90
G21
M83 ; use relative distances for extrusion
; Filament gcode
SET_PRESSURE_ADVANCE ADVANCE=0.015; Override pressure advance value
M106 S0
;LAYER_CHANGE
;Z:0.2
;HEIGHT:0.2
;BEFORE_LAYER_CHANGE
;0.2
G92 E0

G1 E-.5 F1800
;AFTER_LAYER_CHANGE
;0.2
SET_VELOCITY_LIMIT ACCEL=10000
SET_VELOCITY_LIMIT SQUARE_CORNER_VELOCITY=9
; printing object flowrate_0 id:0 copy 0
EXCLUDE_OBJECT_START NAME=flowrate_0_id_0_copy_0
G1 X78.446 Y19.508 F30000
G1 Z.2
G1 E.5 F1800
;TYPE:Inner wall
;WIDTH:0.6
G1 F6000
G1 X78.446 Y9.508 E.44005
G1 X95.618 Y9.508 E.75565
G1 X95.618 Y19.508 E.44005
G1 X105.618 Y19.508 E.44005
G1 X105.618 Y36.68 E.75565
G1 X68.446 Y36.68 E1.63575
G1 X68.446 Y19.508 E.75565
G1 X78.406 Y19.508 E.43829
G1 X77.889 Y18.951 F30000
G1 F6000
G1 X77.889 Y8.951 E.44005
G1 X96.175 Y8.951 E.80467
G1 X96.175 Y18.951 E.44005
G1 X106.175 Y18.951 E.44005
G1 X106.175 Y37.237 E.80467
G1 X67.889 Y37.237 E1.68478
G1 X67.889 Y18.951 E.80467
G1 X77.849 Y18.951 E.43829
G1 X77.332 Y18.394 F30000
;TYPE:Outer wall
G1 F6000
G1 X77.332 Y8.394 E.44005
G1 X96.732 Y8.394 E.8537
G1 X96.732 Y18.394 E.44005
G1 X106.732 Y18.394 E.44005
G1 X106.732 Y37.794 E.8537
G1 X67.332 Y37.794 E1.73381
G1 X67.332 Y18.394 E.8537
G1 X77.292 Y18.394 E.43829
G1 E-.5 F1800
G17
G3 Z.3 I-.026 J.303 P1  F30000
G1 X105.45 Y20.806 Z.3
G1 Z.2
G1 E.5 F1800
;TYPE:Bottom surface
;WIDTH:0.602224
G1 F9000
G1 X104.57 Y19.926 E.05499
G1 X103.779 Y19.926 E.03495
G1 X105.2 Y21.346 E.08875
G1 X105.2 Y22.137 E.03495
G1 X102.988 Y19.926 E.13817
G1 X102.197 Y19.926 E.03495
G1 X105.2 Y22.928 E.18759
G1 X105.2 Y23.719 E.03495
G1 X101.406 Y19.926 E.23701
G1 X100.615 Y19.926 E.03495
G1 X105.2 Y24.51 E.28644
G1 X105.2 Y25.301 E.03495
G1 X99.824 Y19.926 E.33586
G1 X99.034 Y19.926 E.03495
G1 X105.2 Y26.092 E.38528
G1 X105.2 Y26.883 E.03495
G1 X98.243 Y19.926 E.4347
G1 X97.452 Y19.926 E.03495
G1 X105.2 Y27.674 E.48412
G1 X105.2 Y28.465 E.03495
G1 X96.41 Y19.675 E.5492
G1 E-.5 F1800
G17
G3 Z.3 I.302 J-.033 P1  F30000
G1 X95.45 Y10.806 Z.3
G1 Z.2
G1 E.5 F1800
G1 F9000
G1 X94.57 Y9.926 E.05499
G1 X93.779 Y9.926 E.03495
G1 X95.2 Y11.346 E.08875
G1 X95.2 Y12.137 E.03495
G1 X92.988 Y9.926 E.13817
G1 X92.197 Y9.926 E.03495
G1 X95.2 Y12.928 E.18759
G1 X95.2 Y13.719 E.03495
G1 X91.406 Y9.926 E.23701
G1 X90.615 Y9.926 E.03495
G1 X95.2 Y14.51 E.28644
G1 X95.2 Y15.301 E.03495
G1 X89.824 Y9.926 E.33586
G1 X89.034 Y9.926 E.03495
G1 X95.2 Y16.092 E.38528
G1 X95.2 Y16.883 E.03495
G1 X88.243 Y9.926 E.4347
G1 X87.452 Y9.926 E.03495
G1 X95.2 Y17.674 E.48412
M73 P1 R10
G1 X95.2 Y18.465 E.03495
G1 X86.661 Y9.926 E.53354
G1 X85.87 Y9.926 E.03495
G1 X95.2 Y19.256 E.58296
G1 X95.2 Y19.926 E.02959
G1 X95.87 Y19.926 E.02959
G1 X105.2 Y29.256 E.58296
G1 X105.2 Y30.047 E.03495
G1 X85.079 Y9.926 E1.2572
G1 X84.288 Y9.926 E.03495
G1 X105.2 Y30.838 E1.30662
G1 X105.2 Y31.629 E.03495
G1 X83.497 Y9.926 E1.35604
G1 X82.706 Y9.926 E.03495
G1 X105.2 Y32.42 E1.40546
G1 X105.2 Y33.211 E.03495
G1 X81.915 Y9.926 E1.45488
G1 X81.124 Y9.926 E.03495
G1 X105.2 Y34.002 E1.5043
G1 X105.2 Y34.793 E.03495
G1 X80.333 Y9.926 E1.55372
G1 X79.542 Y9.926 E.03495
G1 X105.2 Y35.584 E1.60315
G1 X105.2 Y36.262 E.02996
G1 X105.087 Y36.262 E.00499
G1 X78.864 Y10.039 E1.63846
G1 X78.864 Y10.83 E.03495
G1 X104.296 Y36.262 E1.58904
G1 X103.505 Y36.262 E.03495
G1 X78.864 Y11.621 E1.53962
G1 X78.864 Y12.412 E.03495
G1 X102.714 Y36.262 E1.4902
G1 X101.923 Y36.262 E.03495
G1 X78.864 Y13.203 E1.44078
G1 X78.864 Y13.994 E.03495
G1 X101.132 Y36.262 E1.39136
G1 X100.341 Y36.262 E.03495
G1 X78.864 Y14.785 E1.34194
G1 X78.864 Y15.576 E.03495
G1 X99.55 Y36.262 E1.29251
G1 X98.759 Y36.262 E.03495
G1 X78.864 Y16.367 E1.24309
G1 X78.864 Y17.157 E.03495
G1 X97.968 Y36.262 E1.19367
G1 X97.177 Y36.262 E.03495
G1 X78.864 Y17.948 E1.14425
G1 X78.864 Y18.739 E.03495
G1 X96.386 Y36.262 E1.09483
G1 X95.595 Y36.262 E.03495
G1 X78.864 Y19.53 E1.04541
G1 X78.864 Y19.926 E.01747
G1 X78.468 Y19.926 E.01748
G1 X94.804 Y36.262 E1.0207
G1 X94.013 Y36.262 E.03495
G1 X77.677 Y19.926 E1.0207
G1 X76.886 Y19.926 E.03495
G1 X93.222 Y36.262 E1.0207
G1 X92.431 Y36.262 E.03495
G1 X76.095 Y19.926 E1.0207
G1 X75.304 Y19.926 E.03495
G1 X91.64 Y36.262 E1.0207
G1 X90.849 Y36.262 E.03495
G1 X74.513 Y19.926 E1.0207
M73 P2 R10
G1 X73.722 Y19.926 E.03495
G1 X90.058 Y36.262 E1.0207
G1 X89.267 Y36.262 E.03495
G1 X72.931 Y19.926 E1.0207
G1 X72.14 Y19.926 E.03495
G1 X88.476 Y36.262 E1.0207
G1 X87.685 Y36.262 E.03495
G1 X71.349 Y19.926 E1.0207
G1 X70.558 Y19.926 E.03495
G1 X86.894 Y36.262 E1.0207
G1 X86.104 Y36.262 E.03495
G1 X69.767 Y19.926 E1.0207
G1 X68.976 Y19.926 E.03495
G1 X85.313 Y36.262 E1.0207
G1 X84.522 Y36.262 E.03495
G1 X68.864 Y20.604 E.97832
G1 X68.864 Y21.395 E.03495
G1 X83.731 Y36.262 E.9289
G1 X82.94 Y36.262 E.03495
G1 X68.864 Y22.186 E.87948
G1 X68.864 Y22.977 E.03495
G1 X82.149 Y36.262 E.83006
G1 X81.358 Y36.262 E.03495
G1 X68.864 Y23.768 E.78064
G1 X68.864 Y24.559 E.03495
G1 X80.567 Y36.262 E.73122
G1 X79.776 Y36.262 E.03495
G1 X68.864 Y25.35 E.6818
G1 X68.864 Y26.141 E.03495
G1 X78.985 Y36.262 E.63238
G1 X78.194 Y36.262 E.03495
G1 X68.864 Y26.932 E.58296
G1 X68.864 Y27.723 E.03495
G1 X77.403 Y36.262 E.53353
G1 X76.612 Y36.262 E.03495
G1 X68.864 Y28.514 E.48411
G1 X68.864 Y29.305 E.03495
G1 X75.821 Y36.262 E.43469
G1 X75.03 Y36.262 E.03495
G1 X68.864 Y30.096 E.38527
G1 X68.864 Y30.887 E.03495
G1 X74.239 Y36.262 E.33585
G1 X73.448 Y36.262 E.03495
G1 X68.864 Y31.678 E.28643
G1 X68.864 Y32.469 E.03495
G1 X72.657 Y36.262 E.23701
G1 X71.866 Y36.262 E.03495
G1 X68.864 Y33.26 E.18759
G1 X68.864 Y34.051 E.03495
G1 X71.075 Y36.262 E.13816
G1 X70.284 Y36.262 E.03495
G1 X68.864 Y34.842 E.08874
G1 X68.864 Y35.633 E.03495
G1 X69.744 Y36.513 E.05499
; stop printing object flowrate_0 id:0 copy 0
; printing object flowrate_m2 id:2 copy 0
G1 E-.35 F1800
;WIPE_START
G1 F9000
G1 X69.037 Y35.806 E-.1425
;WIPE_END
G1 E-.0075 F1800
EXCLUDE_OBJECT_END NAME=flowrate_0_id_0_copy_0
EXCLUDE_OBJECT_START NAME=flowrate_m2_id_2_copy_0
G17
G3 Z.3 I-.17 J.252 P1  F30000
G1 X95.856 Y53.948 Z.3
G1 Z.2
G1 E.5 F1800
;TYPE:Inner wall
;WIDTH:0.6
G1 F6000
G1 X95.856 Y55.062 E.04805
G1 X105.856 Y55.062 E.43125
G1 X105.856 Y72.234 E.74053
G1 X68.685 Y72.234 E1.60304
G1 X68.685 Y55.062 E.74053
G1 X78.685 Y55.062 E.43125
G1 X78.685 Y45.062 E.43125
G1 X95.856 Y45.062 E.74053
G1 X95.856 Y53.908 E.38148
G1 X96.413 Y53.948 F30000
G1 F6000
G1 X96.413 Y54.505 E.02402
G1 X106.413 Y54.505 E.43125
G1 X106.413 Y72.791 E.78858
G1 X68.128 Y72.791 E1.65108
G1 X68.128 Y54.505 E.78858
G1 X78.128 Y54.505 E.43125
G1 X78.128 Y44.505 E.43125
G1 X96.413 Y44.505 E.78858
M73 P3 R10
G1 X96.413 Y53.908 E.4055
G1 X96.971 Y53.948 F30000
;TYPE:Outer wall
G1 F6000
G1 X106.971 Y53.948 E.43125
G1 X106.971 Y73.348 E.83663
G1 X67.571 Y73.348 E1.69913
G1 X67.571 Y53.948 E.83663
G1 X77.571 Y53.948 E.43125
G1 X77.571 Y43.948 E.43125
G1 X96.971 Y43.948 E.83663
G1 X96.971 Y53.908 E.42953
G1 E-.5 F1800
G17
G3 Z.3 I-.082 J.293 P1  F30000
G1 X105.689 Y56.36 Z.3
G1 Z.2
G1 E.5 F1800
;TYPE:Bottom surface
;WIDTH:0.602224
G1 F9000
G1 X104.809 Y55.48 E.05389
G1 X104.018 Y55.48 E.03425
G1 X105.439 Y56.9 E.08698
G1 X105.439 Y57.691 E.03425
G1 X103.227 Y55.48 E.13541
G1 X102.436 Y55.48 E.03425
G1 X105.439 Y58.482 E.18384
G1 X105.439 Y59.273 E.03425
G1 X101.645 Y55.48 E.23227
G1 X100.854 Y55.48 E.03425
G1 X105.439 Y60.064 E.28071
G1 X105.439 Y60.855 E.03425
G1 X100.063 Y55.48 E.32914
G1 X99.272 Y55.48 E.03425
G1 X105.439 Y61.646 E.37757
G1 X105.439 Y62.437 E.03425
G1 X98.481 Y55.48 E.42601
G1 X97.69 Y55.48 E.03425
G1 X105.439 Y63.228 E.47444
G1 X105.439 Y64.019 E.03425
G1 X96.649 Y55.229 E.53822
G1 E-.5 F1800
G17
G3 Z.3 I.302 J-.033 P1  F30000
G1 X95.689 Y46.36 Z.3
G1 Z.2
G1 E.5 F1800
G1 F9000
G1 X94.809 Y45.48 E.05389
G1 X94.018 Y45.48 E.03425
G1 X95.439 Y46.9 E.08698
G1 X95.439 Y47.691 E.03425
G1 X93.227 Y45.48 E.13541
G1 X92.436 Y45.48 E.03425
G1 X95.439 Y48.482 E.18384
G1 X95.439 Y49.273 E.03425
G1 X91.645 Y45.48 E.23227
G1 X90.854 Y45.48 E.03425
G1 X95.439 Y50.064 E.28071
G1 X95.439 Y50.855 E.03425
G1 X90.063 Y45.48 E.32914
G1 X89.272 Y45.48 E.03425
G1 X95.439 Y51.646 E.37757
G1 X95.439 Y52.437 E.03425
G1 X88.481 Y45.48 E.42601
G1 X87.69 Y45.48 E.03425
G1 X95.439 Y53.228 E.47444
G1 X95.439 Y54.019 E.03425
G1 X86.899 Y45.48 E.52287
G1 X86.108 Y45.48 E.03425
G1 X95.439 Y54.81 E.5713
G1 X95.439 Y55.48 E.029
G1 X96.108 Y55.48 E.029
G1 X105.439 Y64.81 E.5713
G1 X105.439 Y65.601 E.03425
G1 X85.317 Y45.48 E1.23205
G1 X84.526 Y45.48 E.03425
G1 X105.439 Y66.392 E1.28049
G1 X105.439 Y67.183 E.03425
G1 X83.735 Y45.48 E1.32892
G1 X82.945 Y45.48 E.03425
G1 X105.439 Y67.974 E1.37735
G1 X105.439 Y68.765 E.03425
G1 X82.154 Y45.48 E1.42578
G1 X81.363 Y45.48 E.03425
G1 X105.439 Y69.556 E1.47422
G1 X105.439 Y70.347 E.03425
G1 X80.572 Y45.48 E1.52265
G1 X79.781 Y45.48 E.03425
G1 X105.439 Y71.138 E1.57108
G1 X105.439 Y71.816 E.02936
G1 X105.326 Y71.816 E.00489
G1 X79.103 Y45.593 E1.60569
G1 X79.103 Y46.384 E.03425
G1 X104.535 Y71.816 E1.55726
G1 X103.744 Y71.816 E.03425
G1 X79.103 Y47.175 E1.50883
M73 P4 R10
G1 X79.103 Y47.966 E.03425
G1 X102.953 Y71.816 E1.4604
G1 X102.162 Y71.816 E.03425
G1 X79.103 Y48.757 E1.41196
G1 X79.103 Y49.548 E.03425
G1 X101.371 Y71.816 E1.36353
G1 X100.58 Y71.816 E.03425
G1 X79.103 Y50.339 E1.3151
G1 X79.103 Y51.13 E.03425
G1 X99.789 Y71.816 E1.26666
G1 X98.998 Y71.816 E.03425
G1 X79.103 Y51.921 E1.21823
G1 X79.103 Y52.712 E.03425
G1 X98.207 Y71.816 E1.1698
G1 X97.416 Y71.816 E.03425
G1 X79.103 Y53.503 E1.12137
G1 X79.103 Y54.294 E.03425
G1 X96.625 Y71.816 E1.07293
G1 X95.834 Y71.816 E.03425
G1 X79.103 Y55.085 E1.0245
G1 X79.103 Y55.48 E.01712
G1 X78.707 Y55.48 E.01713
G1 X95.043 Y71.816 E1.00029
G1 X94.252 Y71.816 E.03425
G1 X77.916 Y55.48 E1.00029
G1 X77.125 Y55.48 E.03425
G1 X93.461 Y71.816 E1.00029
G1 X92.67 Y71.816 E.03425
G1 X76.334 Y55.48 E1.00029
G1 X75.543 Y55.48 E.03425
G1 X91.879 Y71.816 E1.00029
G1 X91.088 Y71.816 E.03425
G1 X74.752 Y55.48 E1.00029
G1 X73.961 Y55.48 E.03425
G1 X90.297 Y71.816 E1.00029
G1 X89.506 Y71.816 E.03425
G1 X73.17 Y55.48 E1.00029
G1 X72.379 Y55.48 E.03425
G1 X88.715 Y71.816 E1.00029
G1 X87.924 Y71.816 E.03425
G1 X71.588 Y55.48 E1.00029
G1 X70.797 Y55.48 E.03425
G1 X87.133 Y71.816 E1.00029
G1 X86.342 Y71.816 E.03425
G1 X70.006 Y55.48 E1.00029
G1 X69.215 Y55.48 E.03425
G1 X85.551 Y71.816 E1.00029
G1 X84.76 Y71.816 E.03425
G1 X69.103 Y56.158 E.95876
G1 X69.103 Y56.949 E.03425
G1 X83.969 Y71.816 E.91033
G1 X83.178 Y71.816 E.03425
G1 X69.103 Y57.74 E.86189
G1 X69.103 Y58.531 E.03425
G1 X82.387 Y71.816 E.81346
G1 X81.596 Y71.816 E.03425
G1 X69.103 Y59.322 E.76503
G1 X69.103 Y60.113 E.03425
G1 X80.805 Y71.816 E.71659
G1 X80.015 Y71.816 E.03425
G1 X69.103 Y60.904 E.66816
G1 X69.103 Y61.695 E.03425
G1 X79.224 Y71.816 E.61973
G1 X78.433 Y71.816 E.03425
G1 X69.103 Y62.486 E.5713
G1 X69.103 Y63.277 E.03425
G1 X77.642 Y71.816 E.52286
G1 X76.851 Y71.816 E.03425
G1 X69.103 Y64.068 E.47443
M73 P5 R10
G1 X69.103 Y64.859 E.03425
G1 X76.06 Y71.816 E.426
G1 X75.269 Y71.816 E.03425
G1 X69.103 Y65.65 E.37756
G1 X69.103 Y66.441 E.03425
G1 X74.478 Y71.816 E.32913
G1 X73.687 Y71.816 E.03425
G1 X69.103 Y67.232 E.2807
G1 X69.103 Y68.023 E.03425
G1 X72.896 Y71.816 E.23227
G1 X72.105 Y71.816 E.03425
G1 X69.103 Y68.814 E.18383
G1 X69.103 Y69.605 E.03425
G1 X71.314 Y71.816 E.1354
G1 X70.523 Y71.816 E.03425
G1 X69.103 Y70.396 E.08697
G1 X69.103 Y71.187 E.03425
G1 X69.983 Y72.067 E.05389
; stop printing object flowrate_m2 id:2 copy 0
; printing object flowrate_m4 id:4 copy 0
G1 E-.35 F1800
;WIPE_START
G1 F9000
G1 X69.275 Y71.36 E-.1425
;WIPE_END
G1 E-.0075 F1800
EXCLUDE_OBJECT_END NAME=flowrate_m2_id_2_copy_0
EXCLUDE_OBJECT_START NAME=flowrate_m4_id_4_copy_0
G17
G3 Z.3 I-.158 J.26 P1  F30000
G1 X104.337 Y92.628 Z.3
G1 Z.2
G1 E.5 F1800
;TYPE:Inner wall
;WIDTH:0.6
G1 F6000
G1 X104.337 Y109.799 E.72542
G1 X67.166 Y109.799 E1.57032
G1 X67.166 Y92.628 E.72542
G1 X77.166 Y92.628 E.42245
G1 X77.166 Y82.628 E.42245
G1 X94.337 Y82.628 E.72542
G1 X94.337 Y92.628 E.42245
G1 X104.297 Y92.628 E.42076
G1 X104.894 Y92.071 F30000
G1 F6000
G1 X104.894 Y110.357 E.77249
G1 X66.609 Y110.357 E1.61739
G1 X66.609 Y92.071 E.77249
G1 X76.609 Y92.071 E.42245
G1 X76.609 Y82.071 E.42245
G1 X94.894 Y82.071 E.77249
G1 X94.894 Y92.071 E.42245
G1 X104.854 Y92.071 E.42076
G1 X105.452 Y91.514 F30000
;TYPE:Outer wall
G1 F6000
G1 X105.452 Y110.914 E.81955
G1 X66.052 Y110.914 E1.66446
M73 P5 R9
G1 X66.052 Y91.514 E.81955
G1 X76.052 Y91.514 E.42245
G1 X76.052 Y81.514 E.42245
G1 X95.452 Y81.514 E.81955
G1 X95.452 Y91.514 E.42245
G1 X105.412 Y91.514 E.42076
G1 E-.5 F1800
G17
G3 Z.3 I-.271 J-.139 P1  F30000
G1 X104.17 Y93.926 Z.3
G1 Z.2
G1 E.5 F1800
;TYPE:Bottom surface
;WIDTH:0.602224
G1 F9000
G1 X103.29 Y93.046 E.05279
G1 X102.499 Y93.046 E.03355
G1 X103.92 Y94.466 E.0852
G1 X103.92 Y95.257 E.03355
