; HEADER_BLOCK_START
; generated by OrcaSlicer 1.6.6 on 2023-11-23 at 23:21:01
; total layer number: 7
; HEADER_BLOCK_END

; THUMBNAIL_BLOCK_START
; THUMBNAIL_BLOCK_END

; external perimeters extrusion width = 0.48mm
; perimeters extrusion width = 0.48mm
; infill extrusion width = 0.48mm
; solid infill extrusion width = 0.48mm
; top infill extrusion width = 0.48mm
; support material extrusion width = 0.40mm
; first layer extrusion width = 0.60mm

; external perimeters extrusion width = 0.48mm
; perimeters extrusion width = 0.48mm
; infill extrusion width = 0.48mm
; solid infill extrusion width = 0.48mm
; top infill extrusion width = 0.48mm
; support material extrusion width = 0.40mm
; first layer extrusion width = 0.60mm

; external perimeters extrusion width = 0.48mm
; perimeters extrusion width = 0.48mm
; infill extrusion width = 0.48mm
; solid infill extrusion width = 0.48mm
; top infill extrusion width = 0.48mm
; support material extrusion width = 0.40mm
; first layer extrusion width = 0.60mm

; external perimeters extrusion width = 0.48mm
; perimeters extrusion width = 0.48mm
; infill extrusion width = 0.48mm
; solid infill extrusion width = 0.48mm
; top infill extrusion width = 0.48mm
; support material extrusion width = 0.40mm
; first layer extrusion width = 0.60mm

; external perimeters extrusion width = 0.48mm
; perimeters extrusion width = 0.48mm
; infill extrusion width = 0.48mm
; solid infill extrusion width = 0.48mm
; top infill extrusion width = 0.48mm
; support material extrusion width = 0.40mm
; first layer extrusion width = 0.60mm

; external perimeters extrusion width = 0.48mm
; perimeters extrusion width = 0.48mm
; infill extrusion width = 0.48mm
; solid infill extrusion width = 0.48mm
; top infill extrusion width = 0.48mm
; support material extrusion width = 0.40mm
; first layer extrusion width = 0.60mm

; EXECUTABLE_BLOCK_START
EXCLUDE_OBJECT_DEFINE NAME=flowrate_0_id_0_copy_0 CENTER=78.4944,99.6126 POLYGON=[[58.4943,84.6126],[98.4943,84.6126],[98.4943,104.613],[88.4943,114.613],[68.4943,114.613],[58.4943,104.613],[58.4943,84.6126]]
EXCLUDE_OBJECT_DEFINE NAME=flowrate_5_id_1_copy_0 CENTER=36.0292,98.9937 POLYGON=[[16.0292,83.9937],[56.0292,83.9937],[56.0292,103.994],[46.0292,113.994],[26.0292,113.994],[16.0292,103.994],[16.0292,83.9937]]
EXCLUDE_OBJECT_DEFINE NAME=flowrate_m10_id_2_copy_0 CENTER=79.0407,64.052 POLYGON=[[59.0407,49.052],[99.0407,49.052],[99.0407,69.052],[89.0407,79.052],[69.0407,79.052],[59.0407,69.052],[59.0407,49.052]]
EXCLUDE_OBJECT_DEFINE NAME=flowrate_m15_id_3_copy_0 CENTER=82.0473,25.5572 POLYGON=[[62.0473,10.5572],[102.047,10.5572],[102.047,30.5572],[92.0473,40.5572],[72.0473,40.5572],[62.0473,30.5572],[62.0473,10.5572]]
EXCLUDE_OBJECT_DEFINE NAME=flowrate_m20_id_4_copy_0 CENTER=36.0253,26.2517 POLYGON=[[16.0253,11.2517],[56.0253,11.2517],[56.0253,31.2517],[46.0253,41.2517],[26.0253,41.2517],[16.0253,31.2517],[16.0253,11.2517]]
EXCLUDE_OBJECT_DEFINE NAME=flowrate_m5_id_5_copy_0 CENTER=35.0682,63.52 POLYGON=[[15.0682,48.52],[55.0682,48.52],[55.0682,68.52],[45.0682,78.52],[25.0682,78.52],[15.0682,68.52],[15.0682,48.52]]
M73 P0 R10
;TYPE:Custom
M104 S0
M140 S0

print_start EXTRUDER=280 BED=110

G92 E0.0
G90
G21
M83 ; use relative distances for extrusion
; Filament gcode
SET_PRESSURE_ADVANCE ADVANCE=0.015; Override pressure advance value
M106 S0
;LAYER_CHANGE
;Z:0.2
;HEIGHT:0.2
;BEFORE_LAYER_CHANGE
;0.2
G92 E0

G1 E-.5 F1800
;AFTER_LAYER_CHANGE
;0.2
SET_VELOCITY_LIMIT ACCEL=10000
SET_VELOCITY_LIMIT SQUARE_CORNER_VELOCITY=9
; printing object flowrate_m15 id:3 copy 0
EXCLUDE_OBJECT_START NAME=flowrate_m15_id_3_copy_0
G1 X73.461 Y29.143 F30000
G1 Z.2
G1 E.5 F1800
;TYPE:Inner wall
;WIDTH:0.6
G1 F6000
G1 X63.461 Y29.143 E.39373
G1 X63.461 Y11.971 E.6761
G1 X100.633 Y11.971 E1.46357
G1 X100.633 Y29.143 E.6761
G1 X90.633 Y29.143 E.39373
G1 X90.633 Y39.143 E.39373
G1 X73.461 Y39.143 E.6761
G1 X73.461 Y29.183 E.39216
G1 X72.904 Y29.7 F30000
G1 F6000
G1 X62.904 Y29.7 E.39373
G1 X62.904 Y11.414 E.71997
G1 X101.19 Y11.414 E1.50743
G1 X101.19 Y29.7 E.71997
G1 X91.19 Y29.7 E.39373
G1 X91.19 Y39.7 E.39373
G1 X72.904 Y39.7 E.71997
G1 X72.904 Y29.74 E.39216
G1 X72.347 Y30.257 F30000
;TYPE:Outer wall
G1 F6000
G1 X62.347 Y30.257 E.39373
G1 X62.347 Y10.857 E.76384
G1 X101.747 Y10.857 E1.5513
G1 X101.747 Y30.257 E.76384
G1 X91.747 Y30.257 E.39373
G1 X91.747 Y40.257 E.39373
G1 X72.347 Y40.257 E.76384
G1 X72.347 Y30.297 E.39216
G1 E-.5 F1800
G17
G3 Z.3 I.17 J.252 P1  F30000
G1 X99.335 Y12.139 Z.3
G1 Z.2
G1 E.5 F1800
;TYPE:Bottom surface
;WIDTH:0.602224
G1 F9000
G1 X100.215 Y13.019 E.0492
G1 X100.215 Y13.81 E.03127
G1 X98.795 Y12.389 E.07941
G1 X98.004 Y12.389 E.03127
G1 X100.215 Y14.601 E.12363
G1 X100.215 Y15.392 E.03127
G1 X97.213 Y12.389 E.16785
G1 X96.422 Y12.389 E.03127
G1 X100.215 Y16.183 E.21207
G1 X100.215 Y16.974 E.03127
G1 X95.631 Y12.389 E.25628
G1 X94.84 Y12.389 E.03127
G1 X100.215 Y17.765 E.3005
G1 X100.215 Y18.555 E.03127
G1 X94.049 Y12.389 E.34472
G1 X93.258 Y12.389 E.03127
G1 X100.215 Y19.346 E.38894
G1 X100.215 Y20.137 E.03127
G1 X92.467 Y12.389 E.43316
G1 X91.676 Y12.389 E.03127
G1 X100.215 Y20.928 E.47738
G1 X100.215 Y21.719 E.03127
G1 X90.885 Y12.389 E.5216
G1 X90.094 Y12.389 E.03127
G1 X100.215 Y22.51 E.56582
G1 X100.215 Y23.301 E.03127
G1 X89.303 Y12.389 E.61004
G1 X88.512 Y12.389 E.03127
G1 X100.215 Y24.092 E.65426
G1 X100.215 Y24.883 E.03127
G1 X87.721 Y12.389 E.69847
G1 X86.93 Y12.389 E.03127
G1 X100.215 Y25.674 E.74269
G1 X100.215 Y26.465 E.03127
G1 X86.139 Y12.389 E.78691
M73 P1 R10
G1 X85.348 Y12.389 E.03127
G1 X100.215 Y27.256 E.83113
G1 X100.215 Y28.047 E.03127
G1 X84.557 Y12.389 E.87535
G1 X83.766 Y12.389 E.03127
G1 X100.103 Y28.725 E.91326
G1 X99.312 Y28.725 E.03127
G1 X82.975 Y12.389 E.91326
G1 X82.184 Y12.389 E.03127
G1 X98.521 Y28.725 E.91326
G1 X97.73 Y28.725 E.03127
G1 X81.393 Y12.389 E.91326
G1 X80.603 Y12.389 E.03127
G1 X96.939 Y28.725 E.91326
G1 X96.148 Y28.725 E.03127
G1 X79.812 Y12.389 E.91326
G1 X79.021 Y12.389 E.03127
G1 X95.357 Y28.725 E.91326
G1 X94.566 Y28.725 E.03127
G1 X78.23 Y12.389 E.91326
G1 X77.439 Y12.389 E.03127
G1 X93.775 Y28.725 E.91326
G1 X92.984 Y28.725 E.03127
G1 X76.648 Y12.389 E.91326
G1 X75.857 Y12.389 E.03127
G1 X92.193 Y28.725 E.91326
G1 X91.402 Y28.725 E.03127
G1 X75.066 Y12.389 E.91326
G1 X74.275 Y12.389 E.03127
G1 X90.611 Y28.725 E.91326
G1 X90.215 Y28.725 E.01563
G1 X90.215 Y29.121 E.01564
G1 X73.484 Y12.389 E.93537
G1 X72.693 Y12.389 E.03127
G1 X90.215 Y29.912 E.97959
G1 X90.215 Y30.703 E.03127
G1 X71.902 Y12.389 E1.02381
G1 X71.111 Y12.389 E.03127
G1 X90.215 Y31.494 E1.06803
G1 X90.215 Y32.285 E.03127
G1 X70.32 Y12.389 E1.11225
G1 X69.529 Y12.389 E.03127
G1 X90.215 Y33.076 E1.15647
G1 X90.215 Y33.867 E.03127
G1 X68.738 Y12.389 E1.20069
G1 X67.947 Y12.389 E.03127
G1 X90.215 Y34.658 E1.2449
G1 X90.215 Y35.449 E.03127
G1 X67.156 Y12.389 E1.28912
G1 X66.365 Y12.389 E.03127
G1 X90.215 Y36.24 E1.33334
G1 X90.215 Y37.031 E.03127
G1 X65.574 Y12.389 E1.37756
G1 X64.783 Y12.389 E.03127
G1 X90.215 Y37.822 E1.42178
G1 X90.215 Y38.613 E.03127
G1 X63.992 Y12.389 E1.466
G1 X63.879 Y12.389 E.00446
G1 X63.879 Y13.067 E.02681
G1 X89.537 Y38.725 E1.43439
G1 X88.746 Y38.725 E.03127
G1 X63.879 Y13.858 E1.39017
M73 P2 R10
G1 X63.879 Y14.649 E.03127
G1 X87.955 Y38.725 E1.34595
G1 X87.164 Y38.725 E.03127
G1 X63.879 Y15.44 E1.30173
G1 X63.879 Y16.231 E.03127
G1 X86.373 Y38.725 E1.25751
G1 X85.582 Y38.725 E.03127
G1 X63.879 Y17.022 E1.21329
G1 X63.879 Y17.813 E.03127
G1 X84.791 Y38.725 E1.16907
G1 X84 Y38.725 E.03127
G1 X63.879 Y18.604 E1.12485
G1 X63.879 Y19.395 E.03127
G1 X73.209 Y28.725 E.52159
G1 X73.879 Y28.725 E.02648
G1 X73.879 Y29.395 E.02648
G1 X83.209 Y38.725 E.52159
G1 X82.418 Y38.725 E.03127
G1 X73.879 Y30.186 E.47737
G1 X73.879 Y30.977 E.03127
G1 X81.627 Y38.725 E.43315
G1 X80.836 Y38.725 E.03127
G1 X73.879 Y31.768 E.38893
G1 X73.879 Y32.559 E.03127
G1 X80.045 Y38.725 E.34472
G1 X79.254 Y38.725 E.03127
G1 X73.879 Y33.35 E.3005
G1 X73.879 Y34.141 E.03127
G1 X78.463 Y38.725 E.25628
G1 X77.673 Y38.725 E.03127
G1 X73.879 Y34.932 E.21206
G1 X73.879 Y35.723 E.03127
G1 X76.882 Y38.725 E.16784
G1 X76.091 Y38.725 E.03127
G1 X73.879 Y36.514 E.12362
G1 X73.879 Y37.305 E.03127
G1 X75.3 Y38.725 E.0794
G1 X74.509 Y38.725 E.03127
G1 X73.629 Y37.845 E.0492
G1 E-.5 F1800
G17
G3 Z.3 I.302 J-.033 P1  F30000
G1 X72.669 Y28.976 Z.3
G1 Z.2
G1 E.5 F1800
G1 F9000
G1 X63.879 Y20.186 E.49139
G1 X63.879 Y20.977 E.03127
G1 X71.627 Y28.725 E.43315
G1 X70.836 Y28.725 E.03127
G1 X63.879 Y21.768 E.38893
G1 X63.879 Y22.559 E.03127
G1 X70.045 Y28.725 E.34472
G1 X69.254 Y28.725 E.03127
G1 X63.879 Y23.35 E.3005
G1 X63.879 Y24.141 E.03127
G1 X68.463 Y28.725 E.25628
G1 X67.673 Y28.725 E.03127
G1 X63.879 Y24.932 E.21206
G1 X63.879 Y25.723 E.03127
G1 X66.882 Y28.725 E.16784
G1 X66.091 Y28.725 E.03127
G1 X63.879 Y26.514 E.12362
G1 X63.879 Y27.305 E.03127
G1 X65.3 Y28.725 E.0794
G1 X64.509 Y28.725 E.03127
G1 X63.629 Y27.845 E.0492
; stop printing object flowrate_m15 id:3 copy 0
; printing object flowrate_m10 id:2 copy 0
G1 E-.35 F1800
;WIPE_START
G1 F9000
G1 X64.336 Y28.552 E-.1425
;WIPE_END
G1 E-.0075 F1800
EXCLUDE_OBJECT_END NAME=flowrate_m15_id_3_copy_0
EXCLUDE_OBJECT_START NAME=flowrate_m10_id_2_copy_0
G17
G3 Z.3 I-.261 J.156 P1  F30000
G1 X87.627 Y67.638 Z.3
G1 Z.2
G1 E.5 F1800
;TYPE:Inner wall
;WIDTH:0.6
G1 F6000
G1 X87.627 Y77.638 E.41689
G1 X70.455 Y77.638 E.71587
G1 X70.455 Y67.638 E.41689
G1 X60.455 Y67.638 E.41689
G1 X60.455 Y50.466 E.71587
G1 X97.627 Y50.466 E1.54966
G1 X97.627 Y67.638 E.71587
G1 X87.667 Y67.638 E.41522
G1 X88.184 Y68.195 F30000
G1 F6000
G1 X88.184 Y78.195 E.41689
G1 X69.898 Y78.195 E.76232
G1 X69.898 Y68.195 E.41689
G1 X59.898 Y68.195 E.41689
G1 X59.898 Y49.909 E.76232
G1 X98.184 Y49.909 E1.59611
G1 X98.184 Y68.195 E.76232
M73 P3 R10
G1 X88.224 Y68.195 E.41522
G1 X88.741 Y68.752 F30000
;TYPE:Outer wall
G1 F6000
G1 X88.741 Y78.752 E.41689
G1 X69.341 Y78.752 E.80877
G1 X69.341 Y68.752 E.41689
G1 X59.341 Y68.752 E.41689
G1 X59.341 Y49.352 E.80877
G1 X98.741 Y49.352 E1.64256
G1 X98.741 Y68.752 E.80877
G1 X88.781 Y68.752 E.41522
G1 E-.5 F1800
G17
G3 Z.3 I.281 J.117 P1  F30000
G1 X96.329 Y50.633 Z.3
G1 Z.2
G1 E.5 F1800
;TYPE:Bottom surface
;WIDTH:0.602224
G1 F9000
G1 X97.209 Y51.513 E.0521
G1 X97.209 Y52.304 E.03311
G1 X95.788 Y50.884 E.08408
G1 X94.997 Y50.884 E.03311
G1 X97.209 Y53.095 E.1309
G1 X97.209 Y53.886 E.03311
G1 X94.206 Y50.884 E.17772
G1 X93.415 Y50.884 E.03311
G1 X97.209 Y54.677 E.22454
G1 X97.209 Y55.468 E.03311
G1 X92.624 Y50.884 E.27136
G1 X91.833 Y50.884 E.03311
G1 X97.209 Y56.259 E.31818
G1 X97.209 Y57.05 E.03311
G1 X91.042 Y50.884 E.365
G1 X90.251 Y50.884 E.03311
G1 X97.209 Y57.841 E.41182
G1 X97.209 Y58.632 E.03311
G1 X89.461 Y50.884 E.45864
G1 X88.67 Y50.884 E.03311
G1 X97.209 Y59.423 E.50546
G1 X97.209 Y60.214 E.03311
G1 X87.879 Y50.884 E.55228
G1 X87.088 Y50.884 E.03311
G1 X97.209 Y61.005 E.5991
G1 X97.209 Y61.796 E.03311
G1 X86.297 Y50.884 E.64592
G1 X85.506 Y50.884 E.03311
G1 X97.209 Y62.587 E.69274
G1 X97.209 Y63.378 E.03311
G1 X84.715 Y50.884 E.73956
G1 X83.924 Y50.884 E.03311
G1 X97.209 Y64.169 E.78638
G1 X97.209 Y64.96 E.03311
G1 X83.133 Y50.884 E.8332
G1 X82.342 Y50.884 E.03311
G1 X97.209 Y65.751 E.88002
G1 X97.209 Y66.542 E.03311
G1 X81.551 Y50.884 E.92684
G1 X80.76 Y50.884 E.03311
G1 X97.096 Y67.22 E.96698
G1 X96.305 Y67.22 E.03311
G1 X79.969 Y50.884 E.96698
G1 X79.178 Y50.884 E.03311
G1 X95.514 Y67.22 E.96698
G1 X94.723 Y67.22 E.03311
G1 X78.387 Y50.884 E.96698
G1 X77.596 Y50.884 E.03311
G1 X93.932 Y67.22 E.96698
G1 X93.141 Y67.22 E.03311
G1 X76.805 Y50.884 E.96698
G1 X76.014 Y50.884 E.03311
G1 X92.35 Y67.22 E.96698
G1 X91.559 Y67.22 E.03311
G1 X75.223 Y50.884 E.96698
G1 X74.432 Y50.884 E.03311
G1 X90.768 Y67.22 E.96698
G1 X89.977 Y67.22 E.03311
G1 X73.641 Y50.884 E.96698
G1 X72.85 Y50.884 E.03311
G1 X89.186 Y67.22 E.96698
G1 X88.395 Y67.22 E.03311
G1 X72.059 Y50.884 E.96698
G1 X71.268 Y50.884 E.03311
G1 X87.604 Y67.22 E.96698
G1 X87.209 Y67.22 E.01655
G1 X87.209 Y67.616 E.01656
G1 X70.477 Y50.884 E.99039
M73 P4 R10
G1 X69.686 Y50.884 E.03311
G1 X87.209 Y68.407 E1.03721
G1 X87.209 Y69.198 E.03311
G1 X68.895 Y50.884 E1.08403
G1 X68.104 Y50.884 E.03311
G1 X87.209 Y69.989 E1.13085
G1 X87.209 Y70.78 E.03311
G1 X67.313 Y50.884 E1.17767
G1 X66.522 Y50.884 E.03311
G1 X87.209 Y71.571 E1.22449
G1 X87.209 Y72.361 E.03311
G1 X65.731 Y50.884 E1.27131
G1 X64.94 Y50.884 E.03311
G1 X87.209 Y73.152 E1.31813
G1 X87.209 Y73.943 E.03311
G1 X64.149 Y50.884 E1.36495
G1 X63.358 Y50.884 E.03311
G1 X87.209 Y74.734 E1.41177
G1 X87.209 Y75.525 E.03311
G1 X62.567 Y50.884 E1.45859
G1 X61.776 Y50.884 E.03311
G1 X87.209 Y76.316 E1.50541
G1 X87.209 Y77.107 E.03311
G1 X60.985 Y50.884 E1.55224
G1 X60.873 Y50.884 E.00472
G1 X60.873 Y51.562 E.02839
G1 X86.531 Y77.22 E1.51876
G1 X85.74 Y77.22 E.03311
G1 X60.873 Y52.353 E1.47194
G1 X60.873 Y53.144 E.03311
G1 X84.949 Y77.22 E1.42512
G1 X84.158 Y77.22 E.03311
G1 X60.873 Y53.935 E1.3783
G1 X60.873 Y54.726 E.03311
G1 X83.367 Y77.22 E1.33148
G1 X82.576 Y77.22 E.03311
G1 X60.873 Y55.517 E1.28466
G1 X60.873 Y56.308 E.03311
G1 X81.785 Y77.22 E1.23784
G1 X80.994 Y77.22 E.03311
G1 X60.873 Y57.099 E1.19102
G1 X60.873 Y57.89 E.03311
G1 X70.203 Y67.22 E.55227
G1 X70.873 Y67.22 E.02804
G1 X70.873 Y67.89 E.02804
G1 X80.203 Y77.22 E.55227
G1 X79.412 Y77.22 E.03311
G1 X70.873 Y68.681 E.50545
G1 X70.873 Y69.472 E.03311
G1 X78.621 Y77.22 E.45863
G1 X77.83 Y77.22 E.03311
G1 X70.873 Y70.263 E.41181
G1 X70.873 Y71.054 E.03311
G1 X77.039 Y77.22 E.36499
G1 X76.248 Y77.22 E.03311
G1 X70.873 Y71.845 E.31817
G1 X70.873 Y72.636 E.03311
G1 X75.457 Y77.22 E.27135
G1 X74.666 Y77.22 E.03311
G1 X70.873 Y73.427 E.22453
G1 X70.873 Y74.218 E.03311
G1 X73.875 Y77.22 E.17771
G1 X73.084 Y77.22 E.03311
G1 X70.873 Y75.009 E.13089
G1 X70.873 Y75.8 E.03311
G1 X72.293 Y77.22 E.08407
G1 X71.502 Y77.22 E.03311
G1 X70.622 Y76.34 E.05209
G1 E-.5 F1800
G17
G3 Z.3 I.302 J-.033 P1  F30000
G1 X69.662 Y67.471 Z.3
G1 Z.2
G1 E.5 F1800
G1 F9000
G1 X60.873 Y58.681 E.52029
G1 X60.873 Y59.472 E.03311
G1 X68.621 Y67.22 E.45863
G1 X67.83 Y67.22 E.03311
G1 X60.873 Y60.263 E.41181
M73 P5 R10
G1 X60.873 Y61.054 E.03311
G1 X67.039 Y67.22 E.36499
G1 X66.248 Y67.22 E.03311
G1 X60.873 Y61.845 E.31817
G1 X60.873 Y62.636 E.03311
G1 X65.457 Y67.22 E.27135
G1 X64.666 Y67.22 E.03311
G1 X60.873 Y63.427 E.22453
G1 X60.873 Y64.218 E.03311
G1 X63.875 Y67.22 E.17771
G1 X63.084 Y67.22 E.03311
G1 X60.873 Y65.009 E.13089
G1 X60.873 Y65.8 E.03311
G1 X62.293 Y67.22 E.08407
G1 X61.502 Y67.22 E.03311
G1 X60.622 Y66.34 E.05209
; stop printing object flowrate_m10 id:2 copy 0
; printing object flowrate_0 id:0 copy 0
G1 E-.35 F1800
;WIPE_START
G1 F9000
G1 X61.329 Y67.047 E-.1425
;WIPE_END
G1 E-.0075 F1800
EXCLUDE_OBJECT_END NAME=flowrate_m10_id_2_copy_0
EXCLUDE_OBJECT_START NAME=flowrate_0_id_0_copy_0
G17
G3 Z.3 I-.216 J.214 P1  F30000
G1 X97.08 Y103.198 Z.3
G1 Z.2
G1 E.5 F1800
;TYPE:Inner wall
;WIDTH:0.6
G1 F6000
G1 X87.08 Y103.198 E.46321
G1 X87.08 Y113.198 E.46321
G1 X69.909 Y113.198 E.79542
G1 X69.909 Y103.198 E.46321
G1 X59.909 Y103.198 E.46321
G1 X59.909 Y86.027 E.79542
G1 X97.08 Y86.027 E1.72184
G1 X97.08 Y103.158 E.79356
G1 X97.637 Y103.756 F30000
G1 F6000
G1 X87.637 Y103.756 E.46321
G1 X87.637 Y113.756 E.46321
G1 X69.351 Y113.756 E.84703
G1 X69.351 Y103.756 E.46321
G1 X59.351 Y103.756 E.46321
G1 X59.351 Y85.47 E.84703
G1 X97.637 Y85.47 E1.77345
G1 X97.637 Y103.716 E.84517
G1 X98.194 Y104.313 F30000
;TYPE:Outer wall
G1 F6000
G1 X88.194 Y104.313 E.46321
G1 X88.194 Y114.313 E.46321
G1 X68.794 Y114.313 E.89863
G1 X68.794 Y104.313 E.46321
G1 X58.794 Y104.313 E.46321
G1 X58.794 Y84.913 E.89863
G1 X98.194 Y84.913 E1.82506
G1 X98.194 Y104.273 E.89678
G1 E-.5 F1800
G17
G3 Z.3 I.302 J-.04 P1  F30000
G1 X95.782 Y86.194 Z.3
G1 Z.2
G1 E.5 F1800
;TYPE:Bottom surface
;WIDTH:0.602224
G1 F9000
G1 X96.662 Y87.074 E.05789
G1 X96.662 Y87.865 E.03679
G1 X95.242 Y86.445 E.09342
G1 X94.451 Y86.445 E.03679
G1 X96.662 Y88.656 E.14544
G1 X96.662 Y89.447 E.03679
G1 X93.66 Y86.445 E.19747
