; HEADER_BLOCK_START
; generated by OrcaSlicer 1.6.6 on 2023-11-21 at 02:37:35
; total layer number: 39
; HEADER_BLOCK_END

; THUMBNAIL_BLOCK_START
; THUMBNAIL_BLOCK_END

; external perimeters extrusion width = 0.72mm
; perimeters extrusion width = 0.72mm
; infill extrusion width = 0.72mm
; solid infill extrusion width = 0.72mm
; top infill extrusion width = 0.72mm
; support material extrusion width = 0.60mm
; first layer extrusion width = 0.90mm

; EXECUTABLE_BLOCK_START
EXCLUDE_OBJECT_DEFINE NAME=FT_-_Cable_Management_Cover_with_Relay__5V_Reg._11-21-23.STL_id_0_copy_0 CENTER=55.5791,60.2609 POLYGON=[[33.5791,8.26094],[33.6161,7.79164],[33.6165,7.78884],[33.726,7.33389],[33.7277,7.32851],[33.9061,6.89897],[33.91,6.89141],[34.1521,6.49758],[34.1588,6.48844],[34.4578,6.13962],[34.4678,6.12964],[34.8158,5.83389],[34.8295,5.82395],[35.2172,5.58792],[35.2348,5.57899],[35.6521,5.40777],[35.6736,5.40086],[36.1098,5.29787],[36.135,5.294],[36.5791,5.26094],[74.5791,5.26094],[75.0484,5.29787],[75.0512,5.29832],[75.5062,5.40777],[75.5116,5.40952],[75.9411,5.58792],[75.9487,5.59178],[76.3425,5.83389],[76.3516,5.84055],[76.7005,6.13962],[76.7104,6.14964],[77.0062,6.49758],[77.0161,6.51134],[77.2522,6.89897],[77.2611,6.91664],[77.4323,7.33389],[77.4392,7.35543],[77.5422,7.79164],[77.5461,7.81679],[77.5791,8.26094],[77.5791,112.261],[77.5422,112.73],[77.5418,112.733],[77.4323,113.188],[77.4306,113.193],[77.2522,113.623],[77.2483,113.63],[77.0062,114.024],[76.9995,114.033],[76.7005,114.382],[76.6904,114.392],[76.3425,114.688],[76.3287,114.698],[75.9411,114.934],[75.9234,114.943],[75.5062,115.114],[75.4846,115.121],[75.0484,115.224],[75.0233,115.228],[74.5791,115.261],[36.5791,115.261],[36.1098,115.224],[36.107,115.224],[35.6521,115.114],[35.6467,115.112],[35.2172,114.934],[35.2096,114.93],[34.8158,114.688],[34.8066,114.681],[34.4578,114.382],[34.4478,114.372],[34.1521,114.024],[34.1422,114.011],[33.9061,113.623],[33.8972,113.605],[33.726,113.188],[33.7191,113.166],[33.6161,112.73],[33.6122,112.705],[33.5791,112.261],[33.5791,8.26094]]
M73 P0 R15
;TYPE:Custom
M104 S0
M140 S0

print_start EXTRUDER=280 BED=110

G92 E0.0
G90
G21
M83 ; use relative distances for extrusion
; Filament gcode
SET_PRESSURE_ADVANCE ADVANCE=0.015; Override pressure advance value
M106 S0
;LAYER_CHANGE
;Z:0.32
;HEIGHT:0.32
;BEFORE_LAYER_CHANGE
;0.32
G92 E0

G1 E-.5 F1800
;AFTER_LAYER_CHANGE
;0.32
SET_VELOCITY_LIMIT ACCEL=10000
SET_VELOCITY_LIMIT SQUARE_CORNER_VELOCITY=9
; printing object FT - Cable Management Cover with Relay  5V Reg. 11-21-23.STL id:0 copy 0
EXCLUDE_OBJECT_START NAME=FT_-_Cable_Management_Cover_with_Relay__5V_Reg._11-21-23.STL_id_0_copy_0
G1 X76.179 Y97.67 F30000
G1 Z.32
G1 E.5 F1800
;TYPE:Outer wall
;WIDTH:0.9
G1 F6000
G1 X72.979 Y97.67 E.3295
G1 X72.979 Y22.77 E7.71237
G1 X76.179 Y22.77 E.3295
G1 X76.179 Y97.61 E7.70619
G1 E-.5 F1800
G17
G3 Z.42 I-.137 J-.271 P1  F30000
G1 X55.4 Y108.137 Z.42
G1 Z.32
G1 E.5 F1800
;TYPE:Inner wall
G1 F6000
G1 X54.971 Y108.082 E.04447
G1 X54.503 Y107.939 E.0504
G1 X54.066 Y107.718 E.0504
G1 X53.672 Y107.427 E.0504
G1 X53.334 Y107.074 E.0504
G1 X53.06 Y106.668 E.0504
G1 X52.858 Y106.222 E.0504
G1 X52.735 Y105.749 E.0504
G1 X52.693 Y105.261 E.0504
G1 X52.735 Y104.773 E.0504
G1 X52.858 Y104.299 E.0504
G1 X53.05 Y103.875 E.04794
G1 X53.329 Y103.453 E.05217
G1 X53.672 Y103.095 E.05108
G1 X54.066 Y102.803 E.0504
G1 X54.503 Y102.583 E.0504
G1 X54.971 Y102.44 E.05041
G1 X55.433 Y102.381 E.04794
G1 X55.939 Y102.397 E.05216
G1 X56.424 Y102.501 E.05108
G1 X56.878 Y102.684 E.05041
G1 X57.295 Y102.941 E.0504
G1 X57.663 Y103.264 E.0504
G1 X57.97 Y103.645 E.0504
G1 X58.209 Y104.072 E.0504
G1 X58.372 Y104.534 E.0504
G1 X58.455 Y105.016 E.0504
G1 X58.455 Y105.506 E.0504
G1 X58.372 Y105.988 E.0504
G1 X58.209 Y106.45 E.0504
G1 X57.97 Y106.877 E.0504
G1 X57.663 Y107.258 E.0504
G1 X57.295 Y107.581 E.0504
G1 X56.878 Y107.838 E.0504
G1 X56.424 Y108.02 E.0504
G1 X55.946 Y108.123 E.0504
G1 X55.459 Y108.144 E.05016
G1 X55.568 Y107.307 F30000
;TYPE:Outer wall
G1 F6000
G1 X55.492 Y107.311 E.00778
G1 X55.147 Y107.266 E.03583
G1 X54.814 Y107.165 E.03583
G1 X54.503 Y107.008 E.03583
G1 X54.224 Y106.801 E.03583
G1 X53.983 Y106.55 E.03583
G1 X53.788 Y106.261 E.03583
G1 X53.645 Y105.944 E.03583
G1 X53.557 Y105.608 E.03583
G1 X53.528 Y105.261 E.03583
G1 X53.557 Y104.914 E.03583
G1 X53.645 Y104.577 E.03583
G1 X53.78 Y104.278 E.0338
G1 X53.981 Y103.974 E.03759
G1 X54.224 Y103.721 E.03607
G1 X54.503 Y103.514 E.03583
G1 X54.814 Y103.357 E.03583
G1 X55.147 Y103.255 E.03583
G1 X55.473 Y103.214 E.0338
G1 X55.837 Y103.225 E.03759
G1 X56.18 Y103.299 E.03607
G1 X56.503 Y103.429 E.03583
G1 X56.799 Y103.611 E.03583
G1 X57.06 Y103.841 E.03583
G1 X57.279 Y104.112 E.03583
G1 X57.449 Y104.416 E.03583
G1 X57.565 Y104.744 E.03583
G1 X57.623 Y105.087 E.03583
G1 X57.623 Y105.435 E.03583
G1 X57.565 Y105.778 E.03583
G1 X57.449 Y106.106 E.03583
G1 X57.279 Y106.41 E.03583
G1 X57.06 Y106.68 E.03583
G1 X56.799 Y106.91 E.03583
G1 X56.503 Y107.093 E.03583
G1 X56.18 Y107.223 E.03583
G1 X55.84 Y107.296 E.03583
G1 X55.628 Y107.305 E.02187
G1 E-.35 F1800
;WIPE_START
G1 F6000
G1 X55.492 Y107.311 E-.01932
G1 X55.147 Y107.266 E-.04959
G1 X54.814 Y107.165 E-.04959
G1 X54.664 Y107.089 E-.02401
;WIPE_END
G1 E-.0075 F1800
G17
G3 Z.42 I-.272 J-.137 P1  F30000
G1 X54.305 Y107.8 Z.42
G1 X54.084 Y107.689
G1 X53.695 Y107.401
G1 X53.361 Y107.052
G1 X53.09 Y106.652
G1 X52.89 Y106.211
G1 X52.769 Y105.743
G1 X52.728 Y105.261
G1 X55.4 Y18.137
G1 Z.32
G1 E.5 F1800
;TYPE:Inner wall
G1 F6000
G1 X54.971 Y18.082 E.04447
G1 X54.503 Y17.939 E.0504
G1 X54.066 Y17.718 E.0504
G1 X53.672 Y17.427 E.0504
G1 X53.334 Y17.074 E.0504
G1 X53.06 Y16.668 E.0504
G1 X52.858 Y16.222 E.0504
G1 X52.735 Y15.749 E.0504
G1 X52.693 Y15.261 E.0504
G1 X52.735 Y14.773 E.0504
G1 X52.858 Y14.3 E.0504
G1 X53.06 Y13.853 E.0504
G1 X53.334 Y13.448 E.0504
G1 X53.672 Y13.095 E.0504
G1 X54.066 Y12.803 E.0504
G1 X54.503 Y12.583 E.0504
G1 X54.971 Y12.44 E.0504
G1 X55.433 Y12.381 E.04794
G1 X55.939 Y12.397 E.05217
G1 X56.424 Y12.501 E.05108
G1 X56.878 Y12.684 E.0504
G1 X57.295 Y12.941 E.0504
G1 X57.663 Y13.264 E.0504
G1 X57.97 Y13.645 E.0504
G1 X58.209 Y14.072 E.0504
G1 X58.372 Y14.534 E.0504
G1 X58.455 Y15.016 E.0504
G1 X58.455 Y15.506 E.0504
G1 X58.372 Y15.988 E.0504
G1 X58.209 Y16.45 E.0504
G1 X57.982 Y16.856 E.04794
G1 X57.668 Y17.253 E.05217
G1 X57.295 Y17.581 E.05108
G1 X56.878 Y17.838 E.0504
G1 X56.424 Y18.02 E.05041
G1 X55.946 Y18.124 E.0504
G1 X55.459 Y18.144 E.05015
G1 X55.586 Y17.307 F30000
;TYPE:Outer wall
G1 F6000
G1 X55.492 Y17.311 E.00971
G1 X55.147 Y17.266 E.03583
G1 X54.814 Y17.165 E.03583
G1 X54.503 Y17.008 E.03583
G1 X54.224 Y16.801 E.03583
G1 X53.983 Y16.55 E.03583
G1 X53.788 Y16.261 E.03583
G1 X53.645 Y15.944 E.03583
G1 X53.557 Y15.608 E.03583
G1 X53.528 Y15.261 E.03583
G1 X53.557 Y14.914 E.03583
G1 X53.645 Y14.577 E.03583
G1 X53.788 Y14.26 E.03583
G1 X53.983 Y13.972 E.03583
G1 X54.224 Y13.721 E.03583
G1 X54.503 Y13.514 E.03583
G1 X54.814 Y13.357 E.03583
G1 X55.147 Y13.255 E.03583
G1 X55.473 Y13.214 E.03381
G1 X55.837 Y13.225 E.0376
G1 X56.18 Y13.299 E.03607
G1 X56.503 Y13.429 E.03583
G1 X56.799 Y13.611 E.03583
G1 X57.06 Y13.841 E.03583
G1 X57.279 Y14.112 E.03583
G1 X57.449 Y14.416 E.03583
G1 X57.565 Y14.744 E.03583
G1 X57.623 Y15.087 E.03583
G1 X57.623 Y15.435 E.03583
G1 X57.565 Y15.778 E.03583
G1 X57.449 Y16.106 E.03583
G1 X57.289 Y16.393 E.03381
G1 X57.062 Y16.679 E.0376
G1 X56.799 Y16.91 E.03607
G1 X56.503 Y17.093 E.03583
G1 X56.18 Y17.223 E.03583
G1 X55.84 Y17.296 E.03583
G1 X55.646 Y17.304 E.01994
G1 E-.5 F1800
G17
G3 Z.42 I-.299 J-.059 P1  F30000
G1 X36.63 Y113.98 Z.42
G1 Z.32
G1 E.5 F1800
;TYPE:Inner wall
G1 F6000
G1 X36.311 Y113.955 E.03292
G1 X36.049 Y113.892 E.02772
G1 X35.8 Y113.789 E.02772
G1 X35.571 Y113.648 E.02772
G1 X35.366 Y113.473 E.02772
G1 X35.191 Y113.268 E.02772
G1 X35.051 Y113.039 E.02772
G1 X34.948 Y112.79 E.02772
G1 X34.885 Y112.528 E.02775
G1 X34.86 Y112.211 E.03274
G1 X34.86 Y98.501 E1.41163
G1 X39.01 Y98.501 E.42732
G1 X39.01 Y21.939 E7.88357
G1 X34.86 Y21.939 E.42732
G1 X34.86 Y8.311 E1.40321
G1 X34.886 Y7.993 E.03292
G1 X34.948 Y7.731 E.02772
G1 X35.052 Y7.482 E.02772
G1 X35.192 Y7.253 E.02772
G1 X35.367 Y7.048 E.02772
G1 X35.572 Y6.873 E.02772
G1 X35.801 Y6.733 E.02772
G1 X36.05 Y6.63 E.02772
G1 X36.312 Y6.567 E.02775
G1 X36.629 Y6.542 E.03274
G1 X74.529 Y6.542 E3.90247
G1 X74.817 Y6.565 E.02979
G1 X75.116 Y6.633 E.03157
G1 X75.358 Y6.733 E.02695
G1 X75.587 Y6.874 E.02772
G1 X75.792 Y7.049 E.02772
G1 X75.967 Y7.254 E.02772
G1 X76.108 Y7.484 E.02776
G1 X76.199 Y7.704 E.02457
G1 X76.274 Y8.001 E.03156
G1 X76.298 Y8.311 E.032
G1 X76.298 Y21.939 E1.40324
G1 X72.148 Y21.939 E.42732
G1 X72.148 Y98.501 E7.88357
G1 X76.298 Y98.501 E.42732
G1 X76.298 Y112.211 E1.41161
G1 X76.273 Y112.529 E.03292
G1 X76.21 Y112.791 E.02772
G1 X76.107 Y113.04 E.02772
G1 X75.966 Y113.269 E.02772
G1 X75.791 Y113.474 E.02772
G1 X75.586 Y113.649 E.02772
G1 X75.357 Y113.789 E.02772
G1 X75.108 Y113.892 E.02772
G1 X74.846 Y113.955 E.02775
G1 X74.529 Y113.98 E.03274
G1 X36.69 Y113.98 E3.89629
G1 E-.5 F1800
G17
G3 Z.42 I.303 J.028 P1  F30000
G1 X38.179 Y97.67 Z.42
G1 Z.32
G1 E.5 F1800
;TYPE:Outer wall
G1 F6000
G1 X34.979 Y97.67 E.3295
G1 X34.979 Y22.77 E7.71237
G1 X38.179 Y22.77 E.3295
G1 X38.179 Y97.61 E7.70619
G1 E-.5 F1800
G17
G3 Z.42 I-.303 J-.028 P1  F30000
G1 X36.597 Y114.811 Z.42
G1 Z.32
G1 E.5 F1800
G1 F6000
G1 X36.18 Y114.778 E.04303
G1 X35.791 Y114.685 E.0412
G1 X35.422 Y114.532 E.0412
G1 X35.08 Y114.322 E.0412
G1 X34.776 Y114.062 E.0412
G1 X34.517 Y113.758 E.0412
G1 X34.308 Y113.417 E.0412
G1 X34.155 Y113.047 E.0412
G1 X34.062 Y112.658 E.04121
G1 X34.029 Y112.243 E.04281
G1 X34.029 Y8.279 E10.70512
M73 P1 R15
G1 X34.062 Y7.862 E.04303
G1 X34.155 Y7.473 E.0412
G1 X34.309 Y7.103 E.0412
G1 X34.518 Y6.762 E.0412
G1 X34.778 Y6.458 E.0412
G1 X35.082 Y6.198 E.0412
G1 X35.423 Y5.99 E.0412
G1 X35.793 Y5.837 E.0412
G1 X36.182 Y5.743 E.04121
G1 X36.597 Y5.711 E.04281
G1 X74.561 Y5.711 E3.90918
G1 X74.943 Y5.741 E.0394
G1 X75.37 Y5.838 E.04505
G1 X75.737 Y5.99 E.04093
G1 X76.078 Y6.2 E.0412
G1 X76.382 Y6.459 E.0412
G1 X76.642 Y6.764 E.0412
G1 X76.851 Y7.105 E.04121
G1 X76.99 Y7.442 E.03757
G1 X77.097 Y7.867 E.04505
G1 X77.129 Y8.279 E.04255
G1 X77.129 Y112.243 E10.70512
G1 X77.096 Y112.66 E.04303
G1 X77.003 Y113.049 E.0412
G1 X76.85 Y113.418 E.0412
G1 X76.641 Y113.76 E.0412
G1 X76.381 Y114.064 E.0412
G1 X76.076 Y114.323 E.0412
G1 X75.735 Y114.532 E.0412
G1 X75.365 Y114.685 E.0412
G1 X74.976 Y114.778 E.04121
G1 X74.562 Y114.811 E.04281
G1 X36.657 Y114.811 E3.903
G1 E-.5 F1800
G17
G3 Z.42 I.302 J-.039 P1  F30000
G1 X34.504 Y98.086 Z.42
G1 Z.32
G1 E.5 F1800
;TYPE:Gap infill
;WIDTH:0.187343
G1 F6000
G1 X34.504 Y22.355 E1.11314
G1 E-.35 F1800
;WIPE_START
G1 F6000
G1 X34.504 Y23.355 E-.1425
;WIPE_END
G1 E-.0075 F1800
G17
G3 Z.42 I-.304 J.004 P1  F30000
G1 X35.551 Y113.676 Z.42
G1 X76.332 Y112.212
G1 X76.332 Y102.16
G1 X76.654 Y98.086
G1 Z.32
G1 E.5 F1800
;WIDTH:0.187345
G1 F6000
G1 X76.654 Y22.355 E1.11316
G1 E-.5 F1800
G17
G3 Z.42 I.304 J-.013 P1  F30000
G1 X76.037 Y8.179 Z.42
G1 Z.32
G1 E.5 F1800
;TYPE:Bottom surface
;WIDTH:0.902718
G1 F6069.816
G1 X75.348 Y7.49 E.10063
G1 X75.22 Y7.38 E.0175
G1 X75.074 Y7.29 E.01767
G1 X74.926 Y7.229 E.01652
G1 X74.723 Y7.183 E.02153
G1 X74.504 Y7.166 E.02266
G1 X73.845 Y7.166 E.06814
G1 X75.674 Y8.995 E.26729
G1 X75.674 Y10.175 E.12185
G1 X72.665 Y7.166 E.43962
G1 X71.486 Y7.166 E.12185
G1 X75.674 Y11.354 E.61194
G1 X75.674 Y12.534 E.12185
G1 X70.306 Y7.166 E.78426
G1 X69.127 Y7.166 E.12185
G1 X75.674 Y13.713 E.95658
G1 X75.674 Y14.893 E.12185
G1 X67.947 Y7.166 E1.12891
G1 X66.768 Y7.166 E.12185
G1 X75.674 Y16.072 E1.30123
G1 X75.674 Y17.252 E.12185
G1 X65.588 Y7.166 E1.47355
G1 X64.409 Y7.166 E.12185
G1 X75.674 Y18.431 E1.64588
G1 X75.674 Y19.611 E.12185
G1 X63.229 Y7.166 E1.8182
G1 X62.05 Y7.166 E.12185
G1 X75.674 Y20.791 E1.99052
G1 X75.674 Y21.315 E.05422
G1 X75.02 Y21.315 E.06763
G1 X60.87 Y7.166 E2.0672
G1 X59.691 Y7.166 E.12185
G1 X73.84 Y21.315 E2.0672
G1 X72.661 Y21.315 E.12185
G1 X58.511 Y7.166 E2.0672
G1 X57.332 Y7.166 E.12185
G1 X71.524 Y21.359 E2.07351
G1 X71.524 Y22.538 E.12185
G1 X56.152 Y7.166 E2.24584
G1 X54.972 Y7.166 E.12185
G1 X71.524 Y23.718 E2.41816
G1 X71.524 Y24.897 E.12185
G1 X53.793 Y7.166 E2.59048
G1 X52.613 Y7.166 E.12185
G1 X71.524 Y26.077 E2.7628
G1 X71.524 Y27.256 E.12185
G1 X59.046 Y14.778 E1.82296
G1 X58.978 Y14.376 E.04216
G1 X58.779 Y13.814 E.06153
G1 X58.489 Y13.294 E.06153
G1 X58.114 Y12.831 E.06153
G1 X57.667 Y12.438 E.06153
G1 X57.16 Y12.125 E.06153
G1 X56.607 Y11.903 E.06153
G1 X56.052 Y11.783 E.05875
G1 X51.434 Y7.166 E.67461
G1 X50.254 Y7.166 E.12185
G1 X54.908 Y11.819 E.67986
G1 X54.27 Y12.002 E.06859
G1 X54.032 Y12.123 E.02755
G1 X49.075 Y7.166 E.72417
G1 X47.895 Y7.166 E.12185
G1 X53.314 Y12.584 E.79162
G1 X52.847 Y13.055 E.06848
G1 X52.749 Y13.199 E.01801
G1 X46.716 Y7.166 E.88147
G1 X45.536 Y7.166 E.12185
G1 X52.328 Y13.958 E.99228
G1 X52.268 Y14.091 E.01511
G1 X52.118 Y14.667 E.06153
G1 X52.098 Y14.907 E.02479
G1 X43.983 Y6.792 E1.18555
M73 P2 R15
G1 E-.35 F1800
;WIPE_START
G1 F6069.816
G1 X44.69 Y7.499 E-.1425
;WIPE_END
G1 E-.0075 F1800
G17
G3 Z.42 I-.225 J.204 P1  F30000
G1 X53.361 Y17.052 Z.42
G1 X53.695 Y17.402
G1 X54.084 Y17.689
G1 X71.898 Y28.81
G1 Z.32
G1 E.5 F1800
G1 F6069.816
G1 X59.015 Y15.926 E1.8822
G1 X58.978 Y16.146 E.02299
G1 X58.779 Y16.707 E.06153
G1 X58.721 Y16.812 E.01234
G1 X71.524 Y29.615 E1.87054
G1 X71.524 Y30.795 E.12185
G1 X58.251 Y17.521 E1.93921
G1 X58.122 Y17.684 E.02149
G1 X57.647 Y18.097 E.06498
G1 X71.524 Y31.974 E2.02743
G1 X71.524 Y33.154 E.12185
G1 X56.88 Y18.509 E2.1395
G1 X56.607 Y18.619 E.03032
G1 X56.025 Y18.744 E.06153
G1 X55.939 Y18.748 E.00892
G1 X71.524 Y34.333 E2.27697
G1 X71.524 Y35.513 E.12185
G1 X54.646 Y18.635 E2.46583
G1 X54.27 Y18.519 E.04067
G1 X53.738 Y18.251 E.06153
G1 X53.259 Y17.897 E.06153
G1 X52.847 Y17.467 E.06153
G1 X52.513 Y16.974 E.06153
G1 X52.268 Y16.431 E.06153
G1 X52.207 Y16.195 E.02516
G1 X43.177 Y7.166 E1.31916
G1 X41.998 Y7.166 E.12185
G1 X71.524 Y36.692 E4.31371
G1 X71.524 Y37.872 E.12185
G1 X40.818 Y7.166 E4.48603
G1 X39.639 Y7.166 E.12185
G1 X71.524 Y39.051 E4.65836
G1 X71.524 Y40.231 E.12185
G1 X38.459 Y7.166 E4.83068
G1 X37.28 Y7.166 E.12185
G1 X71.524 Y41.41 E5.003
G1 X71.524 Y42.59 E.12185
G1 X36.184 Y7.249 E5.16311
G1 X35.939 Y7.379 E.02861
G1 X35.809 Y7.49 E.01766
G1 X35.698 Y7.62 E.01767
G1 X35.609 Y7.766 E.01767
G1 X35.583 Y7.828 E.00692
G1 X71.524 Y43.769 E5.25088
G1 X71.524 Y44.949 E.12185
G1 X35.484 Y8.909 E5.26535
G1 X35.484 Y10.088 E.12185
G1 X71.524 Y46.128 E5.26535
G1 X71.524 Y47.308 E.12185
G1 X35.484 Y11.268 E5.26535
G1 X35.484 Y12.447 E.12185
G1 X71.524 Y48.487 E5.26535
G1 X71.524 Y49.667 E.12185
G1 X35.484 Y13.627 E5.26535
G1 X35.484 Y14.806 E.12185
G1 X71.524 Y50.847 E5.26535
G1 X71.524 Y52.026 E.12185
G1 X35.484 Y15.986 E5.26535
G1 X35.484 Y17.165 E.12185
G1 X71.524 Y53.206 E5.26535
M73 P3 R15
G1 X71.524 Y54.385 E.12185
G1 X39.634 Y22.495 E4.65905
G1 X39.634 Y21.315 E.12183
G1 X38.455 Y21.315 E.12183
G1 X35.484 Y18.345 E.434
G1 X35.484 Y19.524 E.12185
G1 X37.275 Y21.315 E.26168
G1 X36.096 Y21.315 E.12185
G1 X35.11 Y20.33 E.14401
G1 E-.5 F1800
G17
G3 Z.42 I-.177 J.247 P1  F30000
G1 X39.26 Y23.3 Z.42
G1 Z.32
G1 E.5 F1800
G1 F6069.816
G1 X71.524 Y55.565 E4.71371
G1 X71.524 Y56.744 E.12185
G1 X39.634 Y24.854 E4.65905
G1 X39.634 Y26.033 E.12185
G1 X71.524 Y57.924 E4.65905
G1 X71.524 Y59.103 E.12185
G1 X39.634 Y27.213 E4.65905
G1 X39.634 Y28.392 E.12185
G1 X71.524 Y60.283 E4.65905
G1 X71.524 Y61.462 E.12185
G1 X39.634 Y29.572 E4.65905
G1 X39.634 Y30.751 E.12185
G1 X71.524 Y62.642 E4.65905
G1 X71.524 Y63.821 E.12185
G1 X39.634 Y31.931 E4.65905
G1 X39.634 Y33.11 E.12185
G1 X71.524 Y65.001 E4.65905
G1 X71.524 Y66.18 E.12185
G1 X39.634 Y34.29 E4.65905
G1 X39.634 Y35.469 E.12185
G1 X71.524 Y67.36 E4.65905
G1 X71.524 Y68.539 E.12185
G1 X39.634 Y36.649 E4.65905
G1 X39.634 Y37.828 E.12185
G1 X71.524 Y69.719 E4.65905
G1 X71.524 Y70.898 E.12185
