; HEADER_BLOCK_START
; generated by OrcaSlicer 1.6.6 on 2023-11-20 at 22:35:59
; total layer number: 45
; HEADER_BLOCK_END

; THUMBNAIL_BLOCK_START
; THUMBNAIL_BLOCK_END

; external perimeters extrusion width = 0.72mm
; perimeters extrusion width = 0.72mm
; infill extrusion width = 0.72mm
; solid infill extrusion width = 0.72mm
; top infill extrusion width = 0.72mm
; support material extrusion width = 0.60mm
; first layer extrusion width = 0.90mm

; EXECUTABLE_BLOCK_START
EXCLUDE_OBJECT_DEFINE NAME=in_id_0_copy_0 CENTER=59.2086,57.9671 POLYGON=[[3.89536,10.2574],[3.89537,10.1708],[3.91517,9.97477],[3.97267,9.78626],[4.06507,9.6122],[4.3045,9.30178],[7.84503,5.77124],[11.6573,2.65386],[114.522,105.518],[111.404,109.331],[107.874,112.871],[107.563,113.111],[107.389,113.203],[107.201,113.26],[107.005,113.28],[106.787,113.28],[105.079,113.28],[61.3218,113.28],[60.0144,113.223],[58.7171,113.052],[57.4395,112.769],[56.1915,112.376],[54.9825,111.875],[53.8218,111.271],[52.7181,110.568],[51.68,109.771],[50.7152,108.887],[8.28876,66.4605],[7.4047,65.4957],[6.60809,64.4575],[5.90498,63.3539],[5.30075,62.1931],[4.79997,60.9842],[4.40648,59.7362],[4.12325,58.4586],[3.95245,57.1612],[3.89537,55.8539],[3.89536,12.097],[3.89536,10.2574]]
M73 P0 R14
;TYPE:Custom
M104 S0
M140 S0

print_start EXTRUDER=280 BED=110

G92 E0.0
G90
G21
M83 ; use relative distances for extrusion
; Filament gcode
SET_PRESSURE_ADVANCE ADVANCE=0.015; Override pressure advance value
M106 S0
;LAYER_CHANGE
;Z:0.2
;HEIGHT:0.2
;BEFORE_LAYER_CHANGE
;0.2
G92 E0

G1 E-.5 F1800
;AFTER_LAYER_CHANGE
;0.2
SET_VELOCITY_LIMIT ACCEL=10000
SET_VELOCITY_LIMIT SQUARE_CORNER_VELOCITY=9
; printing object in id:0 copy 0
EXCLUDE_OBJECT_START NAME=in_id_0_copy_0
G1 X36.144 Y91.19 F30000
G1 Z.2
G1 E.5 F1800
;TYPE:Inner wall
;WIDTH:0.9
G1 F6000
G1 X35.796 Y91.412 E.02655
G1 X25.764 Y81.38 E.91247
G1 X25.986 Y81.032 E.02655
G1 X26.55 Y81.237 E.0386
G1 X29.493 Y82.026 E.196
G1 X30.085 Y82.104 E.03841
G1 X30.763 Y82.015 E.04396
G1 X31.394 Y81.753 E.04396
G1 X31.868 Y81.39 E.03841
G1 X33.825 Y79.433 E.17795
G1 X34.188 Y78.96 E.03841
G1 X34.45 Y78.328 E.04396
G1 X34.539 Y77.65 E.04396
G1 X34.461 Y77.058 E.03841
G1 X33.737 Y74.355 E.17998
G1 X34.078 Y74.158 E.02538
G1 X43.018 Y83.097 E.8131
G1 X42.82 Y83.439 E.02538
G1 X40.117 Y82.715 E.17998
G1 X39.525 Y82.637 E.03841
G1 X38.848 Y82.726 E.04396
G1 X38.216 Y82.988 E.04396
G1 X37.742 Y83.351 E.03841
G1 X35.786 Y85.307 E.17795
G1 X35.423 Y85.781 E.03841
G1 X35.161 Y86.413 E.04396
G1 X35.072 Y87.09 E.04396
G1 X35.15 Y87.682 E.03841
G1 X35.938 Y90.626 E.196
G1 X36.123 Y91.134 E.03474
G1 E-.35 F1800
;WIPE_START
G1 F6000
G1 X35.796 Y91.412 E-.06124
G1 X35.392 Y91.008 E-.08126
;WIPE_END
G1 E-.0075 F1800
G17
G3 Z.3 I-.197 J.232 P1  F30000
G1 X48.861 Y102.404 Z.3
G1 X49.075 Y102.561
G1 X49.301 Y102.695
G1 X50.987 Y103.627
G1 X51.396 Y103.664
G1 X52.568 Y103.675
G1 Z.2
G1 E.5 F1800
;TYPE:Outer wall
G1 F6000
G1 X52.527 Y103.681 E.00271
G1 X52.102 Y103.625 E.02754
G1 X49.249 Y102.86 E.18998
G1 X48.981 Y102.763 E.01837
G1 X48.716 Y102.61 E.01964
G1 X48.497 Y102.426 E.01837
G1 X37.191 Y91.12 E1.02846
G1 X37.007 Y90.901 E.01837
G1 X36.854 Y90.636 E.01964
G1 X36.757 Y90.368 E.01837
G1 X35.992 Y87.515 E.18998
G1 X35.936 Y87.09 E.02754
G1 X35.996 Y86.636 E.02945
G1 X36.171 Y86.213 E.02945
G1 X36.432 Y85.874 E.02754
G1 X38.309 Y83.997 E.17072
G1 X38.648 Y83.736 E.02753
G1 X39.071 Y83.561 E.02945
G1 X39.402 Y83.518 E.02144
G1 X39.525 Y83.501 E.00801
G1 X39.95 Y83.557 E.02754
G1 X42.803 Y84.322 E.18998
G1 X43.071 Y84.419 E.01837
G1 X43.336 Y84.572 E.01964
G1 X43.555 Y84.756 E.01837
G1 X54.861 Y96.062 E1.02846
G1 X55.045 Y96.281 E.01837
G1 X55.198 Y96.546 E.01964
G1 X55.295 Y96.814 E.01837
G1 X56.06 Y99.667 E.18998
G1 X56.116 Y100.092 E.02754
G1 X56.056 Y100.546 E.02945
G1 X55.881 Y100.969 E.02945
G1 X55.62 Y101.308 E.02754
G1 X53.743 Y103.185 E.17072
G1 X53.404 Y103.446 E.02754
G1 X52.981 Y103.621 E.02945
G1 X52.628 Y103.667 E.02288
G1 X52.443 Y104.534 F30000
;TYPE:Inner wall
G1 F6000
G1 X52.527 Y104.545 E.00543
G1 X53.204 Y104.456 E.04396
G1 X53.905 Y104.166 E.04878
G1 X53.789 Y105.225 E.06856
G1 X53.835 Y105.863 E.0411
G1 X53.87 Y106.137 E.01777
G1 X54.03 Y106.733 E.03971
G1 X54.119 Y106.995 E.01777
G1 X54.389 Y107.55 E.03971
G1 X54.529 Y107.788 E.01777
G1 X54.928 Y108.322 E.04287
G1 X55.56 Y108.923 E.05609
G1 X56.31 Y109.402 E.05722
G1 X57.138 Y109.727 E.05723
G1 X58.013 Y109.888 E.05723
G1 X58.903 Y109.877 E.05724
G1 X59.774 Y109.695 E.05724
G1 X60.594 Y109.35 E.05724
G1 X61.333 Y108.853 E.05724
G1 X61.962 Y108.224 E.05725
G1 X62.374 Y107.612 E.04743
G1 X62.695 Y108.387 E.05398
G1 X63.111 Y108.929 E.04396
G1 X63.585 Y109.293 E.03841
G1 X66.224 Y110.817 E.19601
G1 X66.768 Y111.07 E.0386
G1 X66.678 Y111.473 E.02655
G1 X61.35 Y111.473 E.34269
G1 X60.172 Y111.422 E.07586
G1 X59.031 Y111.272 E.07402
G1 X57.908 Y111.022 E.07402
G1 X56.81 Y110.676 E.07402
G1 X55.747 Y110.236 E.07402
G1 X54.726 Y109.705 E.07402
G1 X53.755 Y109.086 E.07402
G1 X52.842 Y108.386 E.07402
G1 X51.973 Y107.589 E.07586
G1 X48.205 Y103.821 E.34269
G1 X48.427 Y103.473 E.02655
G1 X48.991 Y103.679 E.0386
G1 X51.935 Y104.467 E.196
G1 X52.383 Y104.526 E.02911
G1 E-.35 F1800
;WIPE_START
G1 F6000
G1 X52.527 Y104.545 E-.02059
G1 X53.204 Y104.456 E-.0974
G1 X53.363 Y104.39 E-.02451
;WIPE_END
G1 E-.0075 F1800
G17
G3 Z.3 I-.27 J.141 P1  F30000
G1 X54.875 Y107.29 Z.3
G1 X55.017 Y107.463
G1 X55.417 Y107.856
G1 X55.575 Y107.998
G1 X56.019 Y108.318
G1 X56.191 Y108.429
G1 X56.663 Y108.688
G1 X56.847 Y108.769
G1 X57.347 Y108.965
G1 X57.541 Y109.021
G1 X57.958 Y109.118
G1 X57.983 Y109.011
G1 Z.2
G1 E.5 F1800
;TYPE:Outer wall
G1 F6000
G1 X57.374 Y108.899 E.03983
G1 X56.701 Y108.634 E.04653
G1 X56.091 Y108.245 E.04653
G1 X55.572 Y107.751 E.04613
G1 X55.243 Y107.312 E.03521
G1 X55.145 Y107.145 E.01252
G1 X54.913 Y106.668 E.03412
G1 X54.85 Y106.483 E.01252
G1 X54.713 Y105.971 E.03412
G1 X54.688 Y105.778 E.01252
G1 X54.65 Y105.241 E.03459
G1 X54.728 Y104.525 E.04635
G1 X54.943 Y103.834 E.04655
G1 X55.287 Y103.198 E.04648
G1 X55.411 Y103.047 E.01259
G1 X55.747 Y102.638 E.03403
G1 X56.156 Y102.302 E.03404
G1 X56.306 Y102.179 E.01252
G1 X56.772 Y101.924 E.03412
G1 X56.946 Y101.833 E.01263
G1 X57.632 Y101.62 E.0462
G1 X58.164 Y101.556 E.03446
G1 X58.361 Y101.541 E.01271
G1 X59.071 Y101.601 E.04583
G1 X59.592 Y101.741 E.03473
G1 X59.777 Y101.804 E.01252
G1 X60.254 Y102.036 E.03412
G1 X60.421 Y102.134 E.01252
G1 X60.86 Y102.462 E.0352
G1 X61.354 Y102.982 E.04613
G1 X61.743 Y103.592 E.04653
G1 X62.008 Y104.265 E.04653
G1 X62.139 Y104.977 E.04654
G1 X62.13 Y105.7 E.04654
G1 X61.982 Y106.409 E.04655
G1 X61.701 Y107.076 E.04655
G1 X61.297 Y107.676 E.04655
G1 X60.785 Y108.188 E.04655
G1 X60.185 Y108.592 E.04655
G1 X59.518 Y108.873 E.04655
G1 X58.809 Y109.021 E.04655
G1 X58.086 Y109.03 E.04654
G1 X58.042 Y109.022 E.00285
G1 E-.35 F1800
;WIPE_START
G1 F6000
G1 X57.374 Y108.899 E-.0968
G1 X57.076 Y108.782 E-.0457
;WIPE_END
G1 E-.0075 F1800
G17
G3 Z.3 I-.283 J-.111 P1  F30000
G1 X57.05 Y108.848 Z.3
G1 X57.347 Y108.965
G1 X57.541 Y109.021
G1 X58.07 Y109.144
G1 X58.275 Y109.17
G1 X58.826 Y109.227
G1 X59.615 Y109.197
G1 X59.842 Y109.153
G1 X60.269 Y108.744
G1 X60.711 Y108.097
G1 X61.304 Y106.861
G1 X61.494 Y106.415
G1 X66.008 Y100.869
G1 Z.2
G1 E.5 F1800
;TYPE:Inner wall
G1 F6000
G1 X63.585 Y102.268 E.17998
G1 X63.111 Y102.631 E.03841
G1 X62.585 Y103.317 E.05558
G1 X62.032 Y102.451 E.06607
G1 X61.431 Y101.819 E.05609
G1 X60.897 Y101.42 E.04287
G1 X60.659 Y101.28 E.01777
G1 X60.104 Y101.01 E.03971
G1 X59.842 Y100.921 E.01777
G1 X59.219 Y100.754 E.04149
G1 X58.365 Y100.681 E.05516
G1 X57.452 Y100.778 E.05903
G1 X56.866 Y100.961 E.03949
G1 X56.98 Y100.092 E.05637
G1 X56.902 Y99.5 E.03841
G1 X56.178 Y96.797 E.17998
G1 X56.52 Y96.599 E.02538
G1 X58.699 Y98.779 E.19824
G1 X59.371 Y99.353 E.05685
G1 X60.169 Y99.842 E.06016
G1 X61.033 Y100.2 E.06016
G1 X61.943 Y100.418 E.06016
G1 X62.824 Y100.487 E.05685
G1 X65.906 Y100.487 E.19824
G1 X65.992 Y100.811 E.02152
G1 E-.35 F1800
;WIPE_START
G1 F6000
G1 X65.137 Y101.328 E-.1425
;WIPE_END
G1 E-.0075 F1800
G17
G3 Z.3 I-.27 J-.14 P1  F30000
G1 X63.836 Y103.833 Z.3
G1 X63.707 Y104.146
G1 X63.662 Y104.483
G1 X63.662 Y107.078
G1 X63.707 Y107.414
G1 X63.793 Y107.753
G1 X63.902 Y108.138
G1 X64.111 Y108.505
G1 X64.528 Y109.116
G1 X64.849 Y109.369
G1 X67.313 Y110.268
G1 Z.2
G1 E.5 F1800
;TYPE:Outer wall
G1 F6000
G1 X67.174 Y110.255 E.00901
G1 X66.879 Y110.176 E.01964
G1 X66.62 Y110.056 E.01837
G1 X64.062 Y108.579 E.18999
G1 X63.722 Y108.318 E.02753
G1 X63.443 Y107.955 E.02945
G1 X63.268 Y107.532 E.02945
G1 X63.212 Y107.107 E.02753
G1 X63.212 Y104.453 E.17072
G1 X63.268 Y104.029 E.02754
G1 X63.443 Y103.606 E.02945
G1 X63.722 Y103.242 E.02945
G1 X64.062 Y102.982 E.02754
G1 X66.625 Y101.502 E.19039
G1 X66.927 Y101.371 E.02114
G1 X67.174 Y101.305 E.01643
G1 X67.458 Y101.28 E.01837
G1 X86.84 Y101.28 E1.2466
G1 X87.125 Y101.305 E.01837
G1 X87.419 Y101.384 E.01964
G1 X87.678 Y101.505 E.01837
G1 X90.236 Y102.982 E.18998
G1 X90.576 Y103.242 E.02754
G1 X90.855 Y103.606 E.02945
G1 X91.03 Y104.029 E.02945
G1 X91.086 Y104.453 E.02754
G1 X91.086 Y107.107 E.17072
G1 X91.03 Y107.532 E.02753
G1 X90.855 Y107.955 E.02945
G1 X90.576 Y108.318 E.02945
G1 X90.236 Y108.579 E.02753
G1 X87.678 Y110.056 E.18998
G1 X87.419 Y110.176 E.01837
G1 X87.125 Y110.255 E.01964
G1 X86.84 Y110.28 E.01837
G1 X67.458 Y110.28 E1.2466
G1 X67.373 Y110.273 E.0055
G1 E-.35 F1800
;WIPE_START
G1 F6000
G1 X67.174 Y110.255 E-.02852
G1 X66.879 Y110.176 E-.04351
G1 X66.62 Y110.056 E-.0407
G1 X66.439 Y109.951 E-.02977
;WIPE_END
G1 E-.0075 F1800
G17
G3 Z.3 I-.022 J.303 P1  F30000
G1 X67.217 Y110.008 Z.3
G1 X67.47 Y110.02
G1 X86.829 Y110.02
G1 X87.081 Y110.008
G1 X94.542 Y109.592
G1 X94.558 Y109.428
G1 Z.2
G1 E.5 F1800
G1 F6000
G1 X93.949 Y109.316 E.03983
G1 X93.275 Y109.051 E.04653
G1 X92.665 Y108.662 E.04653
G1 X92.146 Y108.167 E.04613
G1 X91.818 Y107.729 E.0352
G1 X91.719 Y107.562 E.01252
G1 X91.488 Y107.084 E.03412
G1 X91.425 Y106.9 E.01252
G1 X91.287 Y106.388 E.03412
G1 X91.263 Y106.195 E.01252
G1 X91.224 Y105.658 E.03459
G1 X91.303 Y104.942 E.04635
G1 X91.518 Y104.251 E.04655
G1 X91.862 Y103.615 E.04648
G1 X91.985 Y103.463 E.01259
G1 X92.322 Y103.055 E.03403
G1 X92.73 Y102.718 E.03403
G1 X92.881 Y102.595 E.01252
G1 X93.347 Y102.341 E.03412
G1 X93.521 Y102.25 E.01263
G1 X94.206 Y102.037 E.0462
G1 X94.738 Y101.973 E.03446
G1 X94.936 Y101.958 E.01271
G1 X95.646 Y102.018 E.04583
G1 X96.167 Y102.158 E.03473
G1 X96.351 Y102.221 E.01252
G1 X96.828 Y102.453 E.03412
G1 X96.996 Y102.551 E.01252
G1 X97.434 Y102.879 E.0352
G1 X97.929 Y103.399 E.04613
G1 X98.318 Y104.009 E.04653
G1 X98.583 Y104.682 E.04653
G1 X98.713 Y105.394 E.04654
G1 X98.704 Y106.117 E.04654
G1 X98.557 Y106.826 E.04655
G1 X98.276 Y107.493 E.04655
G1 X97.872 Y108.093 E.04655
G1 X97.36 Y108.605 E.04655
G1 X96.76 Y109.009 E.04655
G1 X96.093 Y109.29 E.04655
G1 X95.384 Y109.438 E.04655
G1 X94.66 Y109.446 E.04654
G1 X94.617 Y109.438 E.00285
G1 E-.5 F1800
G17
G3 Z.3 I-.061 J.298 P1  F30000
G1 X104.573 Y111.473 Z.3
G1 Z.2
G1 E.5 F1800
;TYPE:Inner wall
G1 F6000
G1 X87.62 Y111.473 E1.09037
G1 X87.53 Y111.07 E.02655
G1 X88.074 Y110.817 E.0386
G1 X90.714 Y109.293 E.196
G1 X91.187 Y108.929 E.03841
G1 X91.405 Y108.645 E.02303
G1 X92.134 Y109.34 E.06478
G1 X92.884 Y109.819 E.05722
G1 X93.712 Y110.144 E.05722
G1 X94.588 Y110.304 E.05723
G1 X95.477 Y110.294 E.05724
G1 X96.349 Y110.112 E.05724
G1 X97.169 Y109.767 E.05724
G1 X97.907 Y109.27 E.05724
G1 X98.537 Y108.641 E.05725
G1 X99.033 Y107.902 E.05724
G1 X99.379 Y107.082 E.05724
G1 X99.561 Y106.211 E.05724
G1 X99.571 Y105.321 E.05724
G1 X99.411 Y104.446 E.05723
G1 X99.085 Y103.618 E.05722
G1 X98.607 Y102.868 E.05722
G1 X98.005 Y102.236 E.05609
G1 X97.472 Y101.837 E.04287
G1 X97.234 Y101.697 E.01777
G1 X96.678 Y101.427 E.03971
G1 X96.417 Y101.338 E.01777
G1 X95.794 Y101.171 E.04149
G1 X94.939 Y101.098 E.05516
G1 X94.655 Y101.12 E.01833
G1 X94.027 Y101.195 E.0407
G1 X93.192 Y101.455 E.05621
G1 X92.943 Y101.585 E.0181
G1 X92.401 Y101.881 E.03972
G1 X91.713 Y102.447 E.05725
G1 X91.367 Y102.866 E.03496
G1 X91.187 Y102.631 E.01901
G1 X90.714 Y102.268 E.03841
G1 X88.29 Y100.869 E.17998
G1 X88.392 Y100.487 E.02538
G1 X91.95 Y100.487 E.22884
G1 X92.714 Y100.427 E.04928
G1 X93.509 Y100.236 E.0526
G1 X94.265 Y99.923 E.05259
G1 X94.962 Y99.496 E.05259
G1 X95.545 Y98.999 E.04928
G1 X100.849 Y93.694 E.48249
G1 X111.6 Y104.445 E.97794
G1 X104.615 Y111.431 E.63538
G1 E-.35 F1800
;WIPE_START
G1 F6000
G1 X103.615 Y111.433 E-.1425
;WIPE_END
G1 E-.0075 F1800
G17
G3 Z.3 I.267 J-.146 P1  F30000
G1 X96.373 Y98.14 Z.3
G1 X95.91 Y98.382
G1 X95.271 Y98.703
G1 X94.621 Y99.026
G1 X93.944 Y99.294
G1 X93.277 Y99.52
G1 X92.6 Y99.706
G1 X91.256 Y100.008
G1 X62.841 Y100.037
G1 X62.042 Y99.792
G1 X61.257 Y99.511
G1 X60.5 Y99.192
G1 X59.743 Y98.841
G1 X59.01 Y98.442
G1 X43.25 Y85.088
G1 X43.077 Y84.942
G1 X42.893 Y84.803
G1 X42.69 Y84.678
G1 X40.649 Y83.546
G1 X40.019 Y83.211
G1 X39.525 Y83.041
G1 X38.917 Y82.986
G1 X38.271 Y83.083
G1 X37.756 Y83.367
G1 X37.045 Y84.079
G1 X29.923 Y81.848
G1 X30.123 Y81.234
G1 Z.2
G1 E.5 F1800
;TYPE:Outer wall
G1 F6000
G1 X30.085 Y81.239 E.00248
G1 X29.661 Y81.184 E.02754
G1 X26.808 Y80.419 E.18998
G1 X26.539 Y80.321 E.01837
G1 X26.275 Y80.169 E.01964
G1 X26.056 Y79.985 E.01837
G1 X17.583 Y71.512 E.77071
G1 X14.749 Y68.678 E.25775
G1 X14.566 Y68.459 E.01837
G1 X14.413 Y68.195 E.01964
G1 X14.315 Y67.927 E.01837
G1 X13.551 Y65.073 E.18998
G1 X13.495 Y64.649 E.02754
G1 X13.555 Y64.195 E.02945
G1 X13.73 Y63.772 E.02945
G1 X13.99 Y63.432 E.02754
G1 X15.867 Y61.556 E.17072
G1 X16.207 Y61.295 E.02754
G1 X16.63 Y61.12 E.02945
G1 X16.96 Y61.076 E.02144
G1 X17.084 Y61.06 E.00801
G1 X17.508 Y61.116 E.02754
G1 X20.362 Y61.88 E.18998
G1 X20.63 Y61.978 E.01837
G1 X20.894 Y62.131 E.01964
G1 X21.113 Y62.314 E.01837
G1 X32.42 Y73.621 E1.02846
G1 X32.604 Y73.84 E.01837
G1 X32.756 Y74.104 E.01964
G1 X32.854 Y74.373 E.01837
G1 X33.618 Y77.226 E.18998
G1 X33.674 Y77.65 E.02754
G1 X33.615 Y78.104 E.02945
G1 X33.439 Y78.527 E.02945
G1 X33.179 Y78.867 E.02754
G1 X31.302 Y80.744 E.17072
G1 X30.962 Y81.004 E.02754
G1 X30.539 Y81.18 E.02945
G1 X30.183 Y81.227 E.02311
G1 E-.35 F1800
;WIPE_START
G1 F6000
G1 X30.085 Y81.239 E-.01404
G1 X29.661 Y81.184 E-.06101
G1 X29.204 Y81.061 E-.06745
;WIPE_END
G1 E-.0075 F1800
G17
G3 Z.3 I-.269 J-.142 P1  F30000
G1 X29.005 Y81.438 Z.3
G1 X29.553 Y81.727
G1 X30.085 Y81.901
G1 X30.746 Y81.95
G1 X31.384 Y81.734
G1 X31.854 Y81.374
G1 X33.808 Y79.419
G1 X34.092 Y78.904
G1 X34.19 Y78.258
G1 X34.134 Y77.65
G1 X33.965 Y77.157
G1 X33.63 Y76.527
G1 X32.497 Y74.485
G1 X32.373 Y74.283
G1 X32.234 Y74.099
G1 X32.088 Y73.925
G1 X20.379 Y60.998
G1 Z.2
G1 E.5 F1800
;TYPE:Inner wall
G1 F6000
G1 X17.676 Y60.273 E.17998
G1 X17.084 Y60.195 E.03841
G1 X16.215 Y60.31 E.05637
G1 X16.4 Y59.717 E.03992
G1 X16.496 Y58.833 E.05724
G1 X16.421 Y57.946 E.05723
G1 X16.177 Y57.09 E.05723
G1 X15.773 Y56.298 E.05722
G1 X15.235 Y55.61 E.05616
G1 X14.712 Y55.135 E.04544
G1 X13.859 Y54.591 E.06508
G1 X14.544 Y54.065 E.05559
G1 X14.908 Y53.591 E.03841
G1 X16.307 Y51.168 E.17998
G1 X16.688 Y51.27 E.02538
G1 X16.688 Y54.352 E.19824
G1 X16.758 Y55.233 E.05685
G1 X16.976 Y56.143 E.06016
G1 X17.334 Y57.007 E.06016
G1 X17.823 Y57.804 E.06016
G1 X18.397 Y58.477 E.05685
G1 X20.576 Y60.656 E.19824
G1 X20.409 Y60.946 E.02152
G1 E-.35 F1800
;WIPE_START
G1 F6000
G1 X19.438 Y60.707 E-.1425
;WIPE_END
G1 E-.0075 F1800
G17
G3 Z.3 I-.071 J-.296 P1  F30000
G1 X11.836 Y62.518 Z.3
G1 Z.2
G1 E.5 F1800
;TYPE:Outer wall
G1 F6000
G1 X11.21 Y62.465 E.04042
G1 X10.514 Y62.267 E.04654
G1 X9.87 Y61.938 E.04653
G1 X9.305 Y61.496 E.04616
G1 X8.927 Y61.08 E.03609
G1 X8.541 Y60.475 E.04619
G1 X8.277 Y59.802 E.04653
M73 P1 R14
G1 X8.146 Y59.09 E.04654
G1 X8.155 Y58.366 E.04654
G1 X8.302 Y57.658 E.04655
G1 X8.583 Y56.991 E.04655
G1 X8.987 Y56.39 E.04655
G1 X9.499 Y55.878 E.04655
G1 X10.1 Y55.474 E.04655
G1 X10.767 Y55.193 E.04655
G1 X11.475 Y55.046 E.04655
G1 X12.199 Y55.037 E.04654
