; HEADER_BLOCK_START
; generated by OrcaSlicer 1.6.6 on 2023-12-22 at 00:29:24
; total layer number: 93
; HEADER_BLOCK_END

; THUMBNAIL_BLOCK_START
; THUMBNAIL_BLOCK_END

; external perimeters extrusion width = 0.48mm
; perimeters extrusion width = 0.48mm
; infill extrusion width = 0.48mm
; solid infill extrusion width = 0.48mm
; top infill extrusion width = 0.48mm
; support material extrusion width = 0.40mm
; first layer extrusion width = 0.60mm

; external perimeters extrusion width = 0.48mm
; perimeters extrusion width = 0.48mm
; infill extrusion width = 0.48mm
; solid infill extrusion width = 0.48mm
; top infill extrusion width = 0.48mm
; support material extrusion width = 0.40mm
; first layer extrusion width = 0.60mm

; EXECUTABLE_BLOCK_START
EXCLUDE_OBJECT_DEFINE NAME=KlickyNG_Cap_3mm.stl_id_0_copy_0 CENTER=28.6155,30.861 POLYGON=[[15.0985,36.7181],[15.0985,27.4363],[15.0985,25.4693],[15.0997,25.4403],[15.1184,25.351],[15.1584,25.267],[15.2177,25.1913],[15.2935,25.1262],[15.3828,25.0737],[15.4823,25.0352],[15.5887,25.0117],[15.6985,25.0038],[41.5325,25.0039],[41.6424,25.0118],[41.7488,25.0353],[41.8483,25.0738],[41.9376,25.1262],[42.0134,25.1913],[42.0726,25.267],[42.1127,25.351],[42.1314,25.4403],[42.1325,25.4693],[42.1325,36.7181],[39.4733,36.7181],[33.5277,36.7181],[15.0985,36.7181]]
EXCLUDE_OBJECT_DEFINE NAME=KlickyNG_Cap_3mm.stl_id_1_copy_0 CENTER=96.5367,80.1281 POLYGON=[[83.0197,85.9852],[83.0197,76.7034],[83.0197,74.7364],[83.0209,74.7074],[83.0396,74.6181],[83.0796,74.5341],[83.1389,74.4584],[83.2146,74.3933],[83.3039,74.3408],[83.4035,74.3024],[83.5099,74.2789],[83.6197,74.271],[109.454,74.271],[109.564,74.2789],[109.67,74.3024],[109.769,74.3409],[109.859,74.3934],[109.935,74.4584],[109.994,74.5342],[110.034,74.6182],[110.053,74.7075],[110.054,74.7365],[110.054,85.9853],[107.394,85.9853],[101.449,85.9853],[83.0197,85.9852]]
M73 P0 R11
;TYPE:Custom
M104 S0
M140 S0

print_start EXTRUDER=280 BED=110

G92 E0.0
G90
G21
M83 ; use relative distances for extrusion
; Filament gcode
SET_PRESSURE_ADVANCE ADVANCE=0.02; Override pressure advance value
M106 S0
;LAYER_CHANGE
;Z:0.3
;HEIGHT:0.3
;BEFORE_LAYER_CHANGE
;0.3
G92 E0

G1 E-.5 F1800
;AFTER_LAYER_CHANGE
;0.3
SET_VELOCITY_LIMIT ACCEL=10000
SET_VELOCITY_LIMIT SQUARE_CORNER_VELOCITY=9
; printing object KlickyNG_Cap_3mm.stl id:0 copy 0
EXCLUDE_OBJECT_START NAME=KlickyNG_Cap_3mm.stl_id_0_copy_0
G1 X27.43 Y34.868 F30000
G1 Z.3
G1 E.5 F1800
;TYPE:Inner wall
;WIDTH:0.6
G1 F6000
G1 X27.615 Y34.919 E.01193
G1 X27.578 Y35.197 E.01745
G1 X25.051 Y35.197 E.15697
G1 X25.078 Y34.868 E.02053
G1 X27.39 Y34.868 E.14366
G1 E-.5 F1800
G17
G3 Z.4 I0 J.304 P1  F30000
G1 X31.72 Y34.868 Z.4
G1 Z.3
G1 E.5 F1800
G1 F6000
G1 X31.937 Y34.868 E.01351
G1 X31.964 Y35.197 E.02053
G1 X29.609 Y35.197 E.1463
G1 X29.571 Y34.919 E.01744
G1 X29.756 Y34.868 E.01192
G1 X31.68 Y34.868 E.1195
G1 X32.441 Y34.332 F30000
G1 F6000
G1 X32.471 Y34.332 E.00186
G1 X32.47 Y34.813 E.02986
G1 X32.518 Y35.397 E.03643
G1 X32.569 Y35.733 E.02109
G1 X24.446 Y35.732 E.50469
G1 X24.498 Y35.397 E.02108
G1 X24.545 Y34.812 E.03645
G1 X24.544 Y34.332 E.02985
G1 X27.503 Y34.332 E.18382
G1 X27.96 Y34.458 E.02947
G1 X28.593 Y34.515 E.0395
G1 X29.227 Y34.458 E.03951
G1 X29.684 Y34.332 E.02947
G1 X32.401 Y34.332 E.16882
G1 E-.5 F1800
G17
G3 Z.4 I0 J-.304 P1  F30000
G1 X16.485 Y34.332 Z.4
G1 Z.3
G1 E.5 F1800
G1 F6000
G1 X16.484 Y34.813 E.02987
G1 X16.532 Y35.397 E.03642
G1 X16.583 Y35.732 E.02109
G1 X15.934 Y35.732 E.04033
G1 X15.934 Y34.332 E.08701
G1 X16.445 Y34.332 E.03173
G1 E-.5 F1800
G17
G3 Z.4 I0 J.304 P1  F30000
G1 X40.53 Y34.332 Z.4
G1 Z.3
G1 E.5 F1800
G1 F6000
G1 X41.297 Y34.332 E.04764
G1 X41.297 Y35.733 E.08701
G1 X40.432 Y35.733 E.05374
G1 X40.484 Y35.397 E.02108
G1 X40.531 Y34.812 E.03644
G1 X40.53 Y34.372 E.02737
G1 E-.5 F1800
G17
G3 Z.4 I.009 J-.304 P1  F30000
G1 X33.007 Y34.146 Z.4
G1 Z.3
G1 E.5 F1800
;TYPE:Outer wall
G1 F6000
G1 X33.006 Y34.791 E.04009
G1 X33.05 Y35.335 E.03386
G1 X33.119 Y35.783 E.0282
G1 X33.228 Y36.268 E.03088
G1 X23.787 Y36.268 E.58658
G1 X23.896 Y35.783 E.03088
G1 X23.965 Y35.335 E.02821
G1 X24.009 Y34.791 E.03386
G1 X24.008 Y34.146 E.04009
G1 X17.021 Y34.146 E.43411
G1 X17.02 Y34.791 E.04009
G1 X17.064 Y35.334 E.03385
G1 X17.133 Y35.783 E.02821
G1 X17.242 Y36.268 E.03088
G1 X15.399 Y36.268 E.11455
G1 X15.399 Y34.211 E.1278
G1 X15.663 Y33.796 E.03056
G1 X16.277 Y33.796 E.03814
G1 X27.575 Y33.796 E.70195
G1 X28.056 Y33.929 E.03097
G1 X28.593 Y33.977 E.03353
G1 X29.131 Y33.929 E.03352
G1 X29.611 Y33.796 E.03097
G1 X41.568 Y33.796 E.74287
G1 X41.833 Y34.211 E.03056
G1 X41.833 Y36.268 E.1278
G1 X39.773 Y36.268 E.12796
G1 X39.882 Y35.783 E.03088
G1 X39.951 Y35.335 E.02821
G1 X39.995 Y34.791 E.03386
G1 X39.994 Y34.146 E.04009
G1 X33.047 Y34.146 E.43162
G1 E-.5 F1800
G17
G3 Z.4 I-.075 J-.295 P1  F30000
G1 X29.325 Y35.092 Z.4
G1 Z.3
G1 E.5 F1800
;TYPE:Gap infill
;WIDTH:0.761497
G1 F6000
G1 X28.623 Y35.123 E.05677
G1 X27.862 Y35.092 E.0616
G1 E-.35 F1800
;WIPE_START
G1 F6000
G1 X28.623 Y35.123 E-.10856
G1 X28.861 Y35.113 E-.03394
;WIPE_END
G1 E-.0075 F1800
G17
G3 Z.4 I.125 J.277 P1  F30000
G1 X32.441 Y33.496 Z.4
G1 X41.717 Y34.525
G1 X40.888 Y35.465
G1 Z.3
G1 E.5 F1800
;WIDTH:0.29484
G1 F6000
G1 X40.914 Y34.6 E.02313
; stop printing object KlickyNG_Cap_3mm.stl id:0 copy 0
; printing object KlickyNG_Cap_3mm.stl id:1 copy 0
G1 E-.35 F1800
;WIPE_START
G1 F6000
G1 X40.888 Y35.465 E-.1425
;WIPE_END
G1 E-.0075 F1800
EXCLUDE_OBJECT_END NAME=KlickyNG_Cap_3mm.stl_id_0_copy_0
EXCLUDE_OBJECT_START NAME=KlickyNG_Cap_3mm.stl_id_1_copy_0
G17
G3 Z.4 I-.203 J.227 P1  F30000
G1 X95.351 Y84.135 Z.4
G1 Z.3
G1 E.5 F1800
;TYPE:Inner wall
;WIDTH:0.6
G1 F6000
G1 X95.536 Y84.186 E.01193
G1 X95.499 Y84.464 E.01745
G1 X92.972 Y84.464 E.15697
G1 X92.999 Y84.135 E.02053
G1 X95.311 Y84.135 E.14366
G1 E-.5 F1800
G17
G3 Z.4 I0 J.304 P1  F30000
G1 X99.641 Y84.135 Z.4
G1 Z.3
G1 E.5 F1800
G1 F6000
G1 X99.858 Y84.135 E.01351
G1 X99.885 Y84.464 E.02053
G1 X97.53 Y84.464 E.1463
G1 X97.493 Y84.186 E.01744
G1 X97.678 Y84.135 E.01192
G1 X99.601 Y84.135 E.1195
G1 X100.362 Y83.599 F30000
G1 F6000
G1 X100.392 Y83.599 E.00186
G1 X100.391 Y84.08 E.02986
G1 X100.439 Y84.664 E.03643
G1 X100.49 Y85 E.02109
G1 X92.367 Y85 E.50469
G1 X92.419 Y84.664 E.02108
G1 X92.466 Y84.08 E.03645
G1 X92.465 Y83.599 E.02985
G1 X95.424 Y83.599 E.18382
G1 X95.881 Y83.725 E.02947
G1 X96.514 Y83.782 E.0395
G1 X97.148 Y83.725 E.03951
G1 X97.605 Y83.599 E.02947
G1 X100.322 Y83.599 E.16882
G1 E-.5 F1800
G17
G3 Z.4 I0 J-.304 P1  F30000
G1 X84.406 Y83.599 Z.4
G1 Z.3
G1 E.5 F1800
G1 F6000
G1 X84.405 Y84.08 E.02987
G1 X84.453 Y84.664 E.03642
G1 X84.504 Y85 E.02109
G1 X83.855 Y85 E.04033
G1 X83.855 Y83.599 E.08701
G1 X84.366 Y83.599 E.03173
G1 E-.5 F1800
G17
G3 Z.4 I0 J.304 P1  F30000
G1 X108.451 Y83.599 Z.4
G1 Z.3
G1 E.5 F1800
G1 F6000
G1 X109.218 Y83.599 E.04764
G1 X109.218 Y85 E.08701
G1 X108.353 Y85 E.05374
G1 X108.405 Y84.664 E.02108
G1 X108.452 Y84.08 E.03644
G1 X108.451 Y83.639 E.02737
G1 E-.5 F1800
G17
G3 Z.4 I.009 J-.304 P1  F30000
G1 X100.928 Y83.413 Z.4
G1 Z.3
G1 E.5 F1800
;TYPE:Outer wall
G1 F6000
G1 X100.927 Y84.059 E.04009
G1 X100.971 Y84.602 E.03386
G1 X101.04 Y85.05 E.0282
G1 X101.149 Y85.535 E.03088
G1 X91.708 Y85.535 E.58658
G1 X91.817 Y85.05 E.03088
G1 X91.886 Y84.602 E.02821
G1 X91.931 Y84.058 E.03386
G1 X91.929 Y83.413 E.04009
G1 X84.942 Y83.413 E.43411
G1 X84.941 Y84.058 E.04009
G1 X84.985 Y84.602 E.03385
G1 X85.054 Y85.05 E.02821
G1 X85.163 Y85.535 E.03088
G1 X83.32 Y85.535 E.11455
G1 X83.32 Y83.478 E.1278
G1 X83.584 Y83.063 E.03056
G1 X84.198 Y83.063 E.03814
G1 X95.496 Y83.063 E.70195
G1 X95.977 Y83.196 E.03097
G1 X96.514 Y83.244 E.03353
G1 X97.052 Y83.196 E.03352
G1 X97.532 Y83.064 E.03097
G1 X109.489 Y83.064 E.74287
G1 X109.754 Y83.478 E.03056
G1 X109.754 Y85.535 E.1278
G1 X107.694 Y85.535 E.12796
G1 X107.803 Y85.05 E.03088
G1 X107.873 Y84.602 E.02821
G1 X107.917 Y84.058 E.03386
G1 X107.915 Y83.413 E.04009
G1 X100.968 Y83.413 E.43162
G1 E-.5 F1800
G17
G3 Z.4 I-.075 J-.295 P1  F30000
G1 X97.246 Y84.359 Z.4
G1 Z.3
G1 E.5 F1800
;TYPE:Gap infill
;WIDTH:0.761497
G1 F6000
G1 X96.544 Y84.391 E.05677
G1 X95.783 Y84.359 E.0616
G1 E-.35 F1800
;WIPE_START
G1 F6000
G1 X96.544 Y84.391 E-.10856
G1 X96.782 Y84.38 E-.03394
;WIPE_END
G1 E-.0075 F1800
G17
G3 Z.4 I.125 J.277 P1  F30000
G1 X100.363 Y82.764 Z.4
G1 X109.638 Y83.792
G1 X108.809 Y84.732
G1 Z.3
G1 E.5 F1800
;WIDTH:0.29484
G1 F6000
G1 X108.835 Y83.867 E.02313
; stop printing object KlickyNG_Cap_3mm.stl id:1 copy 0
M106 S53
;LAYER_CHANGE
;Z:0.4
;HEIGHT:0.1
;BEFORE_LAYER_CHANGE
;0.4
G92 E0

G1 E-.35 F1800
;WIPE_START
G1 F6000
G1 X108.809 Y84.732 E-.1425
;WIPE_END
G1 E-.0075 F1800
EXCLUDE_OBJECT_END NAME=KlickyNG_Cap_3mm.stl_id_1_copy_0
;AFTER_LAYER_CHANGE
;0.4
M140 S110 ; set bed temperature
; printing object KlickyNG_Cap_3mm.stl id:0 copy 0
SET_VELOCITY_LIMIT SQUARE_CORNER_VELOCITY=12
EXCLUDE_OBJECT_START NAME=KlickyNG_Cap_3mm.stl_id_0_copy_0
G17
G3 Z.4 I.167 J-.254 P1  F30000
G1 X32.151 Y34.412 Z.4
G1 E.5 F1800
SET_VELOCITY_LIMIT SQUARE_CORNER_VELOCITY=7
;TYPE:Inner wall
;WIDTH:0.48
G1 F12000
G1 X32.151 Y35.211 E.01417
G1 X24.864 Y35.211 E.12919
G1 X24.865 Y34.412 E.01417
G1 X26.897 Y34.412 E.03604
G1 X27.082 Y34.506 E.00367
G1 X27.912 Y34.822 E.01574
G1 X28.237 Y34.89 E.00589
G1 X28.588 Y34.916 E.00624
G1 X28.945 Y34.892 E.00635
G1 X29.306 Y34.815 E.00654
G1 X30.118 Y34.499 E.01546
G1 X30.29 Y34.412 E.00341
G1 X32.111 Y34.412 E.03228
SET_VELOCITY_LIMIT SQUARE_CORNER_VELOCITY=12
G1 X32.648 Y33.953 F30000
SET_VELOCITY_LIMIT SQUARE_CORNER_VELOCITY=7
G1 F12000
G1 X32.609 Y34.407 E.00808
G1 X32.61 Y35.057 E.01151
G1 X32.667 Y35.67 E.01091
G1 X24.349 Y35.67 E.14747
G1 X24.406 Y35.056 E.01092
G1 X24.406 Y34.407 E.01151
G1 X24.367 Y33.953 E.00807
G1 X27.008 Y33.953 E.04683
G1 X27.264 Y34.085 E.0051
G1 X28.035 Y34.38 E.01463
G1 X28.301 Y34.435 E.00481
G1 X28.589 Y34.456 E.00513
G1 X28.881 Y34.436 E.00519
G1 X29.174 Y34.374 E.00531
G1 X29.931 Y34.08 E.01439
G1 X30.18 Y33.953 E.00495
G1 X32.608 Y33.953 E.04305
SET_VELOCITY_LIMIT SQUARE_CORNER_VELOCITY=12
G1 E-.5 F1800
G17
G3 Z.5 I0 J-.304 P1  F30000
G1 X16.662 Y33.953 Z.5
G1 Z.4
G1 E.5 F1800
SET_VELOCITY_LIMIT SQUARE_CORNER_VELOCITY=7
G1 F12000
G1 X16.623 Y34.407 E.00808
G1 X16.624 Y35.057 E.01151
G1 X16.681 Y35.67 E.01091
G1 X15.797 Y35.67 E.01567
G1 X15.797 Y34.086 E.02808
G1 X15.882 Y33.953 E.00279
G1 X16.622 Y33.953 E.01313
SET_VELOCITY_LIMIT SQUARE_CORNER_VELOCITY=12
G1 E-.5 F1800
G17
G3 Z.5 I0 J.304 P1  F30000
M73 P1 R11
G1 X40.353 Y33.953 Z.5
G1 Z.4
G1 E.5 F1800
SET_VELOCITY_LIMIT SQUARE_CORNER_VELOCITY=7
G1 F12000
G1 X41.349 Y33.953 E.01767
G1 X41.434 Y34.086 E.00279
G1 X41.434 Y35.67 E.02808
G1 X40.335 Y35.67 E.01948
G1 X40.392 Y35.056 E.01092
G1 X40.392 Y34.407 E.01151
G1 X40.356 Y33.993 E.00737
SET_VELOCITY_LIMIT SQUARE_CORNER_VELOCITY=12
G1 E-.5 F1800
G17
G3 Z.5 I-.001 J-.304 P1  F30000
G1 X33.104 Y34.006 Z.5
G1 Z.4
G1 E.5 F1800
SET_VELOCITY_LIMIT SQUARE_CORNER_VELOCITY=7
;TYPE:Outer wall
G1 F12000
G1 X33.068 Y34.427 E.00749
G1 X33.068 Y35.035 E.01078
G1 X33.124 Y35.634 E.01067
G1 X33.198 Y36.048 E.00746
G1 X33.157 Y36.128 E.00159
G1 X23.858 Y36.128 E.16487
G1 X23.817 Y36.049 E.00158
G1 X23.892 Y35.634 E.00748
G1 X23.947 Y35.035 E.01066
G1 X23.947 Y34.427 E.01078
G1 X23.911 Y34.006 E.00749
G1 X17.118 Y34.006 E.12044
G1 X17.082 Y34.427 E.00749
G1 X17.082 Y35.035 E.01078
G1 X17.138 Y35.634 E.01067
G1 X17.212 Y36.048 E.00746
G1 X17.172 Y36.128 E.00159
G1 X15.339 Y36.128 E.0325
G1 F9055.993
G1 X15.339 Y33.952 E.03858
G1 F3000
G1 X15.629 Y33.496 E.00958
G1 F2984.198
G1 X15.63 Y33.495 E.00003
G1 X17.315 Y33.495 E.02987
G1 X18.036 Y33.495 E.01278
G1 X26.397 Y33.495 E.14824
G1 X27.119 Y33.495 E.0128
G1 X27.122 Y33.496 E.00006
G1 F3000
G1 X27.446 Y33.663 E.00646
M106 S53
G1 F12000
G1 X28.158 Y33.937 E.01353
G1 X28.365 Y33.98 E.00375
G1 X28.591 Y33.997 E.00402
G1 X28.818 Y33.981 E.00403
G1 X29.043 Y33.933 E.00408
G1 X29.743 Y33.661 E.01331
G1 F3000
G1 X30.067 Y33.496 E.00645
G1 F2984.181
G1 X30.07 Y33.495 E.00006
G1 X30.791 Y33.495 E.01278
G1 X40.879 Y33.495 E.17885
G1 X41.601 Y33.495 E.0128
G1 X41.602 Y33.496 E.00003
G1 F3000
G1 X41.893 Y33.952 E.00959
G1 F9055.748
G1 X41.893 Y36.128 E.03858
M106 S53
G1 F12000
G1 X39.844 Y36.128 E.03633
G1 X39.803 Y36.049 E.00158
G1 X39.878 Y35.634 E.00748
G1 X39.933 Y35.035 E.01066
G1 X39.933 Y34.427 E.01078
G1 X39.897 Y34.006 E.00749
G1 X33.144 Y34.006 E.11973
SET_VELOCITY_LIMIT SQUARE_CORNER_VELOCITY=12
G1 E-.5 F1800
G17
G3 Z.5 I-.167 J-.254 P1  F30000
G1 X31.922 Y34.811 Z.5
G1 Z.4
G1 E.5 F1800
SET_VELOCITY_LIMIT SQUARE_CORNER_VELOCITY=9
;TYPE:Gap infill
;WIDTH:0.362105
G1 F6000
G1 X29.948 Y34.811 E.026
SET_VELOCITY_LIMIT SQUARE_CORNER_VELOCITY=12
G1 X27.255 Y34.811 F30000
SET_VELOCITY_LIMIT SQUARE_CORNER_VELOCITY=9
;WIDTH:0.362097
G1 F6000
G1 X25.094 Y34.811 E.02847
SET_VELOCITY_LIMIT SQUARE_CORNER_VELOCITY=12
G1 E-.35 F1800
;WIPE_START
G1 F6000
G1 X26.094 Y34.811 E-.1425
;WIPE_END
G1 E-.0075 F1800
G17
G3 Z.5 I.07 J-.296 P1  F30000
G1 X23.691 Y34.246 Z.5
G1 X17.338 Y34.246
G1 X16.227 Y35.44
G1 Z.4
G1 E.5 F1800
SET_VELOCITY_LIMIT SQUARE_CORNER_VELOCITY=9
;WIDTH:0.389644
G1 F6000
G1 X16.21 Y35.068 E.00531
G1 X16.219 Y34.183 E.0126
SET_VELOCITY_LIMIT SQUARE_CORNER_VELOCITY=12
G1 E-.5 F1800
G17
G3 Z.5 I0 J.304 P1  F30000
G1 X40.913 Y34.183 Z.5
G1 Z.4
G1 E.5 F1800
SET_VELOCITY_LIMIT SQUARE_CORNER_VELOCITY=9
;WIDTH:0.605289
G1 F6000
G1 X40.896 Y35.44 E.02839
; stop printing object KlickyNG_Cap_3mm.stl id:0 copy 0
; printing object KlickyNG_Cap_3mm.stl id:1 copy 0
SET_VELOCITY_LIMIT SQUARE_CORNER_VELOCITY=12
G1 E-.35 F1800
;WIPE_START
G1 F6000
G1 X40.91 Y34.44 E-.1425
;WIPE_END
G1 E-.0075 F1800
EXCLUDE_OBJECT_END NAME=KlickyNG_Cap_3mm.stl_id_0_copy_0
EXCLUDE_OBJECT_START NAME=KlickyNG_Cap_3mm.stl_id_1_copy_0
G17
G3 Z.5 I-.195 J.234 P1  F30000
G1 X100.072 Y83.679 Z.5
G1 Z.4
G1 E.5 F1800
SET_VELOCITY_LIMIT SQUARE_CORNER_VELOCITY=7
;TYPE:Inner wall
;WIDTH:0.48
G1 F12000
G1 X100.072 Y84.478 E.01417
G1 X92.785 Y84.478 E.12919
G1 X92.786 Y83.679 E.01417
G1 X94.819 Y83.679 E.03604
G1 X95.003 Y83.774 E.00367
G1 X95.833 Y84.089 E.01574
G1 X96.158 Y84.157 E.00589
G1 X96.509 Y84.183 E.00624
G1 X96.866 Y84.159 E.00635
G1 X97.227 Y84.082 E.00654
G1 X98.04 Y83.766 E.01546
G1 X98.211 Y83.679 E.00341
G1 X100.032 Y83.679 E.03228
SET_VELOCITY_LIMIT SQUARE_CORNER_VELOCITY=12
G1 X100.569 Y83.22 F30000
SET_VELOCITY_LIMIT SQUARE_CORNER_VELOCITY=7
G1 F12000
G1 X100.53 Y83.675 E.00808
G1 X100.531 Y84.324 E.01151
G1 X100.588 Y84.937 E.01091
G1 X92.27 Y84.937 E.14747
G1 X92.327 Y84.324 E.01092
G1 X92.327 Y83.674 E.01151
G1 X92.288 Y83.22 E.00807
G1 X94.929 Y83.22 E.04683
G1 X95.185 Y83.352 E.0051
G1 X95.956 Y83.647 E.01463
G1 X96.222 Y83.702 E.00481
G1 X96.51 Y83.724 E.00513
G1 X96.803 Y83.704 E.00519
G1 X97.095 Y83.641 E.00531
G1 X97.852 Y83.347 E.01439
G1 X98.101 Y83.22 E.00495
G1 X100.529 Y83.22 E.04305
SET_VELOCITY_LIMIT SQUARE_CORNER_VELOCITY=12
G1 E-.5 F1800
G17
G3 Z.5 I0 J-.304 P1  F30000
G1 X84.583 Y83.22 Z.5
G1 Z.4
G1 E.5 F1800
SET_VELOCITY_LIMIT SQUARE_CORNER_VELOCITY=7
G1 F12000
G1 X84.544 Y83.674 E.00808
G1 X84.545 Y84.324 E.01151
G1 X84.602 Y84.937 E.01091
G1 X83.718 Y84.937 E.01567
G1 X83.718 Y83.353 E.02808
G1 X83.803 Y83.22 E.00279
G1 X84.543 Y83.22 E.01313
SET_VELOCITY_LIMIT SQUARE_CORNER_VELOCITY=12
G1 E-.5 F1800
G17
G3 Z.5 I0 J.304 P1  F30000
G1 X108.274 Y83.22 Z.5
G1 Z.4
G1 E.5 F1800
SET_VELOCITY_LIMIT SQUARE_CORNER_VELOCITY=7
G1 F12000
G1 X109.271 Y83.22 E.01767
G1 X109.355 Y83.353 E.00279
G1 X109.355 Y84.937 E.02808
G1 X108.256 Y84.937 E.01948
G1 X108.313 Y84.324 E.01092
G1 X108.313 Y83.674 E.01151
G1 X108.277 Y83.26 E.00737
SET_VELOCITY_LIMIT SQUARE_CORNER_VELOCITY=12
G1 E-.5 F1800
G17
G3 Z.5 I-.001 J-.304 P1  F30000
G1 X101.025 Y83.273 Z.5
G1 Z.4
G1 E.5 F1800
SET_VELOCITY_LIMIT SQUARE_CORNER_VELOCITY=7
;TYPE:Outer wall
G1 F12000
G1 X100.989 Y83.694 E.00749
G1 X100.989 Y84.302 E.01078
G1 X101.045 Y84.901 E.01067
G1 X101.119 Y85.316 E.00747
G1 X101.079 Y85.395 E.00157
G1 X91.779 Y85.395 E.16488
