; HEADER_BLOCK_START
; generated by OrcaSlicer 1.6.6 on 2023-12-22 at 01:33:50
; total layer number: 47
; HEADER_BLOCK_END

; THUMBNAIL_BLOCK_START
; THUMBNAIL_BLOCK_END

; external perimeters extrusion width = 0.48mm
; perimeters extrusion width = 0.48mm
; infill extrusion width = 0.48mm
; solid infill extrusion width = 0.48mm
; top infill extrusion width = 0.48mm
; support material extrusion width = 0.40mm
; first layer extrusion width = 0.60mm

; external perimeters extrusion width = 0.48mm
; perimeters extrusion width = 0.48mm
; infill extrusion width = 0.48mm
; solid infill extrusion width = 0.48mm
; top infill extrusion width = 0.48mm
; support material extrusion width = 0.40mm
; first layer extrusion width = 0.60mm

; external perimeters extrusion width = 0.48mm
; perimeters extrusion width = 0.48mm
; infill extrusion width = 0.48mm
; solid infill extrusion width = 0.48mm
; top infill extrusion width = 0.48mm
; support material extrusion width = 0.40mm
; first layer extrusion width = 0.60mm

; external perimeters extrusion width = 0.48mm
; perimeters extrusion width = 0.48mm
; infill extrusion width = 0.48mm
; solid infill extrusion width = 0.48mm
; top infill extrusion width = 0.48mm
; support material extrusion width = 0.40mm
; first layer extrusion width = 0.60mm

; EXECUTABLE_BLOCK_START
EXCLUDE_OBJECT_DEFINE NAME=KlickyNG_Cap_3mm.stl_id_0_copy_0 CENTER=94.798,105.515 POLYGON=[[81.2809,110.907],[81.281,99.6579],[83.9402,99.6579],[89.8858,99.6579],[108.315,99.6579],[108.315,108.94],[108.315,110.907],[108.314,110.936],[108.295,111.025],[108.255,111.109],[108.196,111.185],[108.12,111.25],[108.031,111.302],[107.931,111.341],[107.825,111.364],[107.715,111.372],[81.881,111.372],[81.7711,111.364],[81.6647,111.341],[81.5652,111.302],[81.4759,111.25],[81.4001,111.185],[81.3408,111.109],[81.3008,111.025],[81.2821,110.936],[81.2809,110.907]]
EXCLUDE_OBJECT_DEFINE NAME=KlickyNG_Cap_3mm.stl_id_1_copy_0 CENTER=25.836,18.757 POLYGON=[[12.319,24.1487],[12.319,12.8999],[14.9782,12.8999],[20.9238,12.8999],[39.353,12.8999],[39.353,22.1817],[39.353,24.1487],[39.3518,24.1777],[39.3331,24.267],[39.2931,24.351],[39.2338,24.4267],[39.158,24.4918],[39.0687,24.5443],[38.9692,24.5828],[38.8628,24.6062],[38.753,24.6142],[12.919,24.6141],[12.8091,24.6062],[12.7027,24.5827],[12.6032,24.5442],[12.5139,24.4918],[12.4381,24.4267],[12.3789,24.351],[12.3388,24.267],[12.3201,24.1777],[12.319,24.1487]]
EXCLUDE_OBJECT_DEFINE NAME=KlickyNG_Cap_3mm.stl_id_2_copy_0 CENTER=98.1004,18.4831 POLYGON=[[84.5834,23.8747],[84.5834,12.6259],[87.2426,12.6259],[93.1882,12.6259],[111.617,12.626],[111.617,21.9078],[111.617,23.8748],[111.616,23.9038],[111.598,23.9931],[111.558,24.0771],[111.498,24.1528],[111.422,24.2179],[111.333,24.2704],[111.234,24.3088],[111.127,24.3323],[111.017,24.3402],[85.1834,24.3402],[85.0735,24.3323],[84.9672,24.3088],[84.8676,24.2703],[84.7783,24.2178],[84.7025,24.1528],[84.6433,24.077],[84.6032,23.993],[84.5846,23.9037],[84.5834,23.8747]]
EXCLUDE_OBJECT_DEFINE NAME=KlickyNG_Cap_3mm.stl_id_3_copy_0 CENTER=25.1009,106.94 POLYGON=[[11.5839,112.332],[11.5839,101.083],[14.2431,101.083],[20.1887,101.083],[38.6179,101.083],[38.6179,110.365],[38.6179,112.332],[38.6167,112.361],[38.598,112.45],[38.558,112.534],[38.4988,112.61],[38.423,112.675],[38.3337,112.727],[38.2341,112.766],[38.1277,112.789],[38.0179,112.797],[12.1839,112.797],[12.0741,112.789],[11.9677,112.766],[11.8681,112.727],[11.7788,112.675],[11.703,112.61],[11.6438,112.534],[11.6038,112.45],[11.5851,112.361],[11.5839,112.332]]
M73 P0 R12
;TYPE:Custom
M104 S0
M140 S0

print_start EXTRUDER=280 BED=110

G92 E0.0
G90
G21
M83 ; use relative distances for extrusion
; Filament gcode
SET_PRESSURE_ADVANCE ADVANCE=0.02; Override pressure advance value
M106 S0
;LAYER_CHANGE
;Z:0.2
;HEIGHT:0.2
;BEFORE_LAYER_CHANGE
;0.2
G92 E0

G1 E-.5 F1800
;AFTER_LAYER_CHANGE
;0.2
SET_VELOCITY_LIMIT ACCEL=10000
SET_VELOCITY_LIMIT SQUARE_CORNER_VELOCITY=9
; printing object KlickyNG_Cap_3mm.stl id:1 copy 0
EXCLUDE_OBJECT_START NAME=KlickyNG_Cap_3mm.stl_id_1_copy_0
G1 X22.093 Y15.204 F30000
G1 Z.2
G1 E.5 F1800
;TYPE:Inner wall
;WIDTH:0.6
G1 F6000
G1 X22.008 Y15.204 E.00366
G1 X21.968 Y14.364 E.03624
G1 X21.894 Y13.857 E.02207
G1 X29.994 Y13.857 E.34893
G1 X29.92 Y14.364 E.02207
G1 X29.88 Y15.204 E.03623
G1 X26.767 Y15.204 E.13409
G1 X26.424 Y15.125 E.01519
G1 X25.867 Y15.08 E.02407
G1 X25.294 Y15.124 E.02477
G1 X24.949 Y15.204 E.01524
G1 X22.133 Y15.204 E.12131
G1 E-.5 F1800
G17
G3 Z.3 I0 J.304 P1  F30000
G1 X38.496 Y15.204 Z.3
G1 Z.2
G1 E.5 F1800
G1 F6000
G1 X37.994 Y15.204 E.02163
G1 X37.954 Y14.364 E.03624
G1 X37.88 Y13.857 E.02207
G1 X38.496 Y13.857 E.02653
G1 X38.496 Y15.164 E.05631
G1 E-.5 F1800
G17
G3 Z.3 I0 J-.304 P1  F30000
G1 X13.894 Y15.204 Z.3
G1 Z.2
G1 E.5 F1800
G1 F6000
G1 X13.176 Y15.204 E.03093
G1 X13.176 Y13.857 E.05804
G1 X14.008 Y13.857 E.03583
G1 X13.934 Y14.364 E.02207
G1 X13.896 Y15.164 E.03451
G1 E-.5 F1800
G17
G3 Z.3 I-.01 J.304 P1  F30000
G1 X21.461 Y15.422 Z.3
G1 Z.2
G1 E.5 F1800
;TYPE:Outer wall
G1 F6000
G1 X21.413 Y14.417 E.04332
G1 X21.346 Y13.958 E.02001
G1 X21.191 Y13.3 E.02912
G1 X30.697 Y13.3 E.40953
G1 X30.542 Y13.958 E.02911
G1 X30.475 Y14.417 E.02002
G1 X30.427 Y15.422 E.04332
G1 X37.447 Y15.422 E.30238
G1 X37.399 Y14.417 E.04332
G1 X37.332 Y13.958 E.02001
G1 X37.177 Y13.3 E.02912
G1 X39.053 Y13.3 E.08083
G1 X39.053 Y15.347 E.08817
G1 X38.788 Y15.761 E.02119
G1 X26.704 Y15.761 E.52059
G1 X26.338 Y15.677 E.01617
G1 X25.866 Y15.639 E.02041
G1 X25.378 Y15.677 E.02107
G1 X25.013 Y15.761 E.01618
G1 X12.883 Y15.761 E.52251
G1 X12.619 Y15.346 E.02119
G1 X12.619 Y13.3 E.08816
G1 X14.711 Y13.3 E.09013
G1 X14.556 Y13.958 E.02911
G1 X14.489 Y14.417 E.02001
G1 X14.441 Y15.422 E.04332
G1 X21.421 Y15.422 E.30065
G1 E-.5 F1800
G17
G3 Z.3 I.222 J.208 P1  F30000
G1 X22.255 Y14.531 Z.3
G1 Z.2
G1 E.5 F1800
;TYPE:Gap infill
;WIDTH:0.831209
G1 F6000
G1 X24.872 Y14.531 E.15955
G1 X25.021 Y14.514 E.00913
;WIDTH:0.765093
G1 X25.17 Y14.497 E.00837
;WIDTH:0.756881
G1 X25.223 Y14.492 E.00297
;WIDTH:0.73187
G1 X25.841 Y14.468 E.03295
G1 X26.495 Y14.493 E.03485
;WIDTH:0.790521
G1 X26.696 Y14.514 E.01166
;WIDTH:0.833049
G1 X26.844 Y14.531 E.00911
;WIDTH:0.833049
G1 X29.633 Y14.531 E.17042
G1 E-.35 F1800
;WIPE_START
G1 F6000
G1 X28.633 Y14.531 E-.1425
;WIPE_END
G1 E-.0075 F1800
G17
G3 Z.3 I-.024 J-.303 P1  F30000
G1 X21.146 Y15.122 Z.3
G1 X14.756 Y15.122
G1 X13.57 Y14.135
G1 Z.2
G1 E.5 F1800
;WIDTH:0.247775
G1 F6000
G1 X13.541 Y14.926 E.01252
; stop printing object KlickyNG_Cap_3mm.stl id:1 copy 0
; printing object KlickyNG_Cap_3mm.stl id:2 copy 0
G1 E-.35 F1800
;WIPE_START
G1 F6000
G1 X13.57 Y14.135 E-.1425
;WIPE_END
G1 E-.0075 F1800
EXCLUDE_OBJECT_END NAME=KlickyNG_Cap_3mm.stl_id_1_copy_0
EXCLUDE_OBJECT_START NAME=KlickyNG_Cap_3mm.stl_id_2_copy_0
G17
G3 Z.3 I-.003 J.304 P1  F30000
G1 X94.357 Y14.93 Z.3
G1 Z.2
G1 E.5 F1800
;TYPE:Inner wall
;WIDTH:0.6
G1 F6000
G1 X94.272 Y14.93 E.00366
G1 X94.232 Y14.09 E.03624
G1 X94.159 Y13.583 E.02207
G1 X102.258 Y13.583 E.34893
G1 X102.184 Y14.09 E.02207
G1 X102.145 Y14.93 E.03623
G1 X99.032 Y14.93 E.13409
G1 X98.688 Y14.851 E.01519
G1 X98.131 Y14.806 E.02407
G1 X97.558 Y14.851 E.02477
G1 X97.213 Y14.93 E.01524
G1 X94.397 Y14.93 E.12131
G1 E-.5 F1800
G17
G3 Z.3 I0 J.304 P1  F30000
G1 X110.76 Y14.93 Z.3
G1 Z.2
G1 E.5 F1800
G1 F6000
G1 X110.258 Y14.93 E.02163
G1 X110.218 Y14.09 E.03624
G1 X110.144 Y13.583 E.02207
G1 X110.76 Y13.583 E.02653
G1 X110.76 Y14.89 E.05631
G1 E-.5 F1800
G17
G3 Z.3 I0 J-.304 P1  F30000
G1 X86.159 Y14.93 Z.3
G1 Z.2
G1 E.5 F1800
G1 F6000
G1 X85.44 Y14.93 E.03093
G1 X85.44 Y13.583 E.05804
G1 X86.272 Y13.583 E.03583
G1 X86.198 Y14.09 E.02207
G1 X86.16 Y14.89 E.03451
G1 E-.5 F1800
G17
G3 Z.3 I-.01 J.304 P1  F30000
G1 X93.725 Y15.148 Z.3
G1 Z.2
G1 E.5 F1800
;TYPE:Outer wall
G1 F6000
G1 X93.677 Y14.143 E.04332
G1 X93.61 Y13.684 E.02001
G1 X93.455 Y13.026 E.02912
G1 X102.962 Y13.026 E.40953
G1 X102.806 Y13.684 E.02911
G1 X102.74 Y14.143 E.02002
G1 X102.692 Y15.148 E.04332
G1 X109.711 Y15.148 E.30238
G1 X109.663 Y14.143 E.04332
G1 X109.596 Y13.684 E.02001
G1 X109.441 Y13.026 E.02912
G1 X111.317 Y13.026 E.08083
G1 X111.317 Y15.073 E.08817
G1 X111.053 Y15.487 E.02119
G1 X98.968 Y15.487 E.52059
G1 X98.603 Y15.403 E.01617
G1 X98.13 Y15.365 E.02041
G1 X97.643 Y15.403 E.02107
G1 X97.277 Y15.487 E.01618
G1 X85.148 Y15.487 E.52251
G1 X84.883 Y15.073 E.02119
G1 X84.883 Y13.026 E.08816
G1 X86.976 Y13.026 E.09013
G1 X86.82 Y13.684 E.02911
G1 X86.754 Y14.143 E.02001
G1 X86.706 Y15.148 E.04332
G1 X93.685 Y15.148 E.30065
G1 E-.5 F1800
G17
G3 Z.3 I.222 J.208 P1  F30000
G1 X94.519 Y14.257 Z.3
G1 Z.2
G1 E.5 F1800
;TYPE:Gap infill
;WIDTH:0.831209
G1 F6000
G1 X97.137 Y14.257 E.15955
G1 X97.285 Y14.24 E.00913
;WIDTH:0.765093
G1 X97.434 Y14.223 E.00837
;WIDTH:0.756881
G1 X97.488 Y14.219 E.00297
;WIDTH:0.73187
G1 X98.106 Y14.195 E.03295
G1 X98.76 Y14.219 E.03485
;WIDTH:0.790521
G1 X98.96 Y14.24 E.01166
;WIDTH:0.833049
G1 X99.108 Y14.257 E.00911
;WIDTH:0.833049
G1 X101.898 Y14.257 E.17042
G1 E-.35 F1800
;WIPE_START
G1 F6000
G1 X100.898 Y14.257 E-.1425
;WIPE_END
G1 E-.0075 F1800
G17
G3 Z.3 I-.024 J-.303 P1  F30000
G1 X93.41 Y14.848 Z.3
G1 X87.02 Y14.848
G1 X85.834 Y13.862
G1 Z.2
G1 E.5 F1800
;WIDTH:0.247775
G1 F6000
G1 X85.806 Y14.652 E.01252
; stop printing object KlickyNG_Cap_3mm.stl id:2 copy 0
; printing object KlickyNG_Cap_3mm.stl id:0 copy 0
G1 E-.35 F1800
;WIPE_START
G1 F6000
G1 X85.834 Y13.862 E-.1425
;WIPE_END
G1 E-.0075 F1800
EXCLUDE_OBJECT_END NAME=KlickyNG_Cap_3mm.stl_id_2_copy_0
EXCLUDE_OBJECT_START NAME=KlickyNG_Cap_3mm.stl_id_0_copy_0
G17
G3 Z.3 I-.304 J.018 P1  F30000
G1 X91.055 Y101.962 Z.3
G1 Z.2
G1 E.5 F1800
;TYPE:Inner wall
;WIDTH:0.6
G1 F6000
G1 X90.97 Y101.962 E.00366
G1 X90.93 Y101.122 E.03624
G1 X90.856 Y100.615 E.02207
G1 X98.956 Y100.615 E.34893
G1 X98.882 Y101.122 E.02207
G1 X98.842 Y101.962 E.03623
G1 X95.729 Y101.962 E.13409
G1 X95.386 Y101.883 E.01519
G1 X94.829 Y101.838 E.02407
G1 X94.256 Y101.882 E.02477
G1 X93.911 Y101.962 E.01524
G1 X91.095 Y101.962 E.12131
G1 E-.5 F1800
G17
G3 Z.3 I0 J.304 P1  F30000
G1 X107.458 Y101.962 Z.3
G1 Z.2
G1 E.5 F1800
G1 F6000
G1 X106.956 Y101.962 E.02163
G1 X106.916 Y101.122 E.03624
G1 X106.842 Y100.615 E.02207
G1 X107.458 Y100.615 E.02653
G1 X107.458 Y101.922 E.05631
G1 E-.5 F1800
G17
G3 Z.3 I0 J-.304 P1  F30000
G1 X82.856 Y101.962 Z.3
G1 Z.2
G1 E.5 F1800
G1 F6000
G1 X82.138 Y101.962 E.03093
G1 X82.138 Y100.615 E.05804
G1 X82.97 Y100.615 E.03583
G1 X82.896 Y101.122 E.02207
G1 X82.858 Y101.922 E.03451
G1 E-.5 F1800
G17
G3 Z.3 I-.01 J.304 P1  F30000
G1 X90.423 Y102.18 Z.3
G1 Z.2
G1 E.5 F1800
;TYPE:Outer wall
G1 F6000
G1 X90.375 Y101.175 E.04332
G1 X90.308 Y100.716 E.02001
G1 X90.153 Y100.058 E.02912
G1 X99.659 Y100.058 E.40953
G1 X99.504 Y100.716 E.02911
G1 X99.437 Y101.175 E.02002
G1 X99.389 Y102.18 E.04332
G1 X106.409 Y102.18 E.30238
G1 X106.361 Y101.175 E.04332
G1 X106.294 Y100.716 E.02001
G1 X106.139 Y100.058 E.02912
G1 X108.015 Y100.058 E.08083
G1 X108.015 Y102.104 E.08817
G1 X107.75 Y102.519 E.02119
G1 X95.666 Y102.519 E.52059
G1 X95.3 Y102.435 E.01617
G1 X94.828 Y102.397 E.02041
G1 X94.34 Y102.435 E.02107
G1 X93.975 Y102.519 E.01618
G1 X81.845 Y102.519 E.52251
G1 X81.581 Y102.104 E.02119
G1 X81.581 Y100.058 E.08816
G1 X83.673 Y100.058 E.09013
G1 X83.518 Y100.716 E.02911
G1 X83.451 Y101.175 E.02001
G1 X83.403 Y102.18 E.04332
G1 X90.383 Y102.18 E.30065
G1 E-.5 F1800
G17
G3 Z.3 I.222 J.208 P1  F30000
G1 X91.217 Y101.289 Z.3
G1 Z.2
G1 E.5 F1800
;TYPE:Gap infill
;WIDTH:0.831209
G1 F6000
G1 X93.834 Y101.289 E.15955
G1 X93.983 Y101.272 E.00913
;WIDTH:0.765093
G1 X94.132 Y101.255 E.00837
;WIDTH:0.756881
G1 X94.185 Y101.25 E.00297
;WIDTH:0.73187
G1 X94.803 Y101.226 E.03295
G1 X95.457 Y101.251 E.03485
;WIDTH:0.790521
G1 X95.658 Y101.272 E.01166
;WIDTH:0.833049
G1 X95.806 Y101.289 E.00911
;WIDTH:0.833049
G1 X98.595 Y101.289 E.17042
G1 E-.35 F1800
;WIPE_START
G1 F6000
G1 X97.595 Y101.289 E-.1425
;WIPE_END
G1 E-.0075 F1800
G17
G3 Z.3 I-.024 J-.303 P1  F30000
G1 X90.108 Y101.88 Z.3
G1 X83.718 Y101.88
G1 X82.532 Y100.893
G1 Z.2
G1 E.5 F1800
;WIDTH:0.247775
G1 F6000
G1 X82.503 Y101.684 E.01252
; stop printing object KlickyNG_Cap_3mm.stl id:0 copy 0
; printing object KlickyNG_Cap_3mm.stl id:3 copy 0
G1 E-.35 F1800
;WIPE_START
G1 F6000
G1 X82.532 Y100.893 E-.1425
;WIPE_END
G1 E-.0075 F1800
EXCLUDE_OBJECT_END NAME=KlickyNG_Cap_3mm.stl_id_0_copy_0
EXCLUDE_OBJECT_START NAME=KlickyNG_Cap_3mm.stl_id_3_copy_0
G17
G3 Z.3 I-.012 J-.304 P1  F30000
M73 P1 R12
G1 X21.358 Y103.387 Z.3
G1 Z.2
G1 E.5 F1800
;TYPE:Inner wall
;WIDTH:0.6
G1 F6000
G1 X21.273 Y103.387 E.00366
G1 X21.233 Y102.547 E.03624
G1 X21.159 Y102.04 E.02207
G1 X29.259 Y102.04 E.34893
G1 X29.185 Y102.547 E.02207
G1 X29.145 Y103.387 E.03623
G1 X26.032 Y103.387 E.13409
G1 X25.689 Y103.308 E.01519
G1 X25.132 Y103.263 E.02407
G1 X24.559 Y103.307 E.02477
G1 X24.214 Y103.387 E.01524
G1 X21.398 Y103.387 E.12131
G1 E-.5 F1800
G17
G3 Z.3 I0 J.304 P1  F30000
G1 X37.761 Y103.387 Z.3
G1 Z.2
G1 E.5 F1800
G1 F6000
G1 X37.259 Y103.387 E.02163
G1 X37.219 Y102.547 E.03624
G1 X37.145 Y102.04 E.02207
G1 X37.761 Y102.04 E.02653
G1 X37.761 Y103.347 E.05631
G1 E-.5 F1800
G17
G3 Z.3 I0 J-.304 P1  F30000
G1 X13.159 Y103.387 Z.3
G1 Z.2
G1 E.5 F1800
G1 F6000
G1 X12.441 Y103.387 E.03093
G1 X12.441 Y102.04 E.05804
G1 X13.273 Y102.04 E.03583
G1 X13.199 Y102.547 E.02207
G1 X13.161 Y103.347 E.03451
G1 E-.5 F1800
G17
G3 Z.3 I-.01 J.304 P1  F30000
G1 X20.726 Y103.605 Z.3
G1 Z.2
G1 E.5 F1800
;TYPE:Outer wall
G1 F6000
G1 X20.678 Y102.6 E.04332
G1 X20.611 Y102.141 E.02001
G1 X20.456 Y101.483 E.02912
G1 X29.962 Y101.483 E.40953
G1 X29.807 Y102.141 E.02911
G1 X29.74 Y102.6 E.02002
G1 X29.692 Y103.605 E.04332
G1 X36.712 Y103.605 E.30238
G1 X36.664 Y102.6 E.04332
G1 X36.597 Y102.141 E.02001
G1 X36.442 Y101.483 E.02912
G1 X38.318 Y101.483 E.08083
G1 X38.318 Y103.529 E.08817
G1 X38.053 Y103.944 E.02119
G1 X25.969 Y103.944 E.52059
G1 X25.603 Y103.86 E.01617
G1 X25.131 Y103.822 E.02041
G1 X24.643 Y103.86 E.02107
G1 X24.277 Y103.944 E.01618
G1 X12.148 Y103.944 E.52251
G1 X11.884 Y103.529 E.02119
G1 X11.884 Y101.483 E.08816
G1 X13.976 Y101.483 E.09013
G1 X13.821 Y102.141 E.02911
G1 X13.754 Y102.6 E.02001
G1 X13.706 Y103.605 E.04332
G1 X20.686 Y103.605 E.30065
G1 E-.5 F1800
G17
G3 Z.3 I.222 J.208 P1  F30000
G1 X21.52 Y102.713 Z.3
G1 Z.2
G1 E.5 F1800
;TYPE:Gap infill
;WIDTH:0.831209
G1 F6000
G1 X24.137 Y102.713 E.15955
G1 X24.286 Y102.696 E.00913
;WIDTH:0.765093
G1 X24.435 Y102.68 E.00837
;WIDTH:0.756881
G1 X24.488 Y102.675 E.00297
;WIDTH:0.73187
G1 X25.106 Y102.651 E.03295
G1 X25.76 Y102.676 E.03485
;WIDTH:0.790521
G1 X25.961 Y102.697 E.01166
;WIDTH:0.833049
G1 X26.109 Y102.713 E.00911
;WIDTH:0.833049
G1 X28.898 Y102.713 E.17042
G1 E-.35 F1800
;WIPE_START
G1 F6000
G1 X27.898 Y102.713 E-.1425
;WIPE_END
G1 E-.0075 F1800
G17
G3 Z.3 I-.024 J-.303 P1  F30000
G1 X20.411 Y103.305 Z.3
G1 X14.021 Y103.305
G1 X12.834 Y102.318
G1 Z.2
G1 E.5 F1800
;WIDTH:0.247775
G1 F6000
G1 X12.806 Y103.109 E.01252
; stop printing object KlickyNG_Cap_3mm.stl id:3 copy 0
M106 S38
;LAYER_CHANGE
;Z:0.4
;HEIGHT:0.2
;BEFORE_LAYER_CHANGE
;0.4
G92 E0

G1 E-.35 F1800
;WIPE_START
G1 F6000
G1 X12.834 Y102.318 E-.1425
;WIPE_END
G1 E-.0075 F1800
EXCLUDE_OBJECT_END NAME=KlickyNG_Cap_3mm.stl_id_3_copy_0
;AFTER_LAYER_CHANGE
;0.4
M140 S110 ; set bed temperature
; printing object KlickyNG_Cap_3mm.stl id:1 copy 0
SET_VELOCITY_LIMIT SQUARE_CORNER_VELOCITY=12
EXCLUDE_OBJECT_START NAME=KlickyNG_Cap_3mm.stl_id_1_copy_0
G17
G3 Z.4 I.605 J.066 P1  F30000
G1 X22.3 Y15.189 Z.4
G1 E.5 F1800
SET_VELOCITY_LIMIT SQUARE_CORNER_VELOCITY=7
;TYPE:Inner wall
;WIDTH:0.48
G1 F12000
G1 X22.254 Y15.189 E.00158
G1 X22.263 Y14.73 E.01551
G1 X22.236 Y14.314 E.01409
G1 X29.653 Y14.314 E.25067
G1 X29.625 Y14.728 E.01402
G1 X29.634 Y15.189 E.01558
G1 X27.443 Y15.189 E.07408
G1 X26.929 Y14.991 E.0186
G1 X26.22 Y14.821 E.02466
G1 X25.861 Y14.795 E.01215
G1 X25.5 Y14.82 E.01224
G1 X24.787 Y14.991 E.02478
G1 X24.274 Y15.189 E.01859
G1 X22.34 Y15.189 E.06534
