; HEADER_BLOCK_START
; generated by OrcaSlicer 1.6.6 on 2023-12-22 at 00:02:31
; total layer number: 47
; HEADER_BLOCK_END

; THUMBNAIL_BLOCK_START
; THUMBNAIL_BLOCK_END

; external perimeters extrusion width = 0.48mm
; perimeters extrusion width = 0.48mm
; infill extrusion width = 0.48mm
; solid infill extrusion width = 0.48mm
; top infill extrusion width = 0.48mm
; support material extrusion width = 0.40mm
; first layer extrusion width = 0.60mm

; external perimeters extrusion width = 0.48mm
; perimeters extrusion width = 0.48mm
; infill extrusion width = 0.48mm
; solid infill extrusion width = 0.48mm
; top infill extrusion width = 0.48mm
; support material extrusion width = 0.40mm
; first layer extrusion width = 0.60mm

; external perimeters extrusion width = 0.48mm
; perimeters extrusion width = 0.48mm
; infill extrusion width = 0.48mm
; solid infill extrusion width = 0.48mm
; top infill extrusion width = 0.48mm
; support material extrusion width = 0.40mm
; first layer extrusion width = 0.60mm

; external perimeters extrusion width = 0.48mm
; perimeters extrusion width = 0.48mm
; infill extrusion width = 0.48mm
; solid infill extrusion width = 0.48mm
; top infill extrusion width = 0.48mm
; support material extrusion width = 0.40mm
; first layer extrusion width = 0.60mm

; EXECUTABLE_BLOCK_START
EXCLUDE_OBJECT_DEFINE NAME=KlickyNG_Cap_3mm.stl_id_0_copy_0 CENTER=60.1502,58.7596 POLYGON=[[46.6332,64.6167],[46.6332,55.3348],[46.6332,53.3679],[46.6344,53.3389],[46.6531,53.2496],[46.6931,53.1656],[46.7524,53.0898],[46.8282,53.0248],[46.9175,52.9723],[47.017,52.9338],[47.1234,52.9103],[47.2332,52.9024],[73.0672,52.9025],[73.1771,52.9104],[73.2835,52.9339],[73.383,52.9723],[73.4723,53.0248],[73.5481,53.0899],[73.6073,53.1656],[73.6474,53.2496],[73.6661,53.3389],[73.6672,53.3679],[73.6672,64.6167],[71.008,64.6167],[65.0624,64.6167],[46.6332,64.6167]]
EXCLUDE_OBJECT_DEFINE NAME=KlickyNG_Cap_3mm.stl_id_1_copy_0 CENTER=89.274,59.3526 POLYGON=[[75.757,65.2097],[75.7571,55.9278],[75.7571,53.9609],[75.7582,53.9319],[75.7769,53.8426],[75.8169,53.7585],[75.8762,53.6828],[75.952,53.6178],[76.0413,53.5653],[76.1408,53.5268],[76.2472,53.5033],[76.3571,53.4954],[102.191,53.4954],[102.301,53.5034],[102.407,53.5268],[102.507,53.5653],[102.596,53.6178],[102.672,53.6829],[102.731,53.7586],[102.771,53.8426],[102.79,53.9319],[102.791,53.9609],[102.791,65.2097],[100.132,65.2097],[94.1862,65.2097],[75.757,65.2097]]
EXCLUDE_OBJECT_DEFINE NAME=fixed_idler_housing_front.STL_id_2_copy_0 CENTER=55.6768,82.7074 POLYGON=[[44.3774,82.8202],[44.3868,82.5456],[44.4057,82.2715],[44.4339,81.9983],[44.4716,81.7262],[44.5185,81.4555],[44.5747,81.1866],[44.6401,80.9198],[44.7146,80.6554],[44.7982,80.3937],[44.8907,80.135],[44.992,79.8796],[48.6695,71.2482],[48.711,71.1557],[48.7557,71.0648],[48.8034,70.9754],[48.8542,70.8878],[48.9079,70.8019],[48.9646,70.7179],[49.0241,70.6359],[49.0864,70.556],[49.1514,70.4783],[49.219,70.4028],[49.2892,70.3298],[49.3618,70.2591],[49.4368,70.191],[49.5141,70.1255],[49.5936,70.0627],[49.6752,70.0027],[49.7588,69.9455],[49.8444,69.8912],[49.9317,69.8398],[50.0207,69.7915],[50.1114,69.7462],[50.2035,69.7041],[50.2971,69.6652],[50.3919,69.6295],[50.4879,69.5971],[50.5849,69.568],[50.6829,69.5422],[50.7817,69.5198],[50.8812,69.5008],[50.9813,69.4853],[51.0819,69.4731],[51.1829,69.4645],[51.284,69.4593],[51.3853,69.4575],[53.3671,69.4575],[53.4689,69.4592],[53.5706,69.4644],[53.672,69.473],[53.7731,69.485],[53.8737,69.5005],[53.9737,69.5193],[54.073,69.5415],[54.1716,69.567],[54.2692,69.5959],[54.3658,69.6281],[54.4612,69.6635],[54.5554,69.7021],[54.6482,69.7438],[54.7396,69.7887],[54.8294,69.8367],[54.9175,69.8876],[55.0038,69.9416],[55.0883,69.9984],[55.1708,70.058],[55.2512,70.1204],[55.3295,70.1854],[64.8891,78.4089],[65.0428,78.5459],[65.1918,78.688],[65.3358,78.8351],[65.4747,78.9871],[65.6082,79.1438],[65.7364,79.305],[65.8589,79.4704],[65.9756,79.64],[66.0865,79.8135],[66.1914,79.9907],[66.2901,80.1713],[66.3826,80.3553],[66.4687,80.5423],[66.5483,80.7322],[66.6214,80.9247],[66.6878,81.1195],[66.7475,81.3166],[66.8004,81.5156],[66.8464,81.7162],[66.8856,81.9184],[66.9177,82.1217],[66.9429,82.3261],[66.9611,82.5311],[66.9722,82.7367],[66.9762,82.9426],[66.9732,83.1484],[66.9631,83.3541],[66.946,83.5592],[66.9218,83.7637],[66.8907,83.9672],[66.8525,84.1695],[66.8075,84.3704],[66.7556,84.5697],[66.6969,84.767],[66.6314,84.9622],[66.5593,85.1551],[66.4806,85.3453],[66.3955,85.5328],[66.3039,85.7172],[66.2061,85.8983],[66.1021,86.076],[65.9921,86.2501],[65.8762,86.4202],[65.7545,86.5863],[65.6272,86.7481],[65.4944,86.9054],[65.3563,87.0581],[65.213,87.206],[65.0648,87.3489],[64.9117,87.4865],[64.754,87.6189],[64.5918,87.7458],[54.7866,95.1497],[54.6751,95.231],[54.5607,95.3083],[54.4438,95.3817],[54.3244,95.451],[54.2027,95.5162],[54.0788,95.5771],[53.9529,95.6337],[53.8251,95.6859],[53.6956,95.7337],[53.5645,95.7769],[53.432,95.8157],[53.2983,95.8498],[53.1634,95.8793],[53.0276,95.9041],[52.891,95.9242],[52.7539,95.9397],[52.6162,95.9503],[52.4783,95.9562],[52.3403,95.9574],[52.2023,95.9537],[52.0645,95.9453],[51.927,95.9322],[51.7902,95.9143],[51.654,95.8918],[51.5187,95.8645],[51.3843,95.8326],[51.2512,95.7961],[51.1194,95.7549],[50.9892,95.7093],[50.8605,95.6592],[50.7337,95.6047],[50.6088,95.5459],[50.486,95.4827],[50.3655,95.4154],[50.2474,95.344],[50.1318,95.2685],[50.0189,95.1891],[49.9088,95.1058],[49.8016,95.0188],[49.6975,94.9281],[49.5966,94.8339],[49.499,94.7363],[49.4049,94.6354],[49.3142,94.5312],[49.2272,94.4241],[49.144,94.3139],[49.0646,94.201],[48.9892,94.0854],[48.9178,93.9672],[48.8505,93.8467],[48.7874,93.7239],[45.2206,86.5349],[45.102,86.2871],[44.992,86.0354],[44.8907,85.78],[44.7982,85.5214],[44.7146,85.2597],[44.6401,84.9953],[44.5747,84.7284],[44.5185,84.4595],[44.4716,84.1889],[44.4339,83.9167],[44.4057,83.6435],[44.3868,83.3694],[44.3774,83.0949],[44.3774,82.8202]]
EXCLUDE_OBJECT_DEFINE NAME=KlickyNG_Cap_3mm.stl_id_3_copy_0 CENTER=28.0828,58.7704 POLYGON=[[14.5658,64.6275],[14.5658,55.3457],[14.5658,53.3787],[14.567,53.3497],[14.5857,53.2604],[14.6257,53.1764],[14.685,53.1007],[14.7608,53.0356],[14.8501,52.9831],[14.9496,52.9446],[15.056,52.9212],[15.1658,52.9132],[40.9998,52.9133],[41.1097,52.9212],[41.2161,52.9447],[41.3156,52.9832],[41.4049,53.0357],[41.4807,53.1007],[41.5399,53.1765],[41.58,53.2605],[41.5987,53.3498],[41.5998,53.3788],[41.5998,64.6276],[38.9406,64.6276],[32.995,64.6275],[14.5658,64.6275]]
M73 P0 R12
;TYPE:Custom
M104 S0
M140 S0

print_start EXTRUDER=280 BED=110

G92 E0.0
G90
G21
M83 ; use relative distances for extrusion
; Filament gcode
SET_PRESSURE_ADVANCE ADVANCE=0.02; Override pressure advance value
M106 S0
;LAYER_CHANGE
;Z:0.2
;HEIGHT:0.2
;BEFORE_LAYER_CHANGE
;0.2
G92 E0

G1 E-.5 F1800
;AFTER_LAYER_CHANGE
;0.2
SET_VELOCITY_LIMIT ACCEL=10000
SET_VELOCITY_LIMIT SQUARE_CORNER_VELOCITY=9
; printing object KlickyNG_Cap_3mm.stl id:3 copy 0
EXCLUDE_OBJECT_START NAME=KlickyNG_Cap_3mm.stl_id_3_copy_0
G1 X31.826 Y62.323 F30000
G1 Z.2
G1 E.5 F1800
;TYPE:Inner wall
;WIDTH:0.6
G1 F6000
G1 X31.911 Y62.323 E.00366
G1 X31.951 Y63.163 E.03624
G1 X32.025 Y63.67 E.02207
G1 X23.925 Y63.67 E.34893
G1 X23.999 Y63.163 E.02207
G1 X24.039 Y62.323 E.03623
G1 X27.151 Y62.323 E.13409
G1 X27.495 Y62.403 E.01519
G1 X28.052 Y62.448 E.02407
G1 X28.625 Y62.403 E.02477
G1 X28.97 Y62.323 E.01524
G1 X31.786 Y62.323 E.12131
G1 E-.5 F1800
G17
G3 Z.3 I0 J-.304 P1  F30000
G1 X15.423 Y62.323 Z.3
G1 Z.2
G1 E.5 F1800
G1 F6000
G1 X15.925 Y62.323 E.02163
G1 X15.965 Y63.164 E.03624
G1 X16.039 Y63.67 E.02207
G1 X15.423 Y63.67 E.02653
G1 X15.423 Y62.363 E.05631
G1 E-.5 F1800
G17
G3 Z.3 I0 J.304 P1  F30000
G1 X40.025 Y62.323 Z.3
G1 Z.2
G1 E.5 F1800
G1 F6000
G1 X40.743 Y62.323 E.03093
G1 X40.743 Y63.67 E.05804
G1 X39.911 Y63.67 E.03583
G1 X39.985 Y63.163 E.02207
G1 X40.023 Y62.363 E.03451
G1 E-.5 F1800
G17
G3 Z.3 I.01 J-.304 P1  F30000
G1 X32.458 Y62.106 Z.3
G1 Z.2
G1 E.5 F1800
;TYPE:Outer wall
G1 F6000
G1 X32.506 Y63.11 E.04332
G1 X32.573 Y63.57 E.02001
G1 X32.728 Y64.228 E.02912
G1 X23.458 Y64.228 E.39936
G1 X23.22 Y64.223 E.01025
G1 X23.377 Y63.57 E.02895
G1 X23.444 Y63.11 E.02002
G1 X23.491 Y62.106 E.04332
G1 X16.472 Y62.106 E.30238
G1 X16.52 Y63.11 E.04332
G1 X16.587 Y63.57 E.02001
G1 X16.742 Y64.228 E.02912
G1 X14.866 Y64.228 E.08083
G1 X14.866 Y62.181 E.08817
G1 X15.13 Y61.766 E.02119
G1 X15.485 Y61.766 E.01526
G1 X27.215 Y61.766 E.50533
G1 X27.581 Y61.851 E.01617
G1 X28.053 Y61.889 E.02041
G1 X28.54 Y61.851 E.02107
G1 X28.906 Y61.766 E.01618
G1 X41.035 Y61.766 E.52251
G1 X41.3 Y62.181 E.02119
G1 X41.3 Y64.228 E.08816
G1 X39.208 Y64.228 E.09013
G1 X39.363 Y63.57 E.02911
G1 X39.43 Y63.11 E.02001
G1 X39.477 Y62.106 E.04332
G1 X32.498 Y62.106 E.30065
G1 E-.5 F1800
G17
G3 Z.3 I-.222 J-.208 P1  F30000
G1 X31.664 Y62.997 Z.3
G1 Z.2
G1 E.5 F1800
;TYPE:Gap infill
;WIDTH:0.833047
G1 F6000
G1 X29.047 Y62.997 E.15993
;WIDTH:0.83305
G1 X28.898 Y63.014 E.00915
;WIDTH:0.790088
G1 X28.695 Y63.035 E.01177
;WIDTH:0.732251
G1 X28.077 Y63.059 E.03297
G1 X27.424 Y63.035 E.03487
;WIDTH:0.757497
G1 X27.371 Y63.031 E.0029
;WIDTH:0.765578
G1 X27.223 Y63.014 E.00833
;WIDTH:0.831335
G1 X27.075 Y62.997 E.00909
G1 X24.286 Y62.997 E.17005
G1 E-.35 F1800
;WIPE_START
G1 F6000
G1 X25.286 Y62.997 E-.1425
;WIPE_END
G1 E-.0075 F1800
G17
G3 Z.3 I.024 J.303 P1  F30000
G1 X32.773 Y62.405 Z.3
G1 X39.163 Y62.405
G1 X40.349 Y63.392
G1 Z.2
G1 E.5 F1800
;WIDTH:0.227079
G1 F6000
G1 X40.377 Y62.602 E.01126
; stop printing object KlickyNG_Cap_3mm.stl id:3 copy 0
; printing object fixed_idler_housing_front.STL id:2 copy 0
G1 E-.35 F1800
;WIPE_START
G1 F6000
G1 X40.349 Y63.392 E-.1425
;WIPE_END
G1 E-.0075 F1800
EXCLUDE_OBJECT_END NAME=KlickyNG_Cap_3mm.stl_id_3_copy_0
EXCLUDE_OBJECT_START NAME=fixed_idler_housing_front.STL_id_2_copy_0
G17
G3 Z.3 I-.284 J.108 P1  F30000
G1 X47.798 Y82.959 Z.3
G1 X47.803 Y83.169
G1 X47.822 Y83.435
G1 X47.85 Y83.646
G1 X47.897 Y83.908
G1 X47.934 Y84.065
G1 X47.975 Y84.22
G1 X48.022 Y84.372
G1 X48.074 Y84.525
G1 X48.151 Y84.72
G1 X48.26 Y84.963
G1 X48.333 Y85.107
G1 X48.411 Y85.247
G1 X48.493 Y85.384
G1 X48.58 Y85.518
G1 X48.672 Y85.649
G1 X48.768 Y85.776
G1 X48.869 Y85.901
G1 X48.974 Y86.021
G1 X52.465 Y89.782
G1 X52.53 Y89.784
G1 X52.755 Y89.812
G1 X52.977 Y89.863
G1 X53.19 Y89.936
G1 X53.334 Y90
G1 X53.531 Y90.11
G1 X53.718 Y90.24
G1 X53.89 Y90.39
G1 X54.045 Y90.557
G1 X54.183 Y90.739
G1 X54.3 Y90.934
G1 X54.387 Y91.119
G1 X54.449 Y91.286
G1 X54.508 Y91.504
G1 X54.543 Y91.73
G1 X54.555 Y91.958
G1 X54.543 Y92.185
G1 X54.512 Y92.387
G1 X54.47 Y92.56
G1 X54.397 Y92.774
G1 X54.3 Y92.981
G1 X54.093 Y93.328
G1 Z.2
G1 E.5 F1800
;TYPE:Outer wall
;WIDTH:0.6
G1 F6000
G1 X54.064 Y93.371 E.0022
G1 X53.789 Y93.646 E.01676
G1 X53.41 Y93.901 E.01971
G1 X52.983 Y94.074 E.01983
G1 X52.535 Y94.153 E.0196
G1 X52.217 Y94.153 E.01368
G1 X51.769 Y94.074 E.0196
G1 X51.345 Y93.902 E.01972
G1 X51.019 Y93.691 E.01676
G1 X50.69 Y93.373 E.01971
G1 X50.434 Y92.993 E.01971
G1 X50.282 Y92.635 E.01676
G1 X50.187 Y92.188 E.01971
G1 X50.187 Y91.73 E.01971
G1 X50.261 Y91.348 E.01676
G1 X50.431 Y90.926 E.0196
G1 X50.643 Y90.601 E.01673
G1 X50.943 Y90.287 E.01871
G1 X51.277 Y90.05 E.01763
G1 X51.696 Y89.864 E.01975
G1 X52.144 Y89.768 E.01971
G1 X52.532 Y89.762 E.01676
G1 X52.98 Y89.841 E.0196
G1 X53.344 Y89.98 E.01676
G1 X53.732 Y90.223 E.01971
G1 X54.063 Y90.542 E.01983
G1 X54.319 Y90.922 E.01971
G1 X54.471 Y91.28 E.01676
G1 X54.566 Y91.727 E.01971
G1 X54.566 Y92.185 E.01971
G1 X54.492 Y92.567 E.01676
G1 X54.32 Y92.991 E.01971
G1 X54.115 Y93.295 E.01579
G1 E-.35 F1800
;WIPE_START
G1 F6000
G1 X54.064 Y93.371 E-.01299
G1 X53.789 Y93.646 E-.05543
G1 X53.41 Y93.901 E-.06521
G1 X53.352 Y93.925 E-.00887
;WIPE_END
G1 E-.0075 F1800
G17
G3 Z.3 I.215 J.215 P1  F30000
G1 X53.977 Y93.3 Z.3
G1 X54.131 Y93.141
G1 X54.278 Y92.968
G1 X54.416 Y92.782
G1 X54.544 Y92.581
G1 X54.635 Y92.412
G1 X54.73 Y92.204
G1 X54.819 Y91.958
G1 X56.911 Y85.369
G1 X56.949 Y85.188
G1 X56.975 Y85.005
G1 X56.997 Y84.824
G1 X57.014 Y84.646
G1 X57.027 Y84.469
G1 X57.039 Y84.294
G1 X57.048 Y84.122
G1 X57.054 Y83.952
G1 X57.062 Y83.614
G1 X57.066 Y83.124
G1 X57.066 Y82.794
G1 X57.066 Y82.63
G1 X57.061 Y82.245
G1 X57.054 Y81.967
G1 X57.047 Y81.793
G1 X57.039 Y81.62
G1 X57.028 Y81.446
G1 X57.014 Y81.27
G1 X56.997 Y81.091
G1 X56.975 Y80.91
G1 X56.949 Y80.727
G1 X56.911 Y80.546
G1 X55.078 Y73.674
G1 X54.97 Y73.406
G1 X54.846 Y73.159
G1 X54.737 Y72.972
G1 X54.603 Y72.772
G1 X54.509 Y72.652
G1 X54.265 Y72.842
G1 Z.2
G1 E.5 F1800
G1 F6000
G1 X54.319 Y72.922 E.00416
G1 X54.471 Y73.28 E.01676
G1 X54.566 Y73.727 E.01971
G1 X54.566 Y74.188 E.01983
G1 X54.471 Y74.635 E.01971
G1 X54.319 Y74.993 E.01676
G1 X54.063 Y75.373 E.01971
G1 X53.732 Y75.692 E.01983
G1 X53.346 Y75.934 E.0196
G1 X53.051 Y76.053 E.01368
G1 X52.609 Y76.147 E.01949
G1 X52.22 Y76.153 E.01676
G1 X51.769 Y76.074 E.01971
G1 X51.345 Y75.902 E.01971
G1 X51.019 Y75.691 E.01676
G1 X50.69 Y75.373 E.01971
G1 X50.434 Y74.993 E.01971
G1 X50.282 Y74.635 E.01676
G1 X50.187 Y74.188 E.01971
G1 X50.187 Y73.728 E.0198
G1 X50.275 Y73.303 E.01871
G1 X50.4 Y72.989 E.01456
G1 X50.641 Y72.602 E.01964
G1 X50.961 Y72.271 E.01983
G1 X51.34 Y72.015 E.01971
G1 X51.698 Y71.863 E.01676
G1 X52.144 Y71.768 E.0196
G1 X52.532 Y71.762 E.01676
G1 X52.983 Y71.841 E.01971
G1 X53.407 Y72.013 E.01971
G1 X53.734 Y72.224 E.01676
G1 X54.063 Y72.542 E.01971
G1 X54.242 Y72.808 E.01383
G1 E-.5 F1800
G17
G3 Z.3 I-.258 J.161 P1  F30000
G1 X59.268 Y80.858 Z.3
G1 Z.2
G1 E.5 F1800
;TYPE:Inner wall
G1 F6000
G1 X59.627 Y80.606 E.01891
G1 X60.138 Y80.378 E.0241
G1 X60.685 Y80.262 E.0241
G1 X61.173 Y80.254 E.021
G1 X61.724 Y80.351 E.0241
G1 X62.249 Y80.563 E.02442
G1 X62.713 Y80.876 E.0241
G1 X63.058 Y81.221 E.021
G1 X63.371 Y81.684 E.0241
G1 X63.582 Y82.208 E.02434
G1 X63.678 Y82.737 E.02316
G1 X63.672 Y83.246 E.02191
G1 X63.555 Y83.796 E.02421
G1 X63.328 Y84.307 E.0241
G1 X63.048 Y84.706 E.021
G1 X62.651 Y85.089 E.02377
G1 X62.242 Y85.355 E.021
G1 X61.731 Y85.561 E.02377
G1 X61.252 Y85.654 E.021
G1 X60.7 Y85.654 E.02377
G1 X60.222 Y85.561 E.021
G1 X59.703 Y85.352 E.0241
G1 X59.239 Y85.039 E.0241
G1 X58.895 Y84.694 E.021
G1 X58.582 Y84.231 E.0241
G1 X58.37 Y83.707 E.02434
G1 X58.274 Y83.178 E.02316
G1 X58.28 Y82.671 E.02183
G1 X58.389 Y82.15 E.02295
G1 X58.585 Y81.68 E.02191
G1 X58.895 Y81.221 E.02388
G1 X59.234 Y80.881 E.02068
G1 X59.235 Y80.881 E.00004
G1 X59.632 Y81.283 F30000
;TYPE:Outer wall
G1 F6000
G1 X59.903 Y81.093 E.01425
G1 X60.311 Y80.911 E.01926
G1 X60.749 Y80.818 E.01926
G1 X61.129 Y80.812 E.01638
G1 X61.569 Y80.889 E.01926
G1 X61.986 Y81.058 E.01938
G1 X62.357 Y81.308 E.01926
G1 X62.626 Y81.577 E.01638
G1 X62.876 Y81.947 E.01926
G1 X63.044 Y82.364 E.01935
G1 X63.12 Y82.784 E.0184
G1 X63.116 Y83.184 E.01723
G1 X63.023 Y83.622 E.0193
G1 X62.841 Y84.031 E.01926
G1 X62.623 Y84.342 E.01638
G1 X62.303 Y84.651 E.01915
G1 X61.984 Y84.858 E.01638
G1 X61.572 Y85.025 E.01915
G1 X61.198 Y85.097 E.01638
G1 X60.754 Y85.097 E.01915
G1 X60.381 Y85.025 E.01638
G1 X59.966 Y84.857 E.01926
G1 X59.595 Y84.607 E.01926
G1 X59.326 Y84.338 E.01638
G1 X59.076 Y83.968 E.01926
G1 X58.908 Y83.551 E.01935
G1 X58.832 Y83.131 E.0184
G1 X58.837 Y82.732 E.0172
G1 X58.923 Y82.315 E.01833
G1 X59.077 Y81.946 E.01723
G1 X59.326 Y81.577 E.01919
G1 X59.594 Y81.31 E.01627
G1 X59.599 Y81.306 E.00029
G1 E-.5 F1800
G17
G3 Z.3 I-.287 J-.102 P1  F30000
G1 X58.117 Y85.492 Z.3
G1 Z.2
G1 E.5 F1800
;TYPE:Inner wall
G1 F6000
G1 X58.527 Y85.903 E.02503
G1 X59.177 Y86.341 E.03376
G1 X59.904 Y86.635 E.03376
G1 X60.593 Y86.769 E.03025
G1 X61.359 Y86.769 E.03301
G1 X62.049 Y86.635 E.03024
G1 X62.251 Y86.553 E.00939
G1 X62.395 Y86.808 E.01263
G1 X56.219 Y91.465 E.33322
G1 X56.072 Y90.775 E.03038
G1 X55.794 Y90.121 E.03062
G1 X55.35 Y89.462 E.03421
G1 X54.659 Y88.795 E.04138
G1 X55.127 Y88.597 E.02187
G1 X55.701 Y88.278 E.02829
G1 X56.239 Y87.901 E.02829
G1 X56.727 Y87.477 E.02785
G1 X57.088 Y87.098 E.02257
G1 X57.454 Y86.642 E.02519
G1 X57.81 Y86.094 E.02811
G1 X58.098 Y85.528 E.02741
G1 E-.5 F1800
G17
