; HEADER_BLOCK_START
; generated by OrcaSlicer 1.6.6 on 2023-12-21 at 19:03:19
; total layer number: 47
; HEADER_BLOCK_END

; THUMBNAIL_BLOCK_START
; THUMBNAIL_BLOCK_END

; external perimeters extrusion width = 0.48mm
; perimeters extrusion width = 0.48mm
; infill extrusion width = 0.48mm
; solid infill extrusion width = 0.48mm
; top infill extrusion width = 0.48mm
; support material extrusion width = 0.40mm
; first layer extrusion width = 0.60mm

; external perimeters extrusion width = 0.48mm
; perimeters extrusion width = 0.48mm
; infill extrusion width = 0.48mm
; solid infill extrusion width = 0.48mm
; top infill extrusion width = 0.48mm
; support material extrusion width = 0.40mm
; first layer extrusion width = 0.60mm

; external perimeters extrusion width = 0.48mm
; perimeters extrusion width = 0.48mm
; infill extrusion width = 0.48mm
; solid infill extrusion width = 0.48mm
; top infill extrusion width = 0.48mm
; support material extrusion width = 0.40mm
; first layer extrusion width = 0.60mm

; EXECUTABLE_BLOCK_START
EXCLUDE_OBJECT_DEFINE NAME=KlickyNG_Cap_3mm.stl_id_0_copy_0 CENTER=60.1502,58.7596 POLYGON=[[46.6332,64.6167],[46.6332,55.3348],[46.6332,53.3679],[46.6344,53.3389],[46.6531,53.2496],[46.6931,53.1656],[46.7524,53.0898],[46.8282,53.0248],[46.9175,52.9723],[47.017,52.9338],[47.1234,52.9103],[47.2332,52.9024],[73.0672,52.9025],[73.1771,52.9104],[73.2835,52.9339],[73.383,52.9723],[73.4723,53.0248],[73.5481,53.0899],[73.6073,53.1656],[73.6474,53.2496],[73.6661,53.3389],[73.6672,53.3679],[73.6672,64.6167],[71.008,64.6167],[65.0624,64.6167],[46.6332,64.6167]]
EXCLUDE_OBJECT_DEFINE NAME=KlickyNG_Cap_3mm.stl_id_1_copy_0 CENTER=62.8912,39.5779 POLYGON=[[49.3742,45.435],[49.3743,36.1532],[49.3743,34.1862],[49.3754,34.1572],[49.3941,34.0679],[49.4341,33.9839],[49.4934,33.9081],[49.5692,33.8431],[49.6585,33.7906],[49.758,33.7521],[49.8644,33.7286],[49.9742,33.7207],[75.8082,33.7208],[75.9181,33.7287],[76.0245,33.7522],[76.124,33.7906],[76.2133,33.8431],[76.2891,33.9082],[76.3484,33.9839],[76.3884,34.0679],[76.4071,34.1572],[76.4083,34.1862],[76.4082,45.435],[73.749,45.435],[67.8034,45.435],[49.3742,45.435]]
EXCLUDE_OBJECT_DEFINE NAME=fixed_idler_housing_front.STL_id_2_copy_0 CENTER=50.1214,93.1176 POLYGON=[[38.822,93.2303],[38.8315,92.9558],[38.8503,92.6817],[38.8786,92.4085],[38.9162,92.1363],[38.9631,91.8657],[39.0193,91.5967],[39.0847,91.3299],[39.1593,91.0655],[39.2428,90.8038],[39.3353,90.5452],[39.4366,90.2898],[43.1141,81.6583],[43.1556,81.5659],[43.2003,81.475],[43.248,81.3856],[43.2988,81.2979],[43.3526,81.2121],[43.4092,81.1281],[43.4687,81.0461],[43.531,80.9662],[43.596,80.8885],[43.6636,80.813],[43.7338,80.7399],[43.8064,80.6693],[43.8814,80.6012],[43.9587,80.5357],[44.0382,80.4729],[44.1198,80.4128],[44.2034,80.3556],[44.289,80.3013],[44.3763,80.25],[44.4654,80.2017],[44.556,80.1564],[44.6482,80.1143],[44.7417,80.0754],[44.8365,80.0397],[44.9325,80.0073],[45.0295,79.9782],[45.1275,79.9524],[45.2263,79.93],[45.3258,79.911],[45.426,79.8954],[45.5265,79.8833],[45.6275,79.8746],[45.7287,79.8694],[45.83,79.8677],[47.8117,79.8677],[47.9135,79.8694],[48.0152,79.8746],[48.1166,79.8832],[48.2177,79.8952],[48.3183,79.9106],[48.4183,79.9295],[48.5177,79.9517],[48.6162,79.9772],[48.7138,80.0061],[48.8104,80.0382],[48.9058,80.0736],[49,80.1122],[49.0928,80.154],[49.1842,80.1989],[49.274,80.2468],[49.3621,80.2978],[49.4484,80.3517],[49.5329,80.4085],[49.6154,80.4681],[49.6958,80.5305],[49.7741,80.5956],[59.3337,88.8191],[59.4875,88.956],[59.6364,89.0981],[59.7804,89.2453],[59.9193,89.3973],[60.0529,89.554],[60.181,89.7151],[60.3035,89.8806],[60.4203,90.0502],[60.5311,90.2237],[60.636,90.4008],[60.7347,90.5815],[60.8272,90.7655],[60.9133,90.9525],[60.9929,91.1423],[61.066,91.3348],[61.1324,91.5297],[61.1921,91.7267],[61.245,91.9257],[61.291,92.1264],[61.3302,92.3285],[61.3624,92.5319],[61.3875,92.7362],[61.4057,92.9413],[61.4168,93.1469],[61.4208,93.3527],[61.4178,93.5586],[61.4077,93.7642],[61.3906,93.9694],[61.3664,94.1739],[61.3353,94.3774],[61.2972,94.5797],[61.2521,94.7806],[61.2002,94.9798],[61.1415,95.1772],[61.076,95.3724],[61.0039,95.5652],[60.9252,95.7555],[60.8401,95.9429],[60.7485,96.1273],[60.6507,96.3085],[60.5467,96.4862],[60.4367,96.6602],[60.3208,96.8304],[60.1991,96.9965],[60.0718,97.1583],[59.939,97.3156],[59.8009,97.4683],[59.6576,97.6162],[59.5094,97.759],[59.3563,97.8967],[59.1986,98.0291],[59.0365,98.1559],[49.2313,105.56],[49.1197,105.641],[49.0054,105.718],[48.8884,105.792],[48.769,105.861],[48.6473,105.926],[48.5234,105.987],[48.3975,106.044],[48.2697,106.096],[48.1402,106.144],[48.0091,106.187],[47.8766,106.226],[47.7429,106.26],[47.608,106.289],[47.4722,106.314],[47.3357,106.334],[47.1985,106.35],[47.0608,106.36],[46.9229,106.366],[46.7849,106.368],[46.6469,106.364],[46.5091,106.356],[46.3717,106.342],[46.2348,106.325],[46.0986,106.302],[45.9633,106.275],[45.829,106.243],[45.6958,106.206],[45.5641,106.165],[45.4338,106.119],[45.3051,106.069],[45.1783,106.015],[45.0534,105.956],[44.9307,105.893],[44.8102,105.826],[44.692,105.754],[44.5764,105.679],[44.4635,105.599],[44.3534,105.516],[44.2463,105.429],[44.1422,105.338],[44.0412,105.244],[43.9436,105.146],[43.8495,105.046],[43.7588,104.941],[43.6719,104.834],[43.5886,104.724],[43.5092,104.611],[43.4338,104.496],[43.3624,104.377],[43.2951,104.257],[43.232,104.134],[39.6653,96.9451],[39.5467,96.6973],[39.4366,96.4456],[39.3353,96.1902],[39.2428,95.9315],[39.1593,95.6698],[39.0847,95.4054],[39.0193,95.1386],[38.9631,94.8697],[38.9162,94.599],[38.8786,94.3269],[38.8503,94.0537],[38.8315,93.7796],[38.822,93.505],[38.822,93.2303]]
M73 P0 R9
;TYPE:Custom
M104 S0
M140 S0

print_start EXTRUDER=280 BED=110

G92 E0.0
G90
G21
M83 ; use relative distances for extrusion
; Filament gcode
SET_PRESSURE_ADVANCE ADVANCE=0.02; Override pressure advance value
M106 S0
;LAYER_CHANGE
;Z:0.2
;HEIGHT:0.2
;BEFORE_LAYER_CHANGE
;0.2
G92 E0

G1 E-.5 F1800
;AFTER_LAYER_CHANGE
;0.2
SET_VELOCITY_LIMIT ACCEL=10000
SET_VELOCITY_LIMIT SQUARE_CORNER_VELOCITY=9
; printing object fixed_idler_housing_front.STL id:2 copy 0
EXCLUDE_OBJECT_START NAME=fixed_idler_housing_front.STL_id_2_copy_0
G1 X48.538 Y103.738 F30000
G1 Z.2
G1 E.5 F1800
;TYPE:Outer wall
;WIDTH:0.6
G1 F6000
G1 X48.509 Y103.781 E.0022
G1 X48.234 Y104.056 E.01676
G1 X47.854 Y104.312 E.01971
G1 X47.428 Y104.484 E.01983
G1 X46.98 Y104.563 E.0196
G1 X46.662 Y104.563 E.01368
G1 X46.214 Y104.484 E.0196
G1 X45.79 Y104.313 E.01972
G1 X45.463 Y104.101 E.01676
G1 X45.134 Y103.783 E.01971
G1 X44.878 Y103.403 E.01971
G1 X44.726 Y103.045 E.01676
G1 X44.631 Y102.598 E.01971
G1 X44.631 Y102.14 E.01971
G1 X44.705 Y101.758 E.01676
G1 X44.876 Y101.337 E.0196
G1 X45.087 Y101.011 E.01673
G1 X45.388 Y100.697 E.01871
G1 X45.722 Y100.46 E.01763
G1 X46.141 Y100.274 E.01975
G1 X46.588 Y100.179 E.01971
G1 X46.977 Y100.172 E.01676
G1 X47.425 Y100.251 E.0196
G1 X47.788 Y100.39 E.01676
G1 X48.176 Y100.633 E.01971
G1 X48.507 Y100.952 E.01983
G1 X48.763 Y101.332 E.01971
G1 X48.915 Y101.69 E.01676
G1 X49.01 Y102.138 E.01971
G1 X49.01 Y102.595 E.01971
G1 X48.936 Y102.977 E.01676
G1 X48.765 Y103.401 E.01971
G1 X48.56 Y103.705 E.01579
G1 E-.35 F1800
;WIPE_START
G1 F6000
G1 X48.509 Y103.781 E-.01299
G1 X48.234 Y104.056 E-.05543
G1 X47.854 Y104.312 E-.06521
G1 X47.797 Y104.335 E-.00887
;WIPE_END
G1 E-.0075 F1800
G17
G3 Z.3 I.215 J.215 P1  F30000
G1 X48.421 Y103.71 Z.3
G1 X48.575 Y103.551
G1 X48.722 Y103.379
G1 X48.861 Y103.192
G1 X48.989 Y102.991
G1 X49.079 Y102.822
G1 X49.174 Y102.614
G1 X49.264 Y102.368
G1 X51.356 Y95.779
G1 X51.394 Y95.598
G1 X51.42 Y95.415
G1 X51.442 Y95.235
G1 X51.459 Y95.056
G1 X51.472 Y94.879
G1 X51.483 Y94.705
G1 X51.493 Y94.533
G1 X51.498 Y94.362
G1 X51.507 Y94.024
G1 X51.511 Y93.534
G1 X51.511 Y93.204
G1 X51.51 Y93.04
G1 X51.506 Y92.655
G1 X51.499 Y92.377
G1 X51.492 Y92.203
G1 X51.484 Y92.031
G1 X51.472 Y91.856
G1 X51.458 Y91.68
G1 X51.441 Y91.501
G1 X51.42 Y91.32
G1 X51.394 Y91.137
G1 X51.356 Y90.957
G1 X49.522 Y84.084
G1 X49.415 Y83.816
G1 X49.29 Y83.569
G1 X49.182 Y83.382
G1 X49.047 Y83.183
G1 X48.954 Y83.062
G1 X48.709 Y83.252
G1 Z.2
G1 E.5 F1800
G1 F6000
G1 X48.763 Y83.332 E.00416
G1 X48.915 Y83.69 E.01676
G1 X49.01 Y84.138 E.01971
G1 X49.01 Y84.598 E.01983
G1 X48.915 Y85.045 E.01971
G1 X48.763 Y85.403 E.01676
G1 X48.507 Y85.783 E.01971
G1 X48.176 Y86.103 E.01983
G1 X47.79 Y86.344 E.0196
G1 X47.496 Y86.463 E.01368
G1 X47.054 Y86.557 E.01949
G1 X46.665 Y86.564 E.01676
G1 X46.214 Y86.484 E.01971
G1 X45.79 Y86.313 E.01971
G1 X45.463 Y86.101 E.01676
G1 X45.134 Y85.783 E.01971
G1 X44.878 Y85.403 E.01971
G1 X44.726 Y85.045 E.01676
G1 X44.631 Y84.598 E.01971
G1 X44.631 Y84.138 E.0198
G1 X44.72 Y83.713 E.01871
G1 X44.844 Y83.399 E.01456
G1 X45.086 Y83.012 E.01964
G1 X45.406 Y82.681 E.01983
G1 X45.785 Y82.425 E.01971
G1 X46.143 Y82.273 E.01676
G1 X46.588 Y82.179 E.0196
G1 X46.977 Y82.172 E.01676
G1 X47.428 Y82.251 E.01971
G1 X47.852 Y82.423 E.01971
G1 X48.178 Y82.635 E.01676
G1 X48.507 Y82.952 E.01971
G1 X48.687 Y83.219 E.01383
G1 E-.5 F1800
G17
G3 Z.3 I-.258 J.161 P1  F30000
G1 X53.712 Y91.268 Z.3
G1 Z.2
G1 E.5 F1800
;TYPE:Inner wall
G1 F6000
G1 X54.072 Y91.016 E.01891
G1 X54.583 Y90.789 E.0241
G1 X55.13 Y90.672 E.0241
G1 X55.617 Y90.664 E.021
G1 X56.168 Y90.761 E.0241
G1 X56.694 Y90.973 E.02442
G1 X57.158 Y91.286 E.0241
G1 X57.502 Y91.631 E.021
G1 X57.815 Y92.095 E.0241
G1 X58.027 Y92.618 E.02434
G1 X58.123 Y93.147 E.02316
G1 X58.117 Y93.656 E.02191
G1 X58 Y94.206 E.02421
G1 X57.772 Y94.717 E.0241
G1 X57.493 Y95.116 E.021
G1 X57.096 Y95.499 E.02377
G1 X56.687 Y95.765 E.021
G1 X56.175 Y95.972 E.02377
G1 X55.697 Y96.065 E.021
G1 X55.145 Y96.065 E.02377
G1 X54.666 Y95.972 E.021
G1 X54.148 Y95.762 E.0241
G1 X53.684 Y95.449 E.0241
G1 X53.339 Y95.105 E.021
G1 X53.026 Y94.641 E.0241
G1 X52.815 Y94.117 E.02434
G1 X52.719 Y93.588 E.02316
G1 X52.725 Y93.081 E.02183
G1 X52.833 Y92.56 E.02295
G1 X53.029 Y92.09 E.02191
G1 X53.339 Y91.631 E.02388
G1 X53.679 Y91.291 E.02068
G1 X53.679 Y91.291 E.00004
G1 X54.076 Y91.693 F30000
;TYPE:Outer wall
G1 F6000
G1 X54.347 Y91.503 E.01425
G1 X54.756 Y91.321 E.01926
G1 X55.193 Y91.228 E.01926
G1 X55.574 Y91.222 E.01638
G1 X56.014 Y91.299 E.01926
G1 X56.431 Y91.468 E.01938
G1 X56.802 Y91.718 E.01926
G1 X57.071 Y91.987 E.01638
G1 X57.321 Y92.358 E.01926
G1 X57.489 Y92.774 E.01935
G1 X57.565 Y93.194 E.0184
G1 X57.56 Y93.594 E.01723
G1 X57.467 Y94.033 E.0193
G1 X57.285 Y94.441 E.01926
G1 X57.067 Y94.753 E.01638
G1 X56.747 Y95.061 E.01915
G1 X56.429 Y95.268 E.01638
G1 X56.016 Y95.435 E.01915
G1 X55.643 Y95.508 E.01638
G1 X55.199 Y95.508 E.01915
G1 X54.825 Y95.435 E.01638
G1 X54.411 Y95.267 E.01926
G1 X54.04 Y95.017 E.01926
G1 X53.771 Y94.749 E.01638
G1 X53.521 Y94.378 E.01926
G1 X53.353 Y93.961 E.01935
G1 X53.277 Y93.541 E.0184
G1 X53.281 Y93.142 E.0172
G1 X53.368 Y92.725 E.01833
G1 X53.522 Y92.356 E.01723
G1 X53.771 Y91.987 E.01919
G1 X54.038 Y91.72 E.01627
G1 X54.044 Y91.716 E.00029
G1 E-.5 F1800
G17
G3 Z.3 I-.287 J-.102 P1  F30000
G1 X52.561 Y95.902 Z.3
G1 Z.2
G1 E.5 F1800
;TYPE:Inner wall
G1 F6000
G1 X52.972 Y96.313 E.02503
G1 X53.622 Y96.751 E.03376
G1 X54.348 Y97.045 E.03376
G1 X55.038 Y97.179 E.03025
G1 X55.804 Y97.179 E.03301
G1 X56.493 Y97.045 E.03024
G1 X56.695 Y96.963 E.00939
G1 X56.84 Y97.218 E.01263
G1 X50.663 Y101.875 E.33322
G1 X50.517 Y101.185 E.03038
G1 X50.239 Y100.531 E.03062
G1 X49.795 Y99.872 E.03421
G1 X49.104 Y99.205 E.04138
G1 X49.571 Y99.007 E.02187
G1 X50.146 Y98.688 E.02829
G1 X50.683 Y98.312 E.02829
G1 X51.171 Y97.887 E.02785
G1 X51.533 Y97.508 E.02257
G1 X51.899 Y97.052 E.02519
G1 X52.254 Y96.505 E.02811
G1 X52.543 Y95.938 E.02741
G1 E-.5 F1800
G17
G3 Z.3 I.304 J.018 P1  F30000
G1 X52.871 Y90.524 Z.3
G1 Z.2
G1 E.5 F1800
G1 F6000
G1 X52.569 Y90.826 E.01838
G1 X52.245 Y90.216 E.02973
G1 X51.897 Y89.68 E.02755
G1 X51.483 Y89.17 E.02829
G1 X51.019 Y88.705 E.02829
G1 X50.509 Y88.292 E.02829
G1 X49.958 Y87.934 E.02829
G1 X49.388 Y87.644 E.02755
G1 X49.105 Y87.529 E.01317
G1 X49.795 Y86.863 E.04133
G1 X50.239 Y86.205 E.03421
G1 X50.517 Y85.55 E.03062
G1 X50.682 Y84.773 E.03421
G1 X50.682 Y84.11 E.02858
G1 X57.108 Y89.637 E.36516
G1 X56.961 Y89.879 E.01222
G1 X56.477 Y89.684 E.02247
G1 X55.705 Y89.548 E.03376
G1 X55.003 Y89.56 E.03025
G1 X54.237 Y89.723 E.03376
G1 X53.521 Y90.042 E.03376
G1 X52.96 Y90.435 E.0295
G1 X52.899 Y90.496 E.00371
G1 E-.5 F1800
G17
G3 Z.3 I.285 J-.106 P1  F30000
G1 X50.037 Y82.821 Z.3
G1 Z.2
G1 E.5 F1800
G1 F6000
G1 X58.319 Y89.943 E.47053
G1 X58.679 Y90.287 E.02144
G1 X58.978 Y90.638 E.01988
G1 X59.236 Y91.012 E.01958
G1 X59.498 Y91.503 E.02395
G1 X59.638 Y91.844 E.01589
G1 X59.773 Y92.29 E.02008
G1 X59.86 Y92.736 E.01958
G1 X59.903 Y93.291 E.02395
G1 X59.896 Y93.652 E.01559
G1 X59.825 Y94.209 E.02416
G1 X59.741 Y94.568 E.01589
G1 X59.593 Y95.01 E.02008
G1 X59.402 Y95.43 E.01988
G1 X59.169 Y95.828 E.01988
G1 X58.897 Y96.2 E.01988
G1 X58.579 Y96.552 E.0204
G1 X58.105 Y96.962 E.027
G1 X50.125 Y102.979 E.43055
G1 X50.125 Y102.02 E.04128
G1 X49.983 Y101.353 E.02938
G1 X49.747 Y100.798 E.026
G1 X49.366 Y100.232 E.02938
G1 X48.866 Y99.75 E.02992
G1 X48.288 Y99.389 E.02938
G1 X47.869 Y99.228 E.01931
G1 X47.888 Y98.98 E.01071
G1 X48.269 Y98.896 E.01683
G1 X48.779 Y98.738 E.02297
G1 X49.327 Y98.505 E.02565
G1 X49.85 Y98.215 E.02578
G1 X50.34 Y97.872 E.02577
G1 X50.786 Y97.484 E.02546
G1 X51.113 Y97.141 E.02043
G1 X51.447 Y96.725 E.02297
G1 X51.771 Y96.226 E.02565
G1 X52.043 Y95.693 E.02577
G1 X52.253 Y95.146 E.02524
G1 X52.385 Y94.686 E.02062
G1 X52.907 Y95.461 E.04027
G1 X53.328 Y95.881 E.02562
G1 X53.885 Y96.257 E.02893
G1 X54.507 Y96.508 E.02893
G1 X55.091 Y96.622 E.02562
G1 X55.75 Y96.622 E.02839
G1 X56.334 Y96.508 E.02562
G1 X56.945 Y96.261 E.02839
G1 X57.444 Y95.937 E.02563
G1 X57.918 Y95.48 E.02839
G1 X58.259 Y94.992 E.02562
G1 X58.533 Y94.379 E.02893
G1 X58.673 Y93.718 E.02911
G1 X58.68 Y93.101 E.02659
G1 X58.565 Y92.463 E.02793
G1 X58.31 Y91.832 E.02933
G1 X57.934 Y91.275 E.02893
G1 X57.514 Y90.854 E.02562
G1 X56.957 Y90.479 E.02893
G1 X56.323 Y90.222 E.02947
G1 X55.661 Y90.106 E.02893
G1 X55.067 Y90.116 E.02562
G1 X54.41 Y90.256 E.02893
G1 X53.796 Y90.529 E.02893
G1 X53.319 Y90.863 E.02509
G1 X52.907 Y91.275 E.02509
G1 X52.394 Y92.036 E.03957
G1 X52.187 Y91.401 E.02877
G1 X51.963 Y90.873 E.02471
G1 X51.764 Y90.499 E.01825
G1 X51.445 Y90.008 E.02524
G1 X51.069 Y89.543 E.02578
G1 X50.646 Y89.12 E.02577
G1 X50.181 Y88.743 E.02578
G1 X49.679 Y88.417 E.02578
G1 X49.157 Y88.151 E.02524
G1 X48.764 Y87.993 E.01825
G1 X48.199 Y87.82 E.02545
G1 X47.894 Y87.763 E.01337
G1 X47.869 Y87.514 E.01079
G1 X48.298 Y87.34 E.01993
G1 X48.866 Y86.985 E.02884
G1 X49.366 Y86.503 E.02992
G1 X49.747 Y85.938 E.02938
G1 X49.983 Y85.382 E.026
G1 X50.125 Y84.715 E.02938
G1 X50.125 Y84.02 E.02992
G1 X49.983 Y83.353 E.02938
G1 X49.823 Y82.978 E.01758
G1 X50.005 Y82.845 E.0097
G1 E-.35 F1800
;WIPE_START
G1 F6000
G1 X50.766 Y83.494 E-.1425
;WIPE_END
G1 E-.0075 F1800
G17
G3 Z.3 I-.25 J-.174 P1  F30000
G1 X49.09 Y85.898 Z.3
G1 X48.917 Y86.127
G1 X48.722 Y86.336
G1 X48.491 Y86.505
G1 X44.536 Y88.745
G1 Z.2
G1 E.5 F1800
G1 F6000
G1 X44.558 Y88.732 E.0011
G1 X45.008 Y88.539 E.02108
G1 X45.568 Y88.364 E.02531
G1 X46.044 Y88.269 E.02087
G1 X46.465 Y88.222 E.01828
G1 X46.999 Y88.213 E.02299
G1 X47.487 Y88.253 E.02108
G1 X48.066 Y88.362 E.02539
G1 X48.578 Y88.518 E.02306
G1 X48.926 Y88.659 E.01616
G1 X49.4 Y88.9 E.02294
G1 X49.853 Y89.195 E.02326
G1 X50.272 Y89.534 E.02326
G1 X50.654 Y89.916 E.02326
G1 X50.994 Y90.336 E.02326
G1 X51.284 Y90.782 E.02294
G1 X51.46 Y91.113 E.01615
G1 X51.665 Y91.597 E.02261
G1 X51.783 Y91.958 E.01639
G1 X51.918 Y92.583 E.02753
G1 X51.967 Y93.012 E.01861
G1 X51.976 Y93.548 E.02307
G1 X51.929 Y94.086 E.02326
G1 X51.827 Y94.608 E.02294
G1 X51.724 Y94.969 E.01615
G1 X51.533 Y95.466 E.02294
G1 X51.288 Y95.947 E.02326
G1 X50.995 Y96.398 E.02318
G1 X50.693 Y96.774 E.02075
G1 X50.401 Y97.081 E.01828
G1 X49.997 Y97.432 E.02307
G1 X49.554 Y97.742 E.02326
G1 X49.082 Y98.004 E.02326
G1 X48.587 Y98.214 E.02318
G1 X48.127 Y98.357 E.02075
