; HEADER_BLOCK_START
; generated by OrcaSlicer 1.6.6 on 2023-12-22 at 00:20:12
; total layer number: 47
; HEADER_BLOCK_END

; THUMBNAIL_BLOCK_START
; THUMBNAIL_BLOCK_END

; external perimeters extrusion width = 0.48mm
; perimeters extrusion width = 0.48mm
; infill extrusion width = 0.48mm
; solid infill extrusion width = 0.48mm
; top infill extrusion width = 0.48mm
; support material extrusion width = 0.40mm
; first layer extrusion width = 0.60mm

; external perimeters extrusion width = 0.48mm
; perimeters extrusion width = 0.48mm
; infill extrusion width = 0.48mm
; solid infill extrusion width = 0.48mm
; top infill extrusion width = 0.48mm
; support material extrusion width = 0.40mm
; first layer extrusion width = 0.60mm

; EXECUTABLE_BLOCK_START
EXCLUDE_OBJECT_DEFINE NAME=KlickyNG_Cap_3mm.stl_id_0_copy_0 CENTER=28.6155,30.861 POLYGON=[[15.0985,36.7181],[15.0985,27.4363],[15.0985,25.4693],[15.0997,25.4403],[15.1184,25.351],[15.1584,25.267],[15.2177,25.1913],[15.2935,25.1262],[15.3828,25.0737],[15.4823,25.0352],[15.5887,25.0117],[15.6985,25.0038],[41.5325,25.0039],[41.6424,25.0118],[41.7488,25.0353],[41.8483,25.0738],[41.9376,25.1262],[42.0134,25.1913],[42.0726,25.267],[42.1127,25.351],[42.1314,25.4403],[42.1325,25.4693],[42.1325,36.7181],[39.4733,36.7181],[33.5277,36.7181],[15.0985,36.7181]]
EXCLUDE_OBJECT_DEFINE NAME=KlickyNG_Cap_3mm.stl_id_1_copy_0 CENTER=96.5367,80.1281 POLYGON=[[83.0197,85.9852],[83.0197,76.7034],[83.0197,74.7364],[83.0209,74.7074],[83.0396,74.6181],[83.0796,74.5341],[83.1389,74.4584],[83.2146,74.3933],[83.3039,74.3408],[83.4035,74.3024],[83.5099,74.2789],[83.6197,74.271],[109.454,74.271],[109.564,74.2789],[109.67,74.3024],[109.769,74.3409],[109.859,74.3934],[109.935,74.4584],[109.994,74.5342],[110.034,74.6182],[110.053,74.7075],[110.054,74.7365],[110.054,85.9853],[107.394,85.9853],[101.449,85.9853],[83.0197,85.9852]]
M73 P0 R6
;TYPE:Custom
M104 S0
M140 S0

print_start EXTRUDER=280 BED=110

G92 E0.0
G90
G21
M83 ; use relative distances for extrusion
; Filament gcode
SET_PRESSURE_ADVANCE ADVANCE=0.02; Override pressure advance value
M106 S0
;LAYER_CHANGE
;Z:0.2
;HEIGHT:0.2
;BEFORE_LAYER_CHANGE
;0.2
G92 E0

G1 E-.5 F1800
;AFTER_LAYER_CHANGE
;0.2
SET_VELOCITY_LIMIT ACCEL=10000
SET_VELOCITY_LIMIT SQUARE_CORNER_VELOCITY=9
; printing object KlickyNG_Cap_3mm.stl id:0 copy 0
EXCLUDE_OBJECT_START NAME=KlickyNG_Cap_3mm.stl_id_0_copy_0
G1 X32.359 Y34.414 F30000
G1 Z.2
G1 E.5 F1800
;TYPE:Inner wall
;WIDTH:0.6
G1 F6000
G1 X32.444 Y34.414 E.00366
G1 X32.484 Y35.254 E.03624
G1 X32.557 Y35.761 E.02207
G1 X24.458 Y35.761 E.34893
G1 X24.532 Y35.254 E.02207
G1 X24.571 Y34.414 E.03623
G1 X27.684 Y34.414 E.13409
G1 X28.028 Y34.493 E.01519
G1 X28.585 Y34.538 E.02407
G1 X29.158 Y34.494 E.02477
G1 X29.503 Y34.414 E.01524
G1 X32.319 Y34.414 E.12131
G1 E-.5 F1800
G17
G3 Z.3 I0 J-.304 P1  F30000
G1 X15.956 Y34.414 Z.3
G1 Z.2
G1 E.5 F1800
G1 F6000
G1 X16.458 Y34.414 E.02163
G1 X16.498 Y35.254 E.03624
G1 X16.571 Y35.761 E.02207
G1 X15.956 Y35.761 E.02653
G1 X15.956 Y34.454 E.05631
G1 E-.5 F1800
G17
G3 Z.3 I0 J.304 P1  F30000
G1 X40.557 Y34.414 Z.3
G1 Z.2
G1 E.5 F1800
G1 F6000
G1 X41.275 Y34.414 E.03093
G1 X41.275 Y35.761 E.05804
G1 X40.444 Y35.761 E.03583
G1 X40.518 Y35.254 E.02207
G1 X40.556 Y34.454 E.03451
G1 E-.5 F1800
G17
G3 Z.3 I.01 J-.304 P1  F30000
G1 X32.991 Y34.196 Z.3
G1 Z.2
G1 E.5 F1800
;TYPE:Outer wall
G1 F6000
G1 X33.039 Y35.201 E.04332
G1 X33.106 Y35.66 E.02001
G1 X33.261 Y36.318 E.02912
G1 X23.99 Y36.318 E.39936
G1 X23.752 Y36.314 E.01025
G1 X23.909 Y35.66 E.02895
G1 X23.976 Y35.201 E.02002
G1 X24.024 Y34.196 E.04332
G1 X17.005 Y34.196 E.30238
G1 X17.053 Y35.201 E.04332
G1 X17.12 Y35.66 E.02001
G1 X17.275 Y36.318 E.02912
G1 X15.399 Y36.318 E.08083
G1 X15.399 Y34.271 E.08817
G1 X15.663 Y33.857 E.02119
G1 X16.017 Y33.857 E.01526
G1 X27.748 Y33.857 E.50533
G1 X28.113 Y33.941 E.01617
G1 X28.585 Y33.979 E.02041
G1 X29.073 Y33.941 E.02107
G1 X29.439 Y33.857 E.01618
G1 X41.568 Y33.857 E.52251
G1 X41.833 Y34.272 E.02119
G1 X41.833 Y36.318 E.08816
G1 X39.74 Y36.318 E.09013
G1 X39.895 Y35.66 E.02911
G1 X39.962 Y35.201 E.02001
G1 X40.01 Y34.196 E.04332
G1 X33.031 Y34.196 E.30065
G1 E-.5 F1800
G17
G3 Z.3 I-.222 J-.208 P1  F30000
G1 X32.197 Y35.087 Z.3
G1 Z.2
G1 E.5 F1800
;TYPE:Gap infill
;WIDTH:0.833047
G1 F6000
G1 X29.579 Y35.087 E.15993
;WIDTH:0.83305
G1 X29.431 Y35.104 E.00915
;WIDTH:0.790088
G1 X29.228 Y35.126 E.01177
;WIDTH:0.732251
G1 X28.61 Y35.15 E.03297
G1 X27.956 Y35.125 E.03487
;WIDTH:0.757497
G1 X27.904 Y35.121 E.0029
;WIDTH:0.765578
G1 X27.756 Y35.104 E.00833
;WIDTH:0.831335
G1 X27.607 Y35.087 E.00909
G1 X24.818 Y35.087 E.17005
G1 E-.35 F1800
;WIPE_START
G1 F6000
G1 X25.818 Y35.087 E-.1425
;WIPE_END
G1 E-.0075 F1800
G17
G3 Z.3 I.024 J.303 P1  F30000
G1 X33.305 Y34.496 Z.3
G1 X39.696 Y34.496
G1 X40.882 Y35.483
G1 Z.2
G1 E.5 F1800
;WIDTH:0.227079
G1 F6000
G1 X40.91 Y34.692 E.01126
; stop printing object KlickyNG_Cap_3mm.stl id:0 copy 0
; printing object KlickyNG_Cap_3mm.stl id:1 copy 0
G1 E-.35 F1800
;WIPE_START
G1 F6000
G1 X40.882 Y35.483 E-.1425
;WIPE_END
G1 E-.0075 F1800
EXCLUDE_OBJECT_END NAME=KlickyNG_Cap_3mm.stl_id_0_copy_0
EXCLUDE_OBJECT_START NAME=KlickyNG_Cap_3mm.stl_id_1_copy_0
G17
G3 Z.3 I-.192 J.236 P1  F30000
G1 X100.28 Y83.681 Z.3
G1 Z.2
G1 E.5 F1800
;TYPE:Inner wall
;WIDTH:0.6
G1 F6000
G1 X100.365 Y83.681 E.00366
G1 X100.405 Y84.521 E.03624
G1 X100.479 Y85.028 E.02207
G1 X92.379 Y85.028 E.34893
G1 X92.453 Y84.521 E.02207
G1 X92.493 Y83.681 E.03623
G1 X95.605 Y83.681 E.13409
G1 X95.949 Y83.76 E.01519
G1 X96.506 Y83.805 E.02407
G1 X97.079 Y83.761 E.02477
G1 X97.424 Y83.681 E.01524
G1 X100.24 Y83.681 E.12131
G1 E-.5 F1800
G17
G3 Z.3 I0 J-.304 P1  F30000
G1 X83.877 Y83.681 Z.3
G1 Z.2
G1 E.5 F1800
G1 F6000
G1 X84.379 Y83.681 E.02163
G1 X84.419 Y84.521 E.03624
G1 X84.493 Y85.028 E.02207
G1 X83.877 Y85.028 E.02653
G1 X83.877 Y83.721 E.05631
G1 E-.5 F1800
G17
G3 Z.3 I0 J.304 P1  F30000
G1 X108.479 Y83.681 Z.3
G1 Z.2
G1 E.5 F1800
G1 F6000
G1 X109.197 Y83.681 E.03093
G1 X109.197 Y85.028 E.05804
G1 X108.365 Y85.028 E.03583
G1 X108.439 Y84.521 E.02207
G1 X108.477 Y83.721 E.03451
G1 E-.5 F1800
G17
G3 Z.3 I.01 J-.304 P1  F30000
G1 X100.912 Y83.463 Z.3
G1 Z.2
M73 P1 R6
G1 E.5 F1800
;TYPE:Outer wall
G1 F6000
G1 X100.96 Y84.468 E.04332
G1 X101.027 Y84.927 E.02001
G1 X101.182 Y85.585 E.02912
G1 X91.911 Y85.585 E.39936
G1 X91.673 Y85.581 E.01025
G1 X91.831 Y84.927 E.02895
G1 X91.898 Y84.468 E.02002
G1 X91.945 Y83.463 E.04332
G1 X84.926 Y83.463 E.30238
G1 X84.974 Y84.468 E.04332
G1 X85.041 Y84.927 E.02001
G1 X85.196 Y85.585 E.02912
G1 X83.32 Y85.585 E.08083
G1 X83.32 Y83.539 E.08817
G1 X83.584 Y83.124 E.02119
G1 X83.939 Y83.124 E.01526
G1 X95.669 Y83.124 E.50533
G1 X96.034 Y83.208 E.01617
G1 X96.507 Y83.246 E.02041
G1 X96.994 Y83.209 E.02107
G1 X97.36 Y83.124 E.01618
G1 X109.489 Y83.124 E.52251
G1 X109.754 Y83.539 E.02119
G1 X109.754 Y85.585 E.08816
G1 X107.662 Y85.585 E.09013
G1 X107.817 Y84.927 E.02911
G1 X107.884 Y84.468 E.02001
G1 X107.931 Y83.463 E.04332
G1 X100.952 Y83.463 E.30065
G1 E-.5 F1800
G17
G3 Z.3 I-.222 J-.208 P1  F30000
G1 X100.118 Y84.355 Z.3
G1 Z.2
G1 E.5 F1800
;TYPE:Gap infill
;WIDTH:0.833047
G1 F6000
G1 X97.501 Y84.355 E.15993
;WIDTH:0.83305
G1 X97.352 Y84.372 E.00915
;WIDTH:0.790088
G1 X97.149 Y84.393 E.01177
;WIDTH:0.732251
G1 X96.531 Y84.417 E.03297
G1 X95.877 Y84.392 E.03487
;WIDTH:0.757497
G1 X95.825 Y84.388 E.0029
;WIDTH:0.765578
G1 X95.677 Y84.371 E.00833
;WIDTH:0.831335
G1 X95.529 Y84.355 E.00909
G1 X92.739 Y84.355 E.17005
G1 E-.35 F1800
;WIPE_START
G1 F6000
G1 X93.739 Y84.355 E-.1425
;WIPE_END
G1 E-.0075 F1800
G17
G3 Z.3 I.024 J.303 P1  F30000
G1 X101.227 Y83.763 Z.3
G1 X107.617 Y83.763
G1 X108.803 Y84.75
G1 Z.2
G1 E.5 F1800
;WIDTH:0.227079
G1 F6000
G1 X108.831 Y83.96 E.01126
; stop printing object KlickyNG_Cap_3mm.stl id:1 copy 0
M106 S53
;LAYER_CHANGE
;Z:0.4
;HEIGHT:0.2
;BEFORE_LAYER_CHANGE
;0.4
G92 E0

G1 E-.35 F1800
;WIPE_START
G1 F6000
G1 X108.803 Y84.75 E-.1425
;WIPE_END
G1 E-.0075 F1800
EXCLUDE_OBJECT_END NAME=KlickyNG_Cap_3mm.stl_id_1_copy_0
;AFTER_LAYER_CHANGE
;0.4
M140 S110 ; set bed temperature
; printing object KlickyNG_Cap_3mm.stl id:0 copy 0
SET_VELOCITY_LIMIT SQUARE_CORNER_VELOCITY=12
EXCLUDE_OBJECT_START NAME=KlickyNG_Cap_3mm.stl_id_0_copy_0
G17
G3 Z.4 I.334 J-.509 P1  F30000
G1 X32.151 Y34.429 Z.4
G1 E.5 F1800
SET_VELOCITY_LIMIT SQUARE_CORNER_VELOCITY=7
;TYPE:Inner wall
;WIDTH:0.48
G1 F12000
G1 X32.198 Y34.429 E.00158
G1 X32.189 Y34.888 E.01551
G1 X32.215 Y35.304 E.01409
G1 X24.799 Y35.304 E.25067
G1 X24.827 Y34.89 E.01402
G1 X24.817 Y34.429 E.01558
G1 X27.009 Y34.429 E.07408
G1 X27.522 Y34.627 E.0186
G1 X28.232 Y34.797 E.02466
G1 X28.59 Y34.823 E.01215
G1 X28.952 Y34.798 E.01224
G1 X29.665 Y34.627 E.02478
G1 X30.178 Y34.429 E.01859
G1 X32.111 Y34.429 E.06534
SET_VELOCITY_LIMIT SQUARE_CORNER_VELOCITY=12
G1 X32.644 Y33.992 F30000
SET_VELOCITY_LIMIT SQUARE_CORNER_VELOCITY=7
G1 F12000
G1 X32.626 Y34.879 E.02996
G1 X32.655 Y35.331 E.01533
G1 X32.707 Y35.741 E.01396
G1 X24.309 Y35.741 E.28385
G1 X24.351 Y35.44 E.01027
G1 X24.389 Y34.88 E.01898
G1 X24.371 Y33.992 E.03001
G1 X27.11 Y33.992 E.09258
G1 X27.265 Y34.068 E.00584
G1 X27.649 Y34.208 E.01378
G1 X28.299 Y34.364 E.02261
G1 X28.591 Y34.385 E.00991
G1 X28.885 Y34.365 E.00997
G1 X29.538 Y34.208 E.0227
G1 X29.921 Y34.068 E.01376
G1 X30.077 Y33.992 E.00588
G1 X32.604 Y33.992 E.0854
SET_VELOCITY_LIMIT SQUARE_CORNER_VELOCITY=12
G1 E-.5 F1800
G17
G3 Z.5 I0 J-.304 P1  F30000
G1 X16.658 Y33.992 Z.5
G1 Z.4
G1 E.5 F1800
SET_VELOCITY_LIMIT SQUARE_CORNER_VELOCITY=7
G1 F12000
G1 X16.64 Y34.879 E.02996
G1 X16.669 Y35.331 E.01533
G1 X16.721 Y35.741 E.01396
G1 X15.776 Y35.741 E.03197
G1 X15.776 Y34.14 E.05412
G1 X15.87 Y33.992 E.00592
G1 X16.618 Y33.992 E.02529
SET_VELOCITY_LIMIT SQUARE_CORNER_VELOCITY=12
G1 E-.5 F1800
G17
G3 Z.5 I0 J.304 P1  F30000
G1 X40.357 Y33.992 Z.5
G1 Z.4
G1 E.5 F1800
SET_VELOCITY_LIMIT SQUARE_CORNER_VELOCITY=7
G1 F12000
G1 X41.361 Y33.992 E.03395
G1 X41.455 Y34.14 E.00592
G1 X41.455 Y35.741 E.05412
G1 X40.294 Y35.741 E.03925
G1 X40.347 Y35.331 E.01397
G1 X40.375 Y34.878 E.01534
G1 X40.358 Y34.032 E.0286
SET_VELOCITY_LIMIT SQUARE_CORNER_VELOCITY=12
G1 E-.5 F1800
G17
G3 Z.5 I-.001 J-.304 P1  F30000
G1 X33.08 Y34.056 Z.5
G1 Z.4
G1 E.5 F1800
SET_VELOCITY_LIMIT SQUARE_CORNER_VELOCITY=7
;TYPE:Outer wall
G1 F12000
G1 X33.063 Y34.869 E.02748
G1 X33.09 Y35.29 E.01426
G1 X33.152 Y35.775 E.01653
G1 X33.219 Y36.102 E.01128
G1 X33.181 Y36.178 E.00287
G1 X23.834 Y36.178 E.31592
G1 X23.796 Y36.102 E.00287
G1 X23.916 Y35.395 E.02424
G1 X23.952 Y34.87 E.01779
G1 X23.935 Y34.056 E.02752
G1 X17.094 Y34.056 E.23122
G1 X17.077 Y34.869 E.02748
G1 X17.104 Y35.29 E.01426
G1 X17.166 Y35.775 E.01653
G1 X17.233 Y36.102 E.01128
G1 X17.196 Y36.178 E.00286
G1 X15.339 Y36.178 E.06277
G1 F9055.963
G1 X15.339 Y34.012 E.07321
G1 F3000
G1 X15.629 Y33.557 E.01824
G1 F2984.198
G1 X15.63 Y33.555 E.00008
G1 X17.055 Y33.555 E.04816
G1 X17.777 Y33.555 E.0244
G1 X26.49 Y33.555 E.29449
G1 X27.211 Y33.555 E.02437
G1 X27.214 Y33.557 E.00012
G1 F3000
G1 X27.437 Y33.665 E.00837
G1 F8976.049
G1 X27.775 Y33.789 E.01217
M106 S53
G1 F12000
G1 X28.366 Y33.93 E.02054
G1 X28.592 Y33.947 E.00766
G1 X28.819 Y33.931 E.00769
G1 X29.412 Y33.788 E.02062
G1 F8976.37
G1 X29.75 Y33.665 E.01216
G1 F3000
G1 X29.973 Y33.557 E.00837
G1 F2984.218
G1 X29.977 Y33.555 E.00015
G1 X30.698 Y33.555 E.02437
G1 X40.879 Y33.555 E.34411
G1 X41.601 Y33.555 E.0244
G1 X41.602 Y33.557 E.00008
G1 F3000
G1 X41.893 Y34.012 E.01825
G1 F9055.761
G1 X41.893 Y36.178 E.07321
M106 S53
M73 P2 R6
G1 F12000
G1 X39.82 Y36.178 E.07007
G1 X39.782 Y36.102 E.00287
G1 X39.849 Y35.775 E.01128
G1 X39.911 Y35.29 E.01653
G1 X39.938 Y34.869 E.01426
G1 X39.921 Y34.056 E.02748
G1 X33.12 Y34.056 E.22987
SET_VELOCITY_LIMIT SQUARE_CORNER_VELOCITY=12
G1 X32.866 Y33.806 F30000
SET_VELOCITY_LIMIT SQUARE_CORNER_VELOCITY=9
;TYPE:Gap infill
;WIDTH:0.10678
G1 F6000
G1 X40.134 Y33.806 E.03589
SET_VELOCITY_LIMIT SQUARE_CORNER_VELOCITY=12
G1 E-.35 F1800
;WIPE_START
G1 F6000
G1 X39.134 Y33.806 E-.1425
;WIPE_END
G1 E-.0075 F1800
G17
G3 Z.5 I-.026 J-.303 P1  F30000
G1 X33.315 Y34.296 Z.5
G1 X31.979 Y34.867
G1 Z.4
G1 E.5 F1800
SET_VELOCITY_LIMIT SQUARE_CORNER_VELOCITY=9
;WIDTH:0.480469
G1 F6000
G1 X30.268 Y34.867 E.05788
;WIDTH:0.480469
G1 X30.144 Y34.889 E.00426
;WIDTH:0.435416
G1 X30.021 Y34.912 E.00382
;WIDTH:0.390363
G1 X29.897 Y34.934 E.00338
;WIDTH:0.340235
G1 X29.757 Y34.959 E.00326
;WIDTH:0.295509
G1 X29.566 Y34.982 E.00376
;WIDTH:0.250176
G1 X29.375 Y35.004 E.00308
;WIDTH:0.204843
G1 X29.184 Y35.027 E.00241
;WIDTH:0.158144
G1 X28.987 Y35.05 E.00177
;WIDTH:0.113267
G1 X28.77 Y35.058 E.00118
SET_VELOCITY_LIMIT SQUARE_CORNER_VELOCITY=12
G1 X28.42 Y35.058 F30000
SET_VELOCITY_LIMIT SQUARE_CORNER_VELOCITY=9
;WIDTH:0.100879
G1 F6000
G1 X28.19 Y35.049 E.00103
;WIDTH:0.115389
G1 X28 Y35.027 E.00107
;WIDTH:0.160364
G1 X27.81 Y35.004 E.00174
;WIDTH:0.205339
G1 X27.62 Y34.982 E.0024
;WIDTH:0.253792
G1 X27.414 Y34.957 E.00338
;WIDTH:0.300052
G1 X27.29 Y34.934 E.0025
;WIDTH:0.345155
G1 X27.166 Y34.912 E.00294
;WIDTH:0.390258
G1 X27.042 Y34.889 E.00338
;WIDTH:0.477636
G1 X26.918 Y34.867 E.00423
G1 X25.036 Y34.867 E.06327
SET_VELOCITY_LIMIT SQUARE_CORNER_VELOCITY=12
G1 X24.148 Y33.806 F30000
SET_VELOCITY_LIMIT SQUARE_CORNER_VELOCITY=9
;WIDTH:0.106766
G1 F6000
G1 X16.88 Y33.806 E.03588
SET_VELOCITY_LIMIT SQUARE_CORNER_VELOCITY=12
G1 X16.215 Y34.211 F30000
SET_VELOCITY_LIMIT SQUARE_CORNER_VELOCITY=9
;WIDTH:0.475107
G1 F6000
G1 X16.208 Y34.879 E.02233
G1 X16.233 Y35.522 E.02152
; stop printing object KlickyNG_Cap_3mm.stl id:0 copy 0
; printing object KlickyNG_Cap_3mm.stl id:1 copy 0
SET_VELOCITY_LIMIT SQUARE_CORNER_VELOCITY=12
G1 E-.35 F1800
;WIPE_START
G1 F6000
G1 X16.208 Y34.879 E-.09177
G1 X16.211 Y34.523 E-.05073
;WIPE_END
G1 E-.0075 F1800
EXCLUDE_OBJECT_END NAME=KlickyNG_Cap_3mm.stl_id_0_copy_0
EXCLUDE_OBJECT_START NAME=KlickyNG_Cap_3mm.stl_id_1_copy_0
G17
G3 Z.5 I-.154 J.262 P1  F30000
G1 X100.072 Y83.696 Z.5
G1 Z.4
G1 E.5 F1800
SET_VELOCITY_LIMIT SQUARE_CORNER_VELOCITY=7
;TYPE:Inner wall
;WIDTH:0.48
G1 F12000
G1 X100.119 Y83.696 E.00158
G1 X100.11 Y84.155 E.01551
G1 X100.136 Y84.571 E.01409
G1 X92.72 Y84.571 E.25067
G1 X92.748 Y84.157 E.01402
G1 X92.738 Y83.696 E.01558
G1 X94.93 Y83.696 E.07408
G1 X95.444 Y83.894 E.0186
G1 X96.153 Y84.064 E.02466
G1 X96.512 Y84.09 E.01215
G1 X96.873 Y84.066 E.01224
G1 X97.586 Y83.894 E.02478
G1 X98.099 Y83.696 E.01859
G1 X100.032 Y83.696 E.06534
SET_VELOCITY_LIMIT SQUARE_CORNER_VELOCITY=12
G1 X100.565 Y83.259 F30000
SET_VELOCITY_LIMIT SQUARE_CORNER_VELOCITY=7
G1 F12000
G1 X100.547 Y84.146 E.02996
G1 X100.576 Y84.598 E.01533
G1 X100.629 Y85.008 E.01396
G1 X92.23 Y85.008 E.28385
G1 X92.273 Y84.707 E.01027
G1 X92.311 Y84.147 E.01898
G1 X92.292 Y83.259 E.03001
G1 X95.031 Y83.259 E.09258
G1 X95.187 Y83.335 E.00584
G1 X95.57 Y83.475 E.01378
G1 X96.22 Y83.631 E.02261
G1 X96.512 Y83.652 E.00991
G1 X96.807 Y83.632 E.00997
G1 X97.459 Y83.475 E.0227
G1 X97.842 Y83.336 E.01376
G1 X97.998 Y83.259 E.00588
G1 X100.525 Y83.259 E.0854
SET_VELOCITY_LIMIT SQUARE_CORNER_VELOCITY=12
G1 E-.5 F1800
G17
G3 Z.5 I0 J-.304 P1  F30000
G1 X84.579 Y83.259 Z.5
G1 Z.4
G1 E.5 F1800
SET_VELOCITY_LIMIT SQUARE_CORNER_VELOCITY=7
G1 F12000
G1 X84.561 Y84.146 E.02996
G1 X84.59 Y84.598 E.01533
G1 X84.643 Y85.008 E.01396
G1 X83.697 Y85.008 E.03197
G1 X83.697 Y83.407 E.05412
G1 X83.791 Y83.259 E.00592
G1 X84.539 Y83.259 E.02529
SET_VELOCITY_LIMIT SQUARE_CORNER_VELOCITY=12
G1 E-.5 F1800
G17
G3 Z.5 I0 J.304 P1  F30000
G1 X108.278 Y83.259 Z.5
G1 Z.4
G1 E.5 F1800
SET_VELOCITY_LIMIT SQUARE_CORNER_VELOCITY=7
G1 F12000
G1 X109.282 Y83.259 E.03395
G1 X109.377 Y83.407 E.00592
G1 X109.377 Y85.008 E.05412
G1 X108.215 Y85.008 E.03925
G1 X108.268 Y84.598 E.01397
G1 X108.297 Y84.146 E.01534
G1 X108.279 Y83.299 E.0286
SET_VELOCITY_LIMIT SQUARE_CORNER_VELOCITY=12
G1 E-.5 F1800
G17
G3 Z.5 I-.001 J-.304 P1  F30000
G1 X101.001 Y83.323 Z.5
G1 Z.4
G1 E.5 F1800
SET_VELOCITY_LIMIT SQUARE_CORNER_VELOCITY=7
;TYPE:Outer wall
G1 F12000
