; HEADER_BLOCK_START
; generated by OrcaSlicer 1.6.6 on 2023-12-22 at 01:42:47
; total layer number: 47
; HEADER_BLOCK_END

; THUMBNAIL_BLOCK_START
; THUMBNAIL_BLOCK_END

; external perimeters extrusion width = 0.48mm
; perimeters extrusion width = 0.48mm
; infill extrusion width = 0.48mm
; solid infill extrusion width = 0.48mm
; top infill extrusion width = 0.48mm
; support material extrusion width = 0.40mm
; first layer extrusion width = 0.60mm

; EXECUTABLE_BLOCK_START
EXCLUDE_OBJECT_DEFINE NAME=KlickyNG_Cap_3mm.stl_id_0_copy_0 CENTER=63.8026,64.1427 POLYGON=[[50.2856,69.5343],[50.2856,58.2855],[52.9449,58.2855],[58.8904,58.2855],[77.3196,58.2856],[77.3196,67.5674],[77.3196,69.5344],[77.3184,69.5634],[77.2997,69.6527],[77.2597,69.7367],[77.2005,69.8124],[77.1247,69.8775],[77.0354,69.93],[76.9359,69.9684],[76.8295,69.9919],[76.7196,69.9998],[50.8856,69.9998],[50.7758,69.9918],[50.6694,69.9684],[50.5699,69.9299],[50.4806,69.8774],[50.4048,69.8124],[50.3455,69.7366],[50.3055,69.6526],[50.2868,69.5633],[50.2856,69.5343]]
M73 P0 R3
;TYPE:Custom
M104 S0
M140 S0

print_start EXTRUDER=280 BED=110

G92 E0.0
G90
G21
M83 ; use relative distances for extrusion
; Filament gcode
SET_PRESSURE_ADVANCE ADVANCE=0.02; Override pressure advance value
M106 S0
;LAYER_CHANGE
;Z:0.2
;HEIGHT:0.2
;BEFORE_LAYER_CHANGE
;0.2
G92 E0

G1 E-.5 F1800
;AFTER_LAYER_CHANGE
;0.2
SET_VELOCITY_LIMIT ACCEL=10000
SET_VELOCITY_LIMIT SQUARE_CORNER_VELOCITY=9
; printing object KlickyNG_Cap_3mm.stl id:0 copy 0
EXCLUDE_OBJECT_START NAME=KlickyNG_Cap_3mm.stl_id_0_copy_0
G1 X60.06 Y60.59 F30000
G1 Z.2
G1 E.5 F1800
;TYPE:Inner wall
;WIDTH:0.6
G1 F6000
G1 X59.975 Y60.59 E.00366
G1 X59.935 Y59.75 E.03624
G1 X59.861 Y59.243 E.02207
G1 X67.96 Y59.243 E.34893
G1 X67.887 Y59.75 E.02207
G1 X67.847 Y60.59 E.03623
G1 X64.734 Y60.59 E.13409
G1 X64.39 Y60.511 E.01519
G1 X63.834 Y60.466 E.02407
G1 X63.26 Y60.51 E.02477
G1 X62.916 Y60.59 E.01524
G1 X60.1 Y60.59 E.12131
G1 E-.5 F1800
G17
G3 Z.3 I0 J.304 P1  F30000
G1 X76.463 Y60.59 Z.3
G1 Z.2
G1 E.5 F1800
G1 F6000
G1 X75.961 Y60.59 E.02163
G1 X75.92 Y59.75 E.03624
G1 X75.847 Y59.243 E.02207
G1 X76.463 Y59.243 E.02653
G1 X76.463 Y60.55 E.05631
G1 E-.5 F1800
G17
G3 Z.3 I0 J-.304 P1  F30000
G1 X51.861 Y60.59 Z.3
G1 Z.2
G1 E.5 F1800
G1 F6000
G1 X51.143 Y60.59 E.03093
G1 X51.143 Y59.243 E.05804
G1 X51.974 Y59.243 E.03583
G1 X51.901 Y59.75 E.02207
G1 X51.863 Y60.55 E.03451
G1 E-.5 F1800
G17
G3 Z.3 I-.01 J.304 P1  F30000
G1 X59.427 Y60.808 Z.3
G1 Z.2
G1 E.5 F1800
;TYPE:Outer wall
G1 F6000
G1 X59.379 Y59.803 E.04332
G1 X59.312 Y59.343 E.02001
G1 X59.157 Y58.686 E.02912
G1 X68.664 Y58.686 E.40953
G1 X68.509 Y59.343 E.02911
G1 X68.442 Y59.803 E.02002
G1 X68.394 Y60.808 E.04332
G1 X75.413 Y60.808 E.30238
G1 X75.365 Y59.803 E.04332
G1 X75.298 Y59.343 E.02001
G1 X75.143 Y58.686 E.02912
G1 X77.02 Y58.686 E.08083
G1 X77.02 Y60.732 E.08817
G1 X76.755 Y61.147 E.02119
G1 X64.671 Y61.147 E.52059
G1 X64.305 Y61.063 E.01617
G1 X63.833 Y61.024 E.02041
G1 X63.345 Y61.062 E.02107
G1 X62.979 Y61.147 E.01618
G1 X50.85 Y61.147 E.52251
M73 P1 R3
G1 X50.586 Y60.732 E.02119
G1 X50.586 Y58.686 E.08816
G1 X52.678 Y58.686 E.09013
G1 X52.523 Y59.343 E.02911
G1 X52.456 Y59.803 E.02001
G1 X52.408 Y60.808 E.04332
G1 X59.387 Y60.808 E.30065
G1 E-.5 F1800
G17
G3 Z.3 I.222 J.208 P1  F30000
G1 X60.221 Y59.916 Z.3
G1 Z.2
G1 E.5 F1800
;TYPE:Gap infill
;WIDTH:0.831209
G1 F6000
G1 X62.839 Y59.916 E.15955
G1 X62.988 Y59.899 E.00913
;WIDTH:0.765093
G1 X63.136 Y59.882 E.00837
;WIDTH:0.756881
G1 X63.19 Y59.878 E.00297
;WIDTH:0.73187
G1 X63.808 Y59.854 E.03295
G1 X64.462 Y59.878 E.03485
;WIDTH:0.790521
G1 X64.662 Y59.899 E.01166
;WIDTH:0.833049
G1 X64.811 Y59.916 E.00911
;WIDTH:0.833049
G1 X67.6 Y59.916 E.17042
G1 E-.35 F1800
;WIPE_START
G1 F6000
G1 X66.6 Y59.916 E-.1425
;WIPE_END
G1 E-.0075 F1800
G17
G3 Z.3 I-.024 J-.303 P1  F30000
G1 X59.113 Y60.508 Z.3
G1 X52.723 Y60.508
G1 X51.536 Y59.521
G1 Z.2
G1 E.5 F1800
;WIDTH:0.247775
G1 F6000
G1 X51.508 Y60.311 E.01252
; stop printing object KlickyNG_Cap_3mm.stl id:0 copy 0
M106 S61
;LAYER_CHANGE
;Z:0.4
;HEIGHT:0.2
;BEFORE_LAYER_CHANGE
;0.4
G92 E0

G1 E-.35 F1800
;WIPE_START
G1 F6000
G1 X51.536 Y59.521 E-.1425
;WIPE_END
G1 E-.0075 F1800
EXCLUDE_OBJECT_END NAME=KlickyNG_Cap_3mm.stl_id_0_copy_0
;AFTER_LAYER_CHANGE
;0.4
M140 S110 ; set bed temperature
; printing object KlickyNG_Cap_3mm.stl id:0 copy 0
SET_VELOCITY_LIMIT SQUARE_CORNER_VELOCITY=12
EXCLUDE_OBJECT_START NAME=KlickyNG_Cap_3mm.stl_id_0_copy_0
G17
G3 Z.4 I-.429 J.432 P1  F30000
G1 X52.732 Y60.708 Z.4
G1 X59.103 Y60.708
G1 X60.267 Y60.574
G1 E.5 F1800
SET_VELOCITY_LIMIT SQUARE_CORNER_VELOCITY=7
;TYPE:Inner wall
;WIDTH:0.48
G1 F12000
G1 X60.22 Y60.574 E.00158
G1 X60.23 Y60.116 E.01551
G1 X60.203 Y59.7 E.01409
G1 X67.619 Y59.7 E.25067
G1 X67.591 Y60.114 E.01402
G1 X67.601 Y60.574 E.01558
G1 X65.409 Y60.574 E.07408
G1 X64.896 Y60.377 E.0186
G1 X64.186 Y60.206 E.02466
G1 X63.828 Y60.181 E.01215
G1 X63.466 Y60.205 E.01224
G1 X62.754 Y60.377 E.02478
G1 X62.24 Y60.574 E.01859
G1 X60.307 Y60.574 E.06534
SET_VELOCITY_LIMIT SQUARE_CORNER_VELOCITY=12
G1 X59.774 Y61.011 F30000
SET_VELOCITY_LIMIT SQUARE_CORNER_VELOCITY=7
G1 F12000
G1 X59.792 Y60.125 E.02996
G1 X59.763 Y59.672 E.01533
G1 X59.711 Y59.263 E.01396
G1 X68.109 Y59.263 E.28385
G1 X68.067 Y59.563 E.01027
G1 X68.029 Y60.124 E.01898
G1 X68.047 Y61.011 E.03001
G1 X65.308 Y61.011 E.09258
G1 X65.153 Y60.935 E.00584
G1 X64.77 Y60.796 E.01378
G1 X64.119 Y60.64 E.02261
G1 X63.827 Y60.619 E.00991
G1 X63.533 Y60.639 E.00997
G1 X62.88 Y60.796 E.0227
G1 X62.497 Y60.935 E.01376
G1 X62.341 Y61.011 E.00588
G1 X59.814 Y61.011 E.0854
SET_VELOCITY_LIMIT SQUARE_CORNER_VELOCITY=12
G1 E-.5 F1800
G17
G3 Z.5 I0 J.304 P1  F30000
G1 X75.76 Y61.011 Z.5
G1 Z.4
G1 E.5 F1800
SET_VELOCITY_LIMIT SQUARE_CORNER_VELOCITY=7
G1 F12000
G1 X75.778 Y60.125 E.02996
G1 X75.749 Y59.672 E.01533
G1 X75.697 Y59.263 E.01396
G1 X76.643 Y59.263 E.03197
G1 X76.643 Y60.864 E.05412
G1 X76.548 Y61.011 E.00592
G1 X75.8 Y61.011 E.02529
SET_VELOCITY_LIMIT SQUARE_CORNER_VELOCITY=12
G1 E-.5 F1800
G17
G3 Z.5 I0 J-.304 P1  F30000
G1 X52.061 Y61.011 Z.5
G1 Z.4
G1 E.5 F1800
SET_VELOCITY_LIMIT SQUARE_CORNER_VELOCITY=7
G1 F12000
G1 X51.057 Y61.011 E.03395
G1 X50.963 Y60.864 E.00592
G1 X50.963 Y59.263 E.05412
M73 P2 R3
G1 X52.124 Y59.263 E.03925
G1 X52.071 Y59.672 E.01397
G1 X52.043 Y60.125 E.01534
G1 X52.06 Y60.971 E.0286
SET_VELOCITY_LIMIT SQUARE_CORNER_VELOCITY=12
G1 E-.5 F1800
G17
G3 Z.5 I.001 J.304 P1  F30000
G1 X59.338 Y60.948 Z.5
G1 Z.4
G1 E.5 F1800
SET_VELOCITY_LIMIT SQUARE_CORNER_VELOCITY=7
;TYPE:Outer wall
G1 F12000
G1 X59.355 Y60.134 E.02752
G1 X59.328 Y59.714 E.01423
G1 X59.266 Y59.228 E.01656
G1 X59.199 Y58.901 E.01128
G1 X59.237 Y58.826 E.00284
G1 X68.585 Y58.826 E.31596
G1 X68.622 Y58.901 E.00283
G1 X68.502 Y59.609 E.02427
G1 X68.466 Y60.134 E.01779
G1 X68.483 Y60.948 E.02752
G1 X75.324 Y60.948 E.23122
G1 X75.341 Y60.135 E.02748
G1 X75.314 Y59.714 E.01426
G1 X75.252 Y59.228 E.01656
G1 X75.185 Y58.901 E.01128
G1 X75.223 Y58.826 E.00284
G1 X77.08 Y58.826 E.06277
G1 F9055.963
G1 X77.08 Y60.991 E.07318
G1 F3000
G1 X76.789 Y61.447 E.01828
G1 F2984.198
G1 X76.788 Y61.448 E.00005
G1 X76.066 Y61.448 E.0244
G1 X65.929 Y61.448 E.34262
G1 X65.207 Y61.448 E.0244
G1 X65.204 Y61.447 E.00011
G1 F3000
G1 X64.982 Y61.338 E.00836
G1 F8976.05
G1 X64.643 Y61.215 E.01219
M106 S61
G1 F12000
G1 X64.052 Y61.073 E.02054
G1 X63.826 Y61.057 E.00766
G1 X63.599 Y61.072 E.00769
G1 X63.006 Y61.215 E.02062
G1 F8976.37
G1 X62.668 Y61.338 E.01216
G1 F3000
G1 X62.445 Y61.447 E.00839
G1 F2984.218
G1 X62.442 Y61.448 E.00011
G1 X61.72 Y61.448 E.0244
G1 X51.539 Y61.448 E.34411
G1 X50.817 Y61.448 E.0244
G1 X50.816 Y61.447 E.00005
G1 F3000
G1 X50.526 Y60.991 E.01827
G1 F9055.761
G1 X50.526 Y58.826 E.07318
M106 S61
G1 F12000
G1 X52.599 Y58.826 E.07007
G1 X52.636 Y58.901 E.00283
G1 X52.569 Y59.228 E.01128
G1 X52.507 Y59.714 E.01656
G1 X52.48 Y60.135 E.01426
G1 X52.497 Y60.948 E.02748
G1 X59.298 Y60.948 E.22987
SET_VELOCITY_LIMIT SQUARE_CORNER_VELOCITY=12
G1 X59.552 Y61.198 F30000
SET_VELOCITY_LIMIT SQUARE_CORNER_VELOCITY=9
;TYPE:Gap infill
;WIDTH:0.106774
G1 F6000
G1 X52.284 Y61.198 E.03589
SET_VELOCITY_LIMIT SQUARE_CORNER_VELOCITY=12
G1 E-.35 F1800
;WIPE_START
G1 F6000
G1 X53.284 Y61.198 E-.1425
;WIPE_END
G1 E-.0075 F1800
G17
G3 Z.5 I.026 J.303 P1  F30000
G1 X59.103 Y60.708 Z.5
G1 X60.44 Y60.137
G1 Z.4
G1 E.5 F1800
SET_VELOCITY_LIMIT SQUARE_CORNER_VELOCITY=9
;WIDTH:0.477384
G1 F6000
G1 X62.15 Y60.137 E.05747
G1 X62.274 Y60.114 E.00423
;WIDTH:0.390363
G1 X62.398 Y60.092 E.00338
;WIDTH:0.34531
G1 X62.521 Y60.069 E.00294
;WIDTH:0.300257
G1 X62.645 Y60.047 E.0025
;WIDTH:0.295507
G1 X62.661 Y60.045 E.00031
;WIDTH:0.250176
G1 X62.852 Y60.022 E.00308
;WIDTH:0.204843
G1 X63.043 Y59.999 E.00241
;WIDTH:0.159511
G1 X63.234 Y59.977 E.00173
;WIDTH:0.114178
G1 X63.425 Y59.954 E.00106
;WIDTH:0.100861
G1 X63.648 Y59.946 E.001
SET_VELOCITY_LIMIT SQUARE_CORNER_VELOCITY=12
G1 X63.998 Y59.946 F30000
SET_VELOCITY_LIMIT SQUARE_CORNER_VELOCITY=9
;WIDTH:0.11448
G1 F6000
G1 X64.222 Y59.954 E.00124
;WIDTH:0.159013
G1 X64.418 Y59.977 E.00177
;WIDTH:0.205339
G1 X64.608 Y59.999 E.0024
;WIDTH:0.250314
G1 X64.798 Y60.022 E.00307
;WIDTH:0.295289
G1 X64.988 Y60.044 E.00373
;WIDTH:0.340059
G1 X65.128 Y60.069 E.00326
;WIDTH:0.390258
G1 X65.252 Y60.092 E.00338
;WIDTH:0.435362
G1 X65.376 Y60.114 E.00382
;WIDTH:0.480465
G1 X65.5 Y60.137 E.00426
;WIDTH:0.480463
G1 X67.382 Y60.137 E.06368
SET_VELOCITY_LIMIT SQUARE_CORNER_VELOCITY=12
G1 X68.27 Y61.198 F30000
SET_VELOCITY_LIMIT SQUARE_CORNER_VELOCITY=9
;WIDTH:0.106758
G1 F6000
G1 X75.538 Y61.198 E.03588
SET_VELOCITY_LIMIT SQUARE_CORNER_VELOCITY=12
G1 X76.204 Y60.793 F30000
SET_VELOCITY_LIMIT SQUARE_CORNER_VELOCITY=9
;WIDTH:0.485484
G1 F6000
G1 X76.21 Y60.125 E.02287
G1 X76.185 Y59.481 E.02204
; stop printing object KlickyNG_Cap_3mm.stl id:0 copy 0
M106 S122
;LAYER_CHANGE
;Z:0.6
;HEIGHT:0.2
;BEFORE_LAYER_CHANGE
;0.6
G92 E0

G1 E-.35 F1800
;WIPE_START
G1 F6000
G1 X76.21 Y60.125 E-.09177
G1 X76.207 Y60.481 E-.05073
;WIPE_END
G1 E-.0075 F1800
EXCLUDE_OBJECT_END NAME=KlickyNG_Cap_3mm.stl_id_0_copy_0
;AFTER_LAYER_CHANGE
;0.6
; printing object KlickyNG_Cap_3mm.stl id:0 copy 0
SET_VELOCITY_LIMIT SQUARE_CORNER_VELOCITY=12
EXCLUDE_OBJECT_START NAME=KlickyNG_Cap_3mm.stl_id_0_copy_0
G17
G3 Z.6 I-.23 J-.563 P1  F30000
G1 X72.663 Y61.93 Z.6
G1 X64.327 Y60.639
M73 P3 R3
G1 X64.106 Y60.61
G1 X63.834 Y60.596
G1 X63.558 Y60.608
G1 X60.194 Y60.816
G1 E.5 F1800
SET_VELOCITY_LIMIT SQUARE_CORNER_VELOCITY=7
;TYPE:Inner wall
;WIDTH:0.48
G1 F12000
G1 X60.221 Y60.527 E.0098
G1 X60.23 Y59.9 E.02121
G1 X62.999 Y59.9 E.09358
G1 X63.037 Y60.117 E.00744
G1 X62.76 Y60.217 E.00994
G1 X62.267 Y60.512 E.01944
G1 X62.054 Y60.704 E.00967
G1 X61.85 Y60.816 E.00788
G1 X60.234 Y60.816 E.05461
SET_VELOCITY_LIMIT SQUARE_CORNER_VELOCITY=12
G1 E-.5 F1800
G17
G3 Z.7 I0 J.304 P1  F30000
G1 X65.797 Y60.816 Z.7
G1 Z.6
G1 E.5 F1800
SET_VELOCITY_LIMIT SQUARE_CORNER_VELOCITY=7
G1 F12000
G1 X65.601 Y60.707 E.00758
G1 X65.43 Y60.55 E.00783
G1 X65.104 Y60.331 E.0133
G1 X64.82 Y60.187 E.01076
G1 X64.623 Y60.118 E.00704
G1 X64.66 Y59.9 E.00749
G1 X67.591 Y59.9 E.09906
G1 X67.6 Y60.528 E.02123
G1 X67.627 Y60.816 E.00978
G1 X65.837 Y60.816 E.0605
SET_VELOCITY_LIMIT SQUARE_CORNER_VELOCITY=12
G1 E-.5 F1800
G17
G3 Z.7 I-.022 J-.303 P1  F30000
G1 X59.715 Y61.253 Z.7
G1 Z.6
G1 E.5 F1800
SET_VELOCITY_LIMIT SQUARE_CORNER_VELOCITY=7
G1 F12000
G1 X59.784 Y60.504 E.02543
G1 X59.792 Y59.944 E.01894
G1 X59.76 Y59.463 E.01629
G1 X68.06 Y59.463 E.28052
G1 X68.028 Y59.944 E.0163
G1 X68.037 Y60.504 E.01894
G1 X68.106 Y61.253 E.02542
G1 X65.668 Y61.253 E.08241
G1 X65.343 Y61.064 E.0127
G1 X65.159 Y60.894 E.00847
G1 X64.882 Y60.709 E.01126
G1 X64.648 Y60.59 E.00887
G1 X64.345 Y60.484 E.01084
G1 X63.833 Y60.414 E.01747
G1 X63.313 Y60.482 E.01773
G1 X62.949 Y60.613 E.0131
G1 X62.528 Y60.865 E.01657
G1 X62.31 Y61.062 E.00994
G1 X61.979 Y61.253 E.0129
G1 X59.755 Y61.253 E.07518
SET_VELOCITY_LIMIT SQUARE_CORNER_VELOCITY=12
G1 E-.35 F1800
;WIPE_START
G1 F12000
G1 X59.784 Y60.504 E-.10683
G1 X59.788 Y60.254 E-.03567
;WIPE_END
G1 E-.0075 F1800
G17
G3 Z.7 I-.022 J.303 P1  F30000
G1 X68.754 Y60.908 Z.7
G1 X75.701 Y61.253
G1 Z.6
G1 E.5 F1800
SET_VELOCITY_LIMIT SQUARE_CORNER_VELOCITY=7
G1 F12000
G1 X75.77 Y60.504 E.02543
G1 X75.778 Y59.944 E.01894
G1 X75.746 Y59.463 E.01629
G1 X76.643 Y59.463 E.03029
G1 X76.643 Y61.105 E.05552
G1 X76.548 Y61.253 E.00592
G1 X75.741 Y61.253 E.02728
SET_VELOCITY_LIMIT SQUARE_CORNER_VELOCITY=12
G1 E-.35 F1800
;WIPE_START
G1 F12000
G1 X75.77 Y60.504 E-.10683
G1 X75.774 Y60.254 E-.03567
;WIPE_END
G1 E-.0075 F1800
G17
G3 Z.7 I-.218 J-.213 P1  F30000
G1 X74.136 Y61.93 Z.7
G1 X64.106 Y60.61
G1 X63.834 Y60.596
G1 X63.558 Y60.608
G1 X52.12 Y61.93
G1 X52.12 Y61.253
G1 Z.6
G1 E.5 F1800
SET_VELOCITY_LIMIT SQUARE_CORNER_VELOCITY=7
G1 F12000
G1 X51.057 Y61.253 E.03594
G1 X50.963 Y61.105 E.00592
G1 X50.963 Y59.463 E.05552
G1 X52.074 Y59.463 E.03756
G1 X52.042 Y59.944 E.0163
G1 X52.051 Y60.504 E.01894
G1 X52.116 Y61.213 E.02407
SET_VELOCITY_LIMIT SQUARE_CORNER_VELOCITY=12
G1 E-.5 F1800
G17
G3 Z.7 I.003 J.304 P1  F30000
M73 P3 R2
G1 X59.286 Y61.148 Z.7
G1 Z.6
G1 E.5 F1800
SET_VELOCITY_LIMIT SQUARE_CORNER_VELOCITY=7
;TYPE:Outer wall
G1 F12000
G1 X59.348 Y60.481 E.02264
G1 X59.355 Y59.955 E.01778
G1 X59.319 Y59.41 E.01846
G1 X59.277 Y59.113 E.01014
G1 X59.325 Y59.026 E.00336
G1 X68.272 Y59.026 E.3024
M73 P4 R2
G1 X68.496 Y59.026 E.00757
G1 X68.544 Y59.113 E.00336
G1 X68.502 Y59.41 E.01014
G1 X68.466 Y59.955 E.01846
G1 X68.474 Y60.481 E.01778
G1 X68.535 Y61.148 E.02264
G1 X75.272 Y61.148 E.22771
G1 X75.334 Y60.481 E.02264
G1 X75.341 Y59.955 E.01778
G1 X75.305 Y59.41 E.01846
G1 X75.263 Y59.113 E.01014
G1 X75.31 Y59.026 E.00334
G1 X77.08 Y59.026 E.05982
G1 F9055.952
G1 X77.08 Y61.233 E.0746
G1 F3000
G1 X76.789 Y61.688 E.01825
G1 F2984.188
G1 X76.788 Y61.69 E.00008
G1 X76.066 Y61.69 E.0244
G1 X66.255 Y61.69 E.3316
G1 X65.533 Y61.69 E.0244
G1 X65.53 Y61.688 E.00012
G1 F3000
G1 X65.085 Y61.421 E.01754
M106 S122
G1 F12000
G1 X64.887 Y61.238 E.00911
G1 X64.66 Y61.086 E.00923
G1 X64.477 Y60.993 E.00694
G1 X64.243 Y60.912 E.00837
G1 X63.832 Y60.855 E.01402
G1 X63.417 Y60.909 E.01414
G1 X63.137 Y61.01 E.01006
G1 X62.789 Y61.218 E.0137
G1 X62.565 Y61.421 E.01022
G1 F3000
G1 X62.117 Y61.688 E.01763
G1 F2984.183
G1 X62.114 Y61.69 E.00012
G1 X61.392 Y61.69 E.0244
G1 X51.539 Y61.69 E.33302
G1 X50.817 Y61.69 E.0244
G1 X50.816 Y61.688 E.00008
G1 F3000
G1 X50.526 Y61.233 E.01824
G1 F9055.779
G1 X50.526 Y59.026 E.0746
M106 S122
G1 F12000
G1 X52.51 Y59.026 E.06706
G1 X52.558 Y59.113 E.00336
G1 X52.515 Y59.41 E.01014
G1 X52.48 Y59.955 E.01846
G1 X52.488 Y60.481 E.01778
G1 X52.549 Y61.148 E.02264
G1 X59.246 Y61.148 E.22635
SET_VELOCITY_LIMIT SQUARE_CORNER_VELOCITY=12
G1 X59.48 Y61.419 F30000
SET_VELOCITY_LIMIT SQUARE_CORNER_VELOCITY=9
;TYPE:Gap infill
;WIDTH:0.148354
G1 F6000
G1 X52.355 Y61.419 E.0581
SET_VELOCITY_LIMIT SQUARE_CORNER_VELOCITY=12
G1 X51.53 Y61.034 F30000
SET_VELOCITY_LIMIT SQUARE_CORNER_VELOCITY=9
;WIDTH:0.699896
G1 F6000
G1 X51.501 Y59.681 E.06877
SET_VELOCITY_LIMIT SQUARE_CORNER_VELOCITY=12
G1 E-.35 F1800
;WIPE_START
G1 F6000
G1 X51.522 Y60.681 E-.1425
;WIPE_END
G1 E-.0075 F1800
G17
G3 Z.7 I-.054 J.299 P1  F30000
G1 X52.768 Y60.908 Z.7
G1 X59.067 Y60.908
G1 X60.44 Y60.358
G1 Z.6
G1 E.5 F1800
SET_VELOCITY_LIMIT SQUARE_CORNER_VELOCITY=9
;WIDTH:0.522048
G1 F6000
G1 X62.111 Y60.358 E.06192
SET_VELOCITY_LIMIT SQUARE_CORNER_VELOCITY=12
G1 X63.234 Y59.975 F30000
SET_VELOCITY_LIMIT SQUARE_CORNER_VELOCITY=9
;WIDTH:0.575624
G1 F6000
G1 X63.801 Y59.939 E.0234
G1 X64.425 Y59.977 E.02576
SET_VELOCITY_LIMIT SQUARE_CORNER_VELOCITY=12
G1 X65.299 Y60.199 F30000
SET_VELOCITY_LIMIT SQUARE_CORNER_VELOCITY=9
;WIDTH:0.522045
G1 F6000
G1 X65.915 Y60.358 E.02357
G1 X67.381 Y60.358 E.05432
SET_VELOCITY_LIMIT SQUARE_CORNER_VELOCITY=12
G1 X68.341 Y61.419 F30000
SET_VELOCITY_LIMIT SQUARE_CORNER_VELOCITY=9
;WIDTH:0.148338
G1 F6000
G1 X75.466 Y61.419 E.05809
