; HEADER_BLOCK_START
; generated by OrcaSlicer 1.6.6 on 2023-12-06 at 13:17:19
; total layer number: 145
; HEADER_BLOCK_END

; THUMBNAIL_BLOCK_START
; THUMBNAIL_BLOCK_END

; external perimeters extrusion width = 0.48mm
; perimeters extrusion width = 0.48mm
; infill extrusion width = 0.48mm
; solid infill extrusion width = 0.48mm
; top infill extrusion width = 0.48mm
; support material extrusion width = 0.40mm
; first layer extrusion width = 0.60mm

; EXECUTABLE_BLOCK_START
EXCLUDE_OBJECT_DEFINE NAME=MeanWell_LRS-100-24_Terminal_Cover_v0.stl_id_0_copy_0 CENTER=60,60 POLYGON=[[51.45,13.25],[63.1964,11.45],[66.55,11.45],[66.6481,11.4524],[66.746,11.4596],[66.8435,11.4717],[66.9402,11.4884],[67.036,11.5099],[67.1306,11.5361],[67.2238,11.5669],[67.3154,11.6022],[67.4051,11.642],[67.4928,11.6862],[67.5782,11.7345],[67.6611,11.7871],[67.7414,11.8436],[67.8188,11.904],[67.8931,11.9681],[67.9642,12.0358],[68.0319,12.1069],[68.096,12.1812],[68.1564,12.2586],[68.2129,12.3389],[68.2655,12.4218],[68.3138,12.5072],[68.358,12.5949],[68.3978,12.6846],[68.4331,12.7762],[68.4639,12.8694],[68.4901,12.964],[68.5116,13.0598],[68.5284,13.1565],[68.5404,13.254],[68.5476,13.3519],[68.55,13.45],[68.55,106.55],[68.5476,106.648],[68.5404,106.746],[68.5284,106.843],[68.5116,106.94],[68.4901,107.036],[68.4639,107.131],[68.4331,107.224],[68.3978,107.315],[68.358,107.405],[68.3138,107.493],[68.2655,107.578],[68.2129,107.661],[68.1564,107.741],[68.096,107.819],[68.0319,107.893],[67.9642,107.964],[67.8931,108.032],[67.8188,108.096],[67.7414,108.156],[67.6611,108.213],[67.5782,108.265],[67.4928,108.314],[67.4051,108.358],[67.3154,108.398],[67.2238,108.433],[67.1306,108.464],[67.036,108.49],[66.9402,108.512],[66.8435,108.528],[66.746,108.54],[66.6481,108.548],[66.55,108.55],[51.45,108.55],[51.45,13.25]]
M73 P0 R18
;TYPE:Custom
M104 S0
M140 S0

print_start EXTRUDER=280 BED=110

G92 E0.0
G90
G21
M83 ; use relative distances for extrusion
; Filament gcode
SET_PRESSURE_ADVANCE ADVANCE=0.015; Override pressure advance value
M106 S0
;LAYER_CHANGE
;Z:0.2
;HEIGHT:0.2
;BEFORE_LAYER_CHANGE
;0.2
G92 E0

G1 E-.5 F1800
;AFTER_LAYER_CHANGE
;0.2
SET_VELOCITY_LIMIT ACCEL=10000
SET_VELOCITY_LIMIT SQUARE_CORNER_VELOCITY=9
; printing object MeanWell LRS-100-24 Terminal Cover v0.stl id:0 copy 0
EXCLUDE_OBJECT_START NAME=MeanWell_LRS-100-24_Terminal_Cover_v0.stl_id_0_copy_0
G1 X65.168 Y15.221 F30000
G1 Z.2
G1 E.5 F1800
;TYPE:Inner wall
;WIDTH:0.6
G1 F6000
G1 X65.168 Y14.322 E.03878
G1 X65.679 Y14.322 E.02204
G1 X65.679 Y105.675 E3.9396
G1 X53.421 Y105.678 E.52861
G1 X53.421 Y15.221 E3.90097
G1 X65.128 Y15.221 E.50484
G1 X64.611 Y14.664 F30000
G1 F6000
G1 X64.611 Y13.765 E.03879
G1 X66.236 Y13.765 E.07009
G1 X66.236 Y106.232 E3.98763
G1 X52.864 Y106.235 E.57666
G1 X52.864 Y14.664 E3.94903
G1 X64.571 Y14.664 E.50484
G1 X64.054 Y14.107 F30000
G1 F6000
G1 X64.054 Y13.207 E.0388
G1 X66.532 Y13.208 E.10687
G1 X66.641 Y13.229 E.00482
G1 X66.719 Y13.281 E.00402
G1 X66.771 Y13.359 E.00402
G1 X66.793 Y13.492 E.00584
G1 X66.784 Y106.609 E4.01567
G1 X66.729 Y106.712 E.00505
G1 X66.583 Y106.789 E.00712
G1 X52.307 Y106.793 E.61563
G1 X52.307 Y14.107 E3.99708
G1 X64.014 Y14.107 E.50484
G1 X63.496 Y13.55 F30000
;TYPE:Outer wall
G1 F6000
G1 X63.496 Y12.65 E.03881
G1 X66.561 Y12.651 E.13216
G1 X66.705 Y12.666 E.00623
G1 X66.856 Y12.712 E.0068
G1 X66.994 Y12.786 E.00675
G1 X67.115 Y12.885 E.00675
G1 X67.214 Y13.006 E.00675
G1 X67.288 Y13.144 E.00675
G1 X67.333 Y13.294 E.00675
G1 X67.35 Y13.465 E.00739
G1 X67.35 Y106.536 E4.01372
G1 X67.335 Y106.699 E.00708
G1 X67.254 Y106.927 E.01039
G1 X67.11 Y107.119 E.01039
G1 X66.994 Y107.214 E.00647
G1 X66.866 Y107.283 E.00624
G1 X66.621 Y107.346 E.01093
G1 X51.75 Y107.35 E.64131
G1 X51.75 Y13.55 E4.04514
G1 X63.456 Y13.55 E.50484
G1 E-.5 F1800
G17
G3 Z.3 I-.25 J.173 P1  F30000
G1 X65.512 Y16.521 Z.3
G1 Z.2
G1 E.5 F1800
;TYPE:Bottom surface
;WIDTH:0.60289
G1 F9000
G1 X64.63 Y15.639 E.05404
G1 X63.838 Y15.639 E.03433
G1 X65.261 Y17.062 E.08722
G1 X65.261 Y17.854 E.03433
G1 X63.046 Y15.639 E.13577
G1 X62.254 Y15.639 E.03433
G1 X65.261 Y18.646 E.18432
G1 X65.261 Y19.438 E.03433
G1 X61.462 Y15.639 E.23287
G1 X60.671 Y15.639 E.03433
G1 X65.261 Y20.229 E.28142
G1 X65.261 Y21.021 E.03433
G1 X59.879 Y15.639 E.32996
G1 X59.087 Y15.639 E.03433
G1 X65.261 Y21.813 E.37851
G1 X65.261 Y22.605 E.03433
G1 X58.295 Y15.639 E.42706
G1 X57.503 Y15.639 E.03433
G1 X65.261 Y23.397 E.47561
G1 X65.261 Y24.189 E.03433
G1 X56.711 Y15.639 E.52416
G1 X55.919 Y15.639 E.03433
G1 X65.261 Y24.981 E.57271
G1 X65.261 Y25.773 E.03433
G1 X55.127 Y15.639 E.62125
G1 X54.335 Y15.639 E.03433
G1 X65.261 Y26.565 E.6698
G1 X65.261 Y27.357 E.03433
G1 X53.839 Y15.935 E.70022
G1 X53.839 Y16.727 E.03433
G1 X65.261 Y28.149 E.70022
G1 X65.261 Y28.941 E.03433
G1 X53.839 Y17.519 E.70022
G1 X53.839 Y18.311 E.03433
G1 X65.261 Y29.732 E.70022
G1 X65.261 Y30.524 E.03433
G1 X53.839 Y19.102 E.70022
G1 X53.839 Y19.894 E.03433
G1 X65.261 Y31.316 E.70022
M73 P1 R18
G1 X65.261 Y32.108 E.03433
G1 X53.839 Y20.686 E.70022
G1 X53.839 Y21.478 E.03433
G1 X65.261 Y32.9 E.70022
G1 X65.261 Y33.692 E.03433
G1 X53.839 Y22.27 E.70022
G1 X53.839 Y23.062 E.03433
G1 X65.261 Y34.484 E.70022
G1 X65.261 Y35.276 E.03433
G1 X53.839 Y23.854 E.70022
G1 X53.839 Y24.646 E.03433
G1 X65.261 Y36.068 E.70022
G1 X65.261 Y36.86 E.03433
G1 X53.839 Y25.438 E.70022
G1 X53.839 Y26.23 E.03433
G1 X65.261 Y37.652 E.70022
G1 X65.261 Y38.444 E.03433
G1 X53.839 Y27.022 E.70022
G1 X53.839 Y27.814 E.03433
G1 X65.261 Y39.235 E.70022
G1 X65.261 Y40.027 E.03433
G1 X53.839 Y28.605 E.70022
G1 X53.839 Y29.397 E.03433
G1 X65.261 Y40.819 E.70022
G1 X65.261 Y41.611 E.03433
G1 X53.839 Y30.189 E.70022
G1 X53.839 Y30.981 E.03433
G1 X65.261 Y42.403 E.70022
G1 X65.261 Y43.195 E.03433
G1 X53.839 Y31.773 E.70022
G1 X53.839 Y32.565 E.03433
G1 X65.261 Y43.987 E.70022
G1 X65.261 Y44.779 E.03433
G1 X53.839 Y33.357 E.70022
G1 X53.839 Y34.149 E.03433
G1 X65.261 Y45.571 E.70022
G1 X65.261 Y46.363 E.03433
G1 X53.839 Y34.941 E.70022
G1 X53.839 Y35.733 E.03433
G1 X65.261 Y47.155 E.70022
G1 X65.261 Y47.947 E.03433
G1 X53.839 Y36.525 E.70022
G1 X53.839 Y37.317 E.03433
G1 X65.261 Y48.739 E.70022
G1 X65.261 Y49.53 E.03433
G1 X53.839 Y38.108 E.70022
G1 X53.839 Y38.9 E.03433
G1 X65.261 Y50.322 E.70022
G1 X65.261 Y51.114 E.03433
G1 X53.839 Y39.692 E.70022
G1 X53.839 Y40.484 E.03433
G1 X65.261 Y51.906 E.70022
G1 X65.261 Y52.698 E.03433
G1 X53.839 Y41.276 E.70022
G1 X53.839 Y42.068 E.03433
G1 X65.261 Y53.49 E.70022
G1 X65.261 Y54.282 E.03433
G1 X53.839 Y42.86 E.70022
G1 X53.839 Y43.652 E.03433
G1 X65.261 Y55.074 E.70022
G1 X65.261 Y55.866 E.03433
G1 X53.839 Y44.444 E.70022
G1 X53.839 Y45.236 E.03433
G1 X65.261 Y56.658 E.70022
G1 X65.261 Y57.45 E.03433
G1 X53.839 Y46.028 E.70022
G1 X53.839 Y46.82 E.03433
G1 X65.261 Y58.242 E.70022
G1 X65.261 Y59.033 E.03433
G1 X53.839 Y47.611 E.70022
G1 X53.839 Y48.403 E.03433
G1 X65.261 Y59.825 E.70022
G1 X65.261 Y60.617 E.03433
G1 X53.839 Y49.195 E.70022
G1 X53.839 Y49.987 E.03433
G1 X65.261 Y61.409 E.70022
G1 X65.261 Y62.201 E.03433
G1 X53.839 Y50.779 E.70022
G1 X53.839 Y51.571 E.03433
G1 X65.261 Y62.993 E.70022
G1 X65.261 Y63.785 E.03433
G1 X53.839 Y52.363 E.70022
G1 X53.839 Y53.155 E.03433
G1 X65.261 Y64.577 E.70022
G1 X65.261 Y65.369 E.03433
G1 X53.839 Y53.947 E.70022
G1 X53.839 Y54.739 E.03433
G1 X65.261 Y66.161 E.70022
G1 X65.261 Y66.953 E.03433
G1 X53.839 Y55.531 E.70022
G1 X53.839 Y56.323 E.03433
G1 X65.261 Y67.745 E.70022
G1 X65.261 Y68.536 E.03433
G1 X53.839 Y57.115 E.70022
G1 X53.839 Y57.906 E.03433
G1 X65.261 Y69.328 E.70022
G1 X65.261 Y70.12 E.03433
G1 X53.839 Y58.698 E.70022
G1 X53.839 Y59.49 E.03433
G1 X65.261 Y70.912 E.70022
G1 X65.261 Y71.704 E.03433
G1 X53.839 Y60.282 E.70022
G1 X53.839 Y61.074 E.03433
G1 X65.261 Y72.496 E.70022
G1 X65.261 Y73.288 E.03433
G1 X53.839 Y61.866 E.70022
G1 X53.839 Y62.658 E.03433
G1 X65.261 Y74.08 E.70022
G1 X65.261 Y74.872 E.03433
G1 X53.839 Y63.45 E.70022
G1 X53.839 Y64.242 E.03433
G1 X65.261 Y75.664 E.70022
G1 X65.261 Y76.456 E.03433
G1 X53.839 Y65.034 E.70022
G1 X53.839 Y65.826 E.03433
G1 X65.261 Y77.248 E.70022
G1 X65.261 Y78.039 E.03433
G1 X53.839 Y66.618 E.70022
G1 X53.839 Y67.409 E.03433
G1 X65.261 Y78.831 E.70022
G1 X65.261 Y79.623 E.03433
G1 X53.839 Y68.201 E.70022
G1 X53.839 Y68.993 E.03433
G1 X65.261 Y80.415 E.70022
G1 X65.261 Y81.207 E.03433
G1 X53.839 Y69.785 E.70022
G1 X53.839 Y70.577 E.03433
G1 X65.261 Y81.999 E.70022
G1 X65.261 Y82.791 E.03433
G1 X53.839 Y71.369 E.70022
G1 X53.839 Y72.161 E.03433
G1 X65.261 Y83.583 E.70022
G1 X65.261 Y84.375 E.03433
G1 X53.839 Y72.953 E.70022
G1 X53.839 Y73.745 E.03433
G1 X65.261 Y85.167 E.70022
G1 X65.261 Y85.959 E.03433
G1 X53.839 Y74.537 E.70022
G1 X53.839 Y75.329 E.03433
G1 X65.261 Y86.751 E.70022
G1 X65.261 Y87.542 E.03433
G1 X53.839 Y76.121 E.70022
G1 X53.839 Y76.912 E.03433
G1 X65.261 Y88.334 E.70022
G1 X65.261 Y89.126 E.03433
G1 X53.839 Y77.704 E.70022
G1 X53.839 Y78.496 E.03433
G1 X65.261 Y89.918 E.70022
G1 X65.261 Y90.71 E.03433
G1 X53.839 Y79.288 E.70022
G1 X53.839 Y80.08 E.03433
G1 X65.261 Y91.502 E.70022
G1 X65.261 Y92.294 E.03433
G1 X53.839 Y80.872 E.70022
G1 X53.839 Y81.664 E.03433
G1 X65.261 Y93.086 E.70022
G1 X65.261 Y93.878 E.03433
G1 X53.839 Y82.456 E.70022
G1 X53.839 Y83.248 E.03433
G1 X65.261 Y94.67 E.70022
G1 X65.261 Y95.462 E.03433
G1 X53.839 Y84.04 E.70022
M73 P2 R18
G1 X53.839 Y84.832 E.03433
G1 X65.261 Y96.254 E.70022
G1 X65.261 Y97.045 E.03433
G1 X53.839 Y85.624 E.70022
G1 X53.839 Y86.415 E.03433
G1 X65.261 Y97.837 E.70022
G1 X65.261 Y98.629 E.03433
G1 X53.839 Y87.207 E.70022
G1 X53.839 Y87.999 E.03433
G1 X65.261 Y99.421 E.70022
G1 X65.261 Y100.213 E.03433
G1 X53.839 Y88.791 E.70022
G1 X53.839 Y89.583 E.03433
G1 X65.261 Y101.005 E.70022
G1 X65.261 Y101.797 E.03433
G1 X53.839 Y90.375 E.70022
G1 X53.839 Y91.167 E.03433
G1 X65.261 Y102.589 E.70022
G1 X65.261 Y103.381 E.03433
G1 X53.839 Y91.959 E.70022
G1 X53.839 Y92.751 E.03433
G1 X65.261 Y104.173 E.70022
G1 X65.261 Y104.965 E.03433
G1 X53.839 Y93.543 E.70022
G1 X53.839 Y94.335 E.03433
G1 X64.762 Y105.257 E.66961
G1 X63.97 Y105.257 E.03432
G1 X53.839 Y95.127 E.62108
G1 X53.839 Y95.918 E.03433
G1 X63.178 Y105.258 E.57254
G1 X62.387 Y105.258 E.03432
G1 X53.839 Y96.71 E.52401
G1 X53.839 Y97.502 E.03433
G1 X61.595 Y105.258 E.47547
G1 X60.803 Y105.258 E.03432
G1 X53.839 Y98.294 E.42694
G1 X53.839 Y99.086 E.03433
G1 X60.012 Y105.259 E.3784
G1 X59.22 Y105.259 E.03432
G1 X53.839 Y99.878 E.32987
G1 X53.839 Y100.67 E.03433
G1 X58.428 Y105.259 E.28133
G1 X57.636 Y105.259 E.03432
G1 X53.839 Y101.462 E.2328
G1 X53.839 Y102.254 E.03433
G1 X56.845 Y105.259 E.18426
G1 X56.053 Y105.26 E.03432
G1 X53.839 Y103.046 E.13573
G1 X53.839 Y103.838 E.03433
G1 X55.261 Y105.26 E.08719
G1 X54.47 Y105.26 E.03432
G1 X53.588 Y104.379 E.05403
; stop printing object MeanWell LRS-100-24 Terminal Cover v0.stl id:0 copy 0
M106 S25
;LAYER_CHANGE
;Z:0.4
;HEIGHT:0.2
;BEFORE_LAYER_CHANGE
;0.4
G92 E0

G1 E-.35 F1800
;WIPE_START
G1 F9000
G1 X54.295 Y105.086 E-.1425
;WIPE_END
G1 E-.0075 F1800
EXCLUDE_OBJECT_END NAME=MeanWell_LRS-100-24_Terminal_Cover_v0.stl_id_0_copy_0
;AFTER_LAYER_CHANGE
;0.4
M140 S110 ; set bed temperature
; printing object MeanWell LRS-100-24 Terminal Cover v0.stl id:0 copy 0
SET_VELOCITY_LIMIT SQUARE_CORNER_VELOCITY=12
EXCLUDE_OBJECT_START NAME=MeanWell_LRS-100-24_Terminal_Cover_v0.stl_id_0_copy_0
G17
G3 Z.4 I.604 J.07 P1  F30000
G1 X64.748 Y14.801 Z.4
G1 E.5 F1800
SET_VELOCITY_LIMIT SQUARE_CORNER_VELOCITY=7
;TYPE:Inner wall
;WIDTH:0.48
G1 F12000
G1 X64.748 Y13.703 E.03716
G1 X66.299 Y13.705 E.05248
G1 X66.299 Y106.293 E3.13277
G1 X53.001 Y106.298 E.44993
G1 X53.001 Y14.801 E3.09586
G1 X64.708 Y14.801 E.39609
SET_VELOCITY_LIMIT SQUARE_CORNER_VELOCITY=12
G1 X64.311 Y14.364 F30000
SET_VELOCITY_LIMIT SQUARE_CORNER_VELOCITY=7
G1 F12000
G1 X64.311 Y13.265 E.03718
G1 X66.569 Y13.268 E.07641
G1 X66.65 Y13.3 E.00296
G1 X66.7 Y13.35 E.00238
G1 X66.736 Y13.505 E.00538
G1 X66.726 Y106.594 E3.14974
G1 X66.657 Y106.697 E.00419
G1 X66.567 Y106.73 E.00323
G1 X52.564 Y106.735 E.47381
G1 X52.564 Y14.364 E3.12544
G1 X64.271 Y14.364 E.39609
SET_VELOCITY_LIMIT SQUARE_CORNER_VELOCITY=12
G1 X63.874 Y13.927 F30000
SET_VELOCITY_LIMIT SQUARE_CORNER_VELOCITY=7
G1 F12000
G1 X63.874 Y12.828 E.03719
G1 X66.589 Y12.831 E.0919
G1 X66.787 Y12.878 E.00687
G1 X66.988 Y13.012 E.00818
G1 X67.122 Y13.213 E.00818
G1 X67.158 Y13.329 E.00411
G1 X67.173 Y13.483 E.00524
G1 X67.173 Y106.517 E3.14785
G1 X67.156 Y106.688 E.00581
G1 X67.096 Y106.842 E.0056
G1 X67.029 Y106.943 E.00411
G1 X66.934 Y107.038 E.00456
G1 X66.773 Y107.13 E.00625
G1 X66.611 Y107.167 E.00564
G1 X52.127 Y107.173 E.49006
G1 X52.127 Y13.927 E3.15502
G1 X63.834 Y13.927 E.39609
SET_VELOCITY_LIMIT SQUARE_CORNER_VELOCITY=12
G1 X63.436 Y13.49 F30000
SET_VELOCITY_LIMIT SQUARE_CORNER_VELOCITY=7
;TYPE:Outer wall
G1 F5210.116
M106 S51
G1 X63.436 Y12.39 E.03722
G1 X66.616 Y12.394 E.1076
G1 F5235.894
G1 X66.754 Y12.411 E.0047
G1 F5238.993
G1 X66.955 Y12.472 E.00711
G1 F5260.499
G1 X67.138 Y12.57 E.00702
G1 X67.299 Y12.701 E.00702
G1 F5261.15
G1 X67.43 Y12.862 E.00702
G1 F5260.706
G1 X67.528 Y13.045 E.00702
G1 X67.589 Y13.243 E.00701
G1 F5200
G1 X67.61 Y13.462 E.00744
G1 X67.61 Y14.142 E.02301
G1 X67.61 Y105.858 E3.10327
G1 X67.61 Y106.538 E.02301
G1 F5152.997
G1 X67.588 Y106.762 E.00762
G1 X67.484 Y107.049 E.01033
G1 F5200.816
G1 X67.369 Y107.222 E.00703
G1 X67.218 Y107.372 E.0072
G1 F5164.136
G1 X66.95 Y107.531 E.01054
G1 X66.654 Y107.604 E.01032
G1 F5201.265
G1 X65.974 Y107.604 E.02301
G1 F5220.797
G1 X52.37 Y107.61 E.4603
G1 F5205.445
G1 X51.69 Y107.61 E.02301
G1 X51.69 Y106.93 E.02301
M106 S25
G1 F12000
G1 X51.69 Y13.97 E3.14536
G1 X51.69 Y13.49 E.01624
G1 X52.17 Y13.49 E.01624
G1 X62.989 Y13.49 E.36607
G1 X63.396 Y13.49 E.01377
SET_VELOCITY_LIMIT SQUARE_CORNER_VELOCITY=12
G1 E-.5 F1800
G17
G3 Z.5 I-.304 J.009 P1  F30000
G1 X66.168 Y105.274 Z.5
G1 Z.4
G1 E.5 F1800
SET_VELOCITY_LIMIT SQUARE_CORNER_VELOCITY=20
;TYPE:Internal solid infill
;WIDTH:0.482134
G1 F18442.035
G1 X65.476 Y105.965 E.03326
G1 X64.855 Y105.965 E.02113
G1 X65.971 Y104.849 E.05368
G1 X65.971 Y104.228 E.02112
G1 X64.233 Y105.966 E.08356
G1 X63.612 Y105.966 E.02113
G1 X65.971 Y103.607 E.11344
G1 X65.971 Y102.986 E.02112
G1 X62.99 Y105.966 E.14332
G1 X62.369 Y105.966 E.02113
G1 X65.971 Y102.364 E.1732
G1 X65.971 Y101.743 E.02112
G1 X61.748 Y105.967 E.20308
G1 X61.126 Y105.967 E.02113
G1 X65.971 Y101.122 E.23296
G1 X65.971 Y100.501 E.02112
G1 X60.505 Y105.967 E.26284
G1 X59.883 Y105.967 E.02113
G1 X65.971 Y99.88 E.29272
G1 X65.971 Y99.259 E.02112
G1 X59.262 Y105.968 E.3226
G1 X58.641 Y105.968 E.02113
G1 X65.971 Y98.638 E.35248
G1 X65.971 Y98.016 E.02112
G1 X58.019 Y105.968 E.38236
G1 X57.398 Y105.969 E.02113
G1 X65.971 Y97.395 E.41224
G1 X65.971 Y96.774 E.02112
G1 X56.776 Y105.969 E.44212
G1 X56.155 Y105.969 E.02113
G1 X65.971 Y96.153 E.472
G1 X65.971 Y95.532 E.02112
G1 X55.534 Y105.969 E.50187
G1 X54.912 Y105.97 E.02113
G1 X65.971 Y94.911 E.53175
G1 X65.971 Y94.29 E.02112
G1 X54.291 Y105.97 E.56163
G1 X53.669 Y105.97 E.02113
G1 X65.971 Y93.668 E.59151
G1 X65.971 Y93.047 E.02112
G1 X53.329 Y105.689 E.60788
G1 X53.329 Y105.068 E.02112
G1 X65.971 Y92.426 E.60788
G1 X65.971 Y91.805 E.02112
G1 X53.329 Y104.447 E.60788
G1 X53.329 Y103.826 E.02112
G1 X65.971 Y91.184 E.60788
G1 X65.971 Y90.563 E.02112
G1 X53.329 Y103.205 E.60788
G1 X53.329 Y102.584 E.02112
G1 X65.971 Y89.942 E.60788
G1 X65.971 Y89.321 E.02112
G1 X53.329 Y101.962 E.60788
M73 P3 R17
G1 X53.329 Y101.341 E.02112
G1 X65.971 Y88.699 E.60788
G1 X65.971 Y88.078 E.02112
G1 X53.329 Y100.72 E.60788
G1 X53.329 Y100.099 E.02112
G1 X65.971 Y87.457 E.60788
G1 X65.971 Y86.836 E.02112
G1 X53.329 Y99.478 E.60788
G1 X53.329 Y98.857 E.02112
G1 X65.971 Y86.215 E.60788
G1 X65.971 Y85.594 E.02112
G1 X53.329 Y98.236 E.60788
G1 X53.329 Y97.614 E.02112
G1 X65.971 Y84.973 E.60788
G1 X65.971 Y84.351 E.02112
G1 X53.329 Y96.993 E.60788
G1 X53.329 Y96.372 E.02112
G1 X65.971 Y83.73 E.60788
G1 X65.971 Y83.109 E.02112
G1 X53.329 Y95.751 E.60788
G1 X53.329 Y95.13 E.02112
