; HEADER_BLOCK_START
; generated by OrcaSlicer 1.6.6 on 2023-12-26 at 17:38:10
; total layer number: 85
; HEADER_BLOCK_END

; THUMBNAIL_BLOCK_START
; THUMBNAIL_BLOCK_END

; external perimeters extrusion width = 0.48mm
; perimeters extrusion width = 0.48mm
; infill extrusion width = 0.48mm
; solid infill extrusion width = 0.48mm
; top infill extrusion width = 0.48mm
; support material extrusion width = 0.40mm
; first layer extrusion width = 0.60mm

; external perimeters extrusion width = 0.48mm
; perimeters extrusion width = 0.48mm
; infill extrusion width = 0.48mm
; solid infill extrusion width = 0.48mm
; top infill extrusion width = 0.48mm
; support material extrusion width = 0.40mm
; first layer extrusion width = 0.60mm

; external perimeters extrusion width = 0.48mm
; perimeters extrusion width = 0.48mm
; infill extrusion width = 0.48mm
; solid infill extrusion width = 0.48mm
; top infill extrusion width = 0.48mm
; support material extrusion width = 0.40mm
; first layer extrusion width = 0.60mm

; external perimeters extrusion width = 0.48mm
; perimeters extrusion width = 0.48mm
; infill extrusion width = 0.48mm
; solid infill extrusion width = 0.48mm
; top infill extrusion width = 0.48mm
; support material extrusion width = 0.40mm
; first layer extrusion width = 0.60mm

; external perimeters extrusion width = 0.48mm
; perimeters extrusion width = 0.48mm
; infill extrusion width = 0.48mm
; solid infill extrusion width = 0.48mm
; top infill extrusion width = 0.48mm
; support material extrusion width = 0.40mm
; first layer extrusion width = 0.60mm

; external perimeters extrusion width = 0.48mm
; perimeters extrusion width = 0.48mm
; infill extrusion width = 0.48mm
; solid infill extrusion width = 0.48mm
; top infill extrusion width = 0.48mm
; support material extrusion width = 0.40mm
; first layer extrusion width = 0.60mm

; external perimeters extrusion width = 0.48mm
; perimeters extrusion width = 0.48mm
; infill extrusion width = 0.48mm
; solid infill extrusion width = 0.48mm
; top infill extrusion width = 0.48mm
; support material extrusion width = 0.40mm
; first layer extrusion width = 0.60mm

; EXECUTABLE_BLOCK_START
EXCLUDE_OBJECT_DEFINE NAME=Meter_Slide-RC2_.stl_id_0_copy_0 CENTER=64.4977,57.7282 POLYGON=[[14.8203,28.1251],[14.8305,27.7504],[14.8874,27.3799],[14.9901,27.0194],[15.1369,26.6745],[15.3256,26.3505],[15.5531,26.0527],[15.8161,25.7855],[32.555,9.04664],[32.8222,8.78367],[33.12,8.55608],[33.4439,8.3674],[33.7888,8.2206],[34.1494,8.11795],[34.5199,8.06106],[34.8946,8.05082],[35.2677,8.0874],[35.6332,8.17021],[35.9857,8.29797],[36.3194,8.46867],[36.6292,8.67966],[36.9103,8.92765],[39.6273,11.6447],[114.105,95.5586],[114.175,95.8733],[114.122,96.9562],[103.726,107.352],[102.643,107.406],[102.328,107.336],[18.4141,32.8579],[15.6971,30.1409],[15.4491,29.8597],[15.2381,29.5499],[15.0674,29.2162],[14.9397,28.8638],[14.8569,28.4982],[14.8203,28.1251]]
EXCLUDE_OBJECT_DEFINE NAME=Needle_00-RC2.stl_id_1_copy_0 CENTER=42.7398,107.806 POLYGON=[[18.449,117.51],[58.9344,98.621],[59.0631,98.5639],[59.1931,98.51],[59.3244,98.4594],[61.1041,98.1054],[61.2449,98.1019],[61.3856,98.1019],[61.5263,98.1054],[63.306,98.4594],[63.4374,98.51],[63.5674,98.5639],[63.6961,98.621],[65.2048,99.6291],[65.3068,99.7261],[65.4063,99.8257],[65.5034,99.9276],[66.5115,101.436],[66.5686,101.565],[66.6224,101.695],[66.6731,101.826],[67.0271,103.606],[67.0306,103.747],[67.0306,103.888],[67.0271,104.028],[66.6731,105.808],[66.6224,105.939],[66.5686,106.069],[66.5115,106.198],[65.5034,107.707],[65.4063,107.809],[65.3068,107.908],[65.2048,108.005],[18.449,117.51]]
EXCLUDE_OBJECT_DEFINE NAME=Needle_01-RC2.stl_id_2_copy_0 CENTER=71.1684,13.1209 POLYGON=[[46.8569,22.8549],[87.3028,3.91118],[87.4328,3.85355],[87.5641,3.79915],[87.6968,3.74799],[89.4943,3.39045],[89.6364,3.38695],[89.7786,3.38695],[89.9207,3.39045],[91.7182,3.74799],[91.8508,3.79915],[91.9822,3.85355],[92.1122,3.91118],[93.636,4.92937],[93.739,5.0274],[93.8395,5.12793],[93.9375,5.23091],[94.9557,6.75474],[95.0134,6.88471],[95.0678,7.01607],[95.1189,7.14872],[95.4765,8.9462],[95.48,9.08833],[95.48,9.23051],[95.4765,9.37264],[95.1189,11.1701],[95.0678,11.3028],[95.0134,11.4341],[94.9557,11.5641],[93.9375,13.0879],[93.8395,13.1909],[93.739,13.2914],[93.636,13.3895],[46.8569,22.8549]]
EXCLUDE_OBJECT_DEFINE NAME=Needle_02-RC2.stl_id_3_copy_0 CENTER=38.5111,96.1567 POLYGON=[[14.1789,105.921],[54.5853,86.922],[54.7165,86.8638],[54.8492,86.8089],[54.9831,86.7572],[56.7984,86.3962],[56.942,86.3926],[57.0855,86.3926],[57.2291,86.3962],[59.0444,86.7572],[59.1783,86.8089],[59.311,86.8638],[59.4422,86.922],[60.9812,87.9503],[61.0852,88.0493],[61.1867,88.1508],[61.2857,88.2548],[62.314,89.7938],[62.3722,89.925],[62.4271,90.0577],[62.4788,90.1916],[62.8398,92.0069],[62.8434,92.1504],[62.8434,92.294],[62.8398,92.4376],[62.4788,94.2528],[62.4271,94.3868],[62.3722,94.5195],[62.314,94.6507],[61.2857,96.1896],[61.1867,96.2936],[61.0852,96.3952],[60.9812,96.4942],[14.1789,105.921]]
EXCLUDE_OBJECT_DEFINE NAME=Needle_03-RC2.stl_id_4_copy_0 CENTER=25.4174,62.3104 POLYGON=[[1.06446,72.1045],[41.4313,53.0508],[41.5639,52.9921],[41.6978,52.9366],[41.8331,52.8844],[43.6662,52.5198],[43.8111,52.5162],[43.9561,52.5162],[44.1011,52.5198],[45.9341,52.8844],[46.0694,52.9366],[46.2034,52.9921],[46.3359,53.0508],[47.8899,54.0892],[47.9949,54.1891],[48.0975,54.2917],[48.1974,54.3967],[49.2358,55.9507],[49.2946,56.0832],[49.35,56.2172],[49.4022,56.3525],[49.7668,58.1855],[49.7704,58.3305],[49.7704,58.4755],[49.7668,58.6204],[49.4022,60.4535],[49.35,60.5888],[49.2946,60.7227],[49.2358,60.8553],[48.1974,62.4093],[48.0975,62.5143],[47.9949,62.6168],[47.8899,62.7168],[1.06446,72.1045]]
EXCLUDE_OBJECT_DEFINE NAME=Needle_04-RC2.stl_id_5_copy_0 CENTER=33.1111,84.8991 POLYGON=[[8.73736,94.7234],[49.0647,75.6147],[49.1985,75.5553],[49.3338,75.4993],[49.4704,75.4466],[51.3213,75.0785],[51.4676,75.0748],[51.614,75.0748],[51.7604,75.0785],[53.6112,75.4466],[53.7478,75.4993],[53.8831,75.5553],[54.0169,75.6147],[55.586,76.6631],[55.6921,76.764],[55.7956,76.8675],[55.8965,76.9736],[56.9449,78.5427],[57.0043,78.6765],[57.0603,78.8118],[57.113,78.9484],[57.4811,80.7992],[57.4848,80.9456],[57.4848,81.092],[57.4811,81.2383],[57.113,83.0892],[57.0603,83.2258],[57.0043,83.3611],[56.9449,83.4949],[55.8965,85.064],[55.7956,85.17],[55.6921,85.2735],[55.586,85.3745],[8.73736,94.7234]]
EXCLUDE_OBJECT_DEFINE NAME=Needle_05-RC2.stl_id_6_copy_0 CENTER=28.7507,72.9335 POLYGON=[[4.35631,82.7879],[44.6441,63.6242],[44.7793,63.5643],[44.9158,63.5077],[45.0537,63.4545],[46.9224,63.0828],[47.0702,63.0792],[47.218,63.0792],[47.3657,63.0828],[49.2344,63.4545],[49.3723,63.5077],[49.5089,63.5643],[49.644,63.6242],[51.2282,64.6827],[51.3352,64.7846],[51.4397,64.8891],[51.5416,64.9962],[52.6002,66.5803],[52.6601,66.7155],[52.7166,66.852],[52.7698,66.9899],[53.1415,68.8586],[53.1451,69.0064],[53.1451,69.1542],[53.1415,69.3019],[52.7698,71.1706],[52.7166,71.3085],[52.6601,71.4451],[52.6002,71.5802],[51.5416,73.1644],[51.4397,73.2714],[51.3352,73.3759],[51.2282,73.4778],[4.35631,82.7879]]
M73 P0 R22
;TYPE:Custom
M104 S0
M140 S0

print_start EXTRUDER=280 BED=110

G92 E0.0
G90
G21
M83 ; use relative distances for extrusion
; Filament gcode
SET_PRESSURE_ADVANCE ADVANCE=0.02; Override pressure advance value
M106 S0
;LAYER_CHANGE
;Z:0.2
;HEIGHT:0.2
;BEFORE_LAYER_CHANGE
;0.2
G92 E0

G1 E-.5 F1800
;AFTER_LAYER_CHANGE
;0.2
SET_VELOCITY_LIMIT ACCEL=10000
SET_VELOCITY_LIMIT SQUARE_CORNER_VELOCITY=9
; printing object Needle 01-RC2.stl id:2 copy 0
EXCLUDE_OBJECT_START NAME=Needle_01-RC2.stl_id_2_copy_0
G1 X83.668 Y12.459 F30000
G1 Z.2
G1 E.5 F1800
;TYPE:Inner wall
;WIDTH:0.599999
G1 F6000
G1 X67.944 Y16.036 E.69467
G1 X82.795 Y9.726 E.69511
G1 X83.656 Y12.421 E.12189
G1 X84.43 Y12.858 F30000
G1 F6000
G1 X61.985 Y17.963 E.99159
G1 X83.274 Y8.917 E.99649
G1 X83.265 Y9.366 E.01934
G1 X84.343 Y12.741 E.15262
G1 X84.406 Y12.825 E.00455
G1 E-.35 F1800
;WIPE_START
G1 F6000
G1 X83.431 Y13.049 E-.1425
;WIPE_END
G1 E-.0075 F1800
G17
G3 Z.3 I.092 J.29 P1  F30000
G1 X86.5 Y12.075 Z.3
G1 X87.415 Y7.136
G1 Z.2
G1 E.5 F1800
;WIDTH:0.560455
G1 F6000
G1 X87.27 Y7.294 E.00857
G1 X86.939 Y7.834 E.02537
G1 X86.739 Y8.383 E.02338
G1 X86.558 Y7.957 E.01856
G1 X86.213 Y7.647 E.01855
G1 X87.378 Y7.152 E.05068
G1 E-.5 F1800
G17
G3 Z.3 I-.303 J.022 P1  F30000
G1 X87.738 Y12.179 Z.3
G1 Z.2
G1 E.5 F1800
;WIDTH:0.455351
G1 F6000
G1 X87.786 Y11.93 E.00808
G1 X87.636 Y11.364 E.01868
G1 X87.87 Y11.561 E.00975
G1 X88.327 Y11.854 E.01732
G1 X88.86 Y12.048 E.01808
G1 X88.312 Y12.029 E.01749
G1 X87.777 Y12.169 E.01765
G1 E-.5 F1800
G17
G3 Z.3 I.098 J.288 P1  F30000
G1 X92.858 Y10.439 Z.3
G1 Z.2
G1 E.5 F1800
;WIDTH:0.760333
G1 F6000
G1 X92.7 Y10.579 E.01169
G1 X92.628 Y10.681 E.00697
;WIDTH:0.730262
G1 X92.555 Y10.784 E.00668
;WIDTH:0.709485
G1 X92.275 Y11.201 E.0259
;WIDTH:0.755216
G1 X92.115 Y11.568 E.02203
G1 X91.888 Y11.665 E.01362
;WIDTH:0.729872
G1 X91.711 Y11.751 E.01044
;WIDTH:0.70987
G1 X91.279 Y12.039 E.02678
G1 X91.059 Y12.315 E.01823
;WIDTH:0.671232
G1 X90.811 Y12.419 E.01304
;WIDTH:0.635616
G1 X90.563 Y12.522 E.0123
;WIDTH:0.599999
G1 X90.06 Y12.609 E.02203
G1 X89.54 Y12.621 E.0224
G1 X88.766 Y12.503 E.03373
G1 X88.414 Y12.503 E.01516
G1 X88.247 Y12.561 E.00763
G1 X87.442 Y12.744 E.03554
;WIDTH:0.629287
G1 X87.125 Y12.801 E.01463
;WIDTH:0.658574
G1 X86.807 Y12.858 E.01536
G1 X87.01 Y12.652 E.01376
;WIDTH:0.629287
G1 X87.213 Y12.447 E.0131
;WIDTH:0.599999
G1 X87.294 Y11.908 E.02346
G1 X87.121 Y11.344 E.02544
;WIDTH:0.606563
G1 X86.94 Y10.766 E.02637
;WIDTH:0.619219
G1 X86.791 Y10.281 E.0226
;WIDTH:0.64277
G1 X86.592 Y9.618 E.03214
G1 X86.292 Y8.751 E.04253
;WIDTH:0.599999
G1 X86.102 Y8.242 E.02342
G1 X85.712 Y7.913 E.02198
G1 X85.527 Y7.922 E.00799
;WIDTH:0.564117
G1 X85.342 Y7.932 E.00748
;WIDTH:0.528234
G1 X85.156 Y7.941 E.00696
;WIDTH:0.492351
G1 X84.175 Y8.3 E.03632
;WIDTH:0.505687
G1 X84.052 Y8.418 E.00608
;WIDTH:0.552843
G1 X83.93 Y8.536 E.0067
;WIDTH:0.599999
G1 X83.807 Y8.654 E.00732
G1 X83.795 Y9.196 E.02339
G1 X84.873 Y12.571 E.15262
G1 X85.197 Y13.006 E.02334
G1 X85.852 Y13.119 E.02864
G1 X85.147 Y13.266 E.03101
G1 X56.026 Y19.89 E1.28657
G1 X83.394 Y8.261 E1.28104
G1 X83.669 Y8.118 E.01332
;WIDTH:0.551096
G1 X83.943 Y7.975 E.01215
;WIDTH:0.502192
G1 X84.217 Y7.832 E.01098
;WIDTH:0.492351
G1 X85 Y7.52 E.0293
;WIDTH:0.528234
G1 X85.236 Y7.439 E.00937
;WIDTH:0.564117
G1 X85.473 Y7.358 E.01006
;WIDTH:0.599999
G1 X85.709 Y7.277 E.01076
G1 X87.296 Y6.603 E.07431
G1 X87.551 Y6.44 E.01303
;WIDTH:0.648268
G1 X87.703 Y6.401 E.00734
;WIDTH:0.696537
G1 X87.855 Y6.363 E.00792
;WIDTH:0.744805
G1 X88.007 Y6.324 E.00851
G1 X88.346 Y6.155 E.02058
;WIDTH:0.749727
G1 X88.506 Y6.019 E.01146
G1 X88.561 Y6.031 E.00303
G1 X88.978 Y5.973 E.02301
;WIDTH:0.757166
G1 X89.55 Y5.848 E.03233
;WIDTH:0.760746
G1 X89.707 Y5.759 E.01007
G1 X89.861 Y5.845 E.00979
G1 X90.064 Y5.89 E.01155
;WIDTH:0.733063
G1 X90.267 Y5.936 E.01111
;WIDTH:0.734368
G1 X90.552 Y5.989 E.01547
;WIDTH:0.763356
G1 X90.836 Y6.043 E.01612
G1 X91.008 Y6.018 E.00972
G1 X91.057 Y6.091 E.00487
G1 X91.243 Y6.231 E.01297
;WIDTH:0.735797
G1 X91.429 Y6.371 E.01248
;WIDTH:0.742726
G1 X91.895 Y6.682 E.03033
;WIDTH:0.757042
G1 X92.126 Y6.74 E.01318
G1 X92.165 Y6.936 E.01101
G1 X92.36 Y7.238 E.01985
;WIDTH:0.730883
G1 X92.556 Y7.54 E.01913
;WIDTH:0.731011
G1 X92.704 Y7.698 E.01156
;WIDTH:0.757298
G1 X92.853 Y7.857 E.012
G1 X92.834 Y8 E.00798
G1 X92.855 Y8.162 E.009
;WIDTH:0.728393
G1 X92.876 Y8.323 E.00864
;WIDTH:0.719112
G1 X92.994 Y8.88 E.02976
;WIDTH:0.749265
G1 X93.116 Y9.159 E.01664
G1 X93.067 Y9.232 E.00483
G1 X92.949 Y9.663 E.02439
;WIDTH:0.732003
G1 X92.888 Y9.968 E.01654
;WIDTH:0.760333
G1 X92.827 Y10.272 E.01722
G1 X92.851 Y10.4 E.00721
G1 X93.545 Y10.516 F30000
;TYPE:Outer wall
;WIDTH:0.599999
G1 F6000
G1 X93.627 Y10.644 E.00655
G1 X93.866 Y10.818 E.01274
G1 X93.874 Y10.796 E.00102
;WIDTH:0.55265
G1 X93.881 Y10.773 E.00093
;WIDTH:0.5053
G1 X93.889 Y10.751 E.00085
;WIDTH:0.457951
G1 X93.897 Y10.729 E.00076
;WIDTH:0.410601
G1 X94.183 Y10.815 E.0085
G1 X94.41 Y10.968 E.0078
;WIDTH:0.409524
G1 X94.7 Y11.223 E.01094
G1 X94.327 Y11.227 E.01056
G1 X94.1 Y11.178 E.00659
;WIDTH:0.410601
G1 X93.779 Y11.012 E.01027
;WIDTH:0.457951
G1 X93.79 Y10.991 E.00076
;WIDTH:0.5053
G1 X93.8 Y10.97 E.00085
;WIDTH:0.55265
G1 X93.811 Y10.948 E.00093
;WIDTH:0.599999
G1 X93.821 Y10.927 E.00102
G1 X93.529 Y10.881 E.01274
G1 X93.37 Y10.916 E.00701
G1 X93.152 Y11.038 E.01078
G1 X92.839 Y11.447 E.02217
G1 X92.725 Y11.74 E.01355
G1 X92.769 Y11.998 E.01126
;WIDTH:0.563591
G1 X92.817 Y12.042 E.00262
;WIDTH:0.519062
G1 X92.864 Y12.087 E.0024
;WIDTH:0.474533
G1 X92.912 Y12.131 E.00218
;WIDTH:0.430004
G1 X92.959 Y12.176 E.00195
;WIDTH:0.396884
G1 X93.326 Y12.526 E.01389
G1 X93.544 Y12.989 E.01399
G1 X93.172 Y12.838 E.01098
;WIDTH:0.403073
G1 X92.986 Y12.707 E.00635
;WIDTH:0.430323
G1 X92.816 Y12.512 E.00775
;WIDTH:0.457572
G1 X92.646 Y12.316 E.0083
;WIDTH:0.505048
G1 X92.559 Y12.272 E.0035
;WIDTH:0.552524
G1 X92.472 Y12.227 E.00386
;WIDTH:0.599999
G1 X92.385 Y12.182 E.00422
G1 X92.12 Y12.224 E.01157
G1 X91.678 Y12.505 E.02253
G1 X91.475 Y12.775 E.01459
G1 X91.233 Y12.888 E.01148
G1 X90.701 Y13.063 E.02413
G1 X90.153 Y13.163 E.024
G1 X89.597 Y13.186 E.024
G1 X89.039 Y13.132 E.02414
G1 X88.531 Y13.047 E.0222
G1 X88.432 Y13.09 E.00462
G1 X50.066 Y21.817 E1.69498
G1 X86.79 Y6.213 E1.71891
G1 X87.39 Y5.903 E.02909
G1 X87.99 Y5.642 E.02818
G1 X88.101 Y5.479 E.00851
G1 X88.08 Y5.431 E.00224
;WIDTH:0.562149
G1 X88.06 Y5.384 E.00209
;WIDTH:0.524299
G1 X88.039 Y5.336 E.00193
;WIDTH:0.486449
G1 X87.997 Y5.295 E.00199
;WIDTH:0.45152
G1 X87.956 Y5.255 E.00184
;WIDTH:0.41659
G1 X87.914 Y5.214 E.00168
;WIDTH:0.409732
G1 X87.712 Y4.819 E.01259
G1 X87.642 Y4.496 E.00937
;WIDTH:0.408176
G1 X87.638 Y4.167 E.00929
G1 X87.811 Y4.33 E.0067
G1 X88.017 Y4.603 E.00967
G1 X88.154 Y4.967 E.01099
;WIDTH:0.422446
G1 X88.195 Y5.039 E.00244
;WIDTH:0.466834
G1 X88.237 Y5.111 E.00272
;WIDTH:0.511223
G1 X88.278 Y5.183 E.00301
;WIDTH:0.555611
G1 X88.319 Y5.256 E.00329
;WIDTH:0.599999
G1 X88.36 Y5.328 E.00358
G1 X88.601 Y5.395 E.01078
G1 X88.842 Y5.375 E.01045
G1 X89.347 Y5.233 E.0226
G1 X89.515 Y5.06 E.01037
;WIDTH:0.582131
G1 X89.52 Y4.986 E.00311
;WIDTH:0.533759
G1 X89.525 Y4.911 E.00283
;WIDTH:0.485387
G1 X89.53 Y4.837 E.00256
;WIDTH:0.437015
G1 X89.535 Y4.762 E.00228
;WIDTH:0.407912
G1 X89.531 Y4.258 E.01422
G1 X89.702 Y3.76 E.01487
G1 X89.871 Y4.184 E.01289
;WIDTH:0.409771
G1 X89.895 Y4.352 E.00482
;WIDTH:0.43927
G1 X89.88 Y4.61 E.00791
;WIDTH:0.468768
G1 X89.864 Y4.868 E.0085
;WIDTH:0.512512
G1 X89.893 Y4.955 E.00333
;WIDTH:0.556256
G1 X89.922 Y5.042 E.00364
;WIDTH:0.599999
G1 X89.951 Y5.129 E.00395
G1 X90.165 Y5.284 E.01138
G1 X90.37 Y5.335 E.00912
G1 X90.877 Y5.394 E.02198
G1 X91.097 Y5.297 E.01035
;WIDTH:0.578644
G1 X91.13 Y5.23 E.00309
;WIDTH:0.531145
G1 X91.164 Y5.164 E.00281
;WIDTH:0.483645
G1 X91.197 Y5.097 E.00254
;WIDTH:0.436146
G1 X91.231 Y5.031 E.00227
;WIDTH:0.408203
G1 X91.421 Y4.564 E.01423
G1 X91.768 Y4.169 E.01488
G1 X91.762 Y4.626 E.01293
;WIDTH:0.40995
G1 X91.716 Y4.799 E.00508
;WIDTH:0.452124
G1 X91.648 Y4.954 E.00534
;WIDTH:0.494297
G1 X91.58 Y5.108 E.00589
;WIDTH:0.536471
G1 X91.513 Y5.263 E.00644
;WIDTH:0.578644
G1 X91.445 Y5.418 E.00699
;WIDTH:0.599999
G1 X91.507 Y5.596 E.00812
G1 X91.624 Y5.76 E.0087
G1 X92.045 Y6.058 E.02221
G1 X92.419 Y6.135 E.01645
G1 X92.491 Y6.105 E.00336
;WIDTH:0.565734
G1 X92.563 Y6.076 E.00316
;WIDTH:0.531468
G1 X92.692 Y5.937 E.00716
;WIDTH:0.491179
G1 X92.821 Y5.798 E.00657
;WIDTH:0.45089
G1 X92.95 Y5.658 E.00598
;WIDTH:0.410601
G1 X93.178 Y5.507 E.0078
;WIDTH:0.409523
G1 X93.525 Y5.337 E.01094
G1 X93.386 Y5.682 E.01056
;WIDTH:0.410601
G1 X93.208 Y5.917 E.00836
;WIDTH:0.45089
G1 X93.069 Y6.046 E.00598
;WIDTH:0.491179
G1 X92.93 Y6.175 E.00657
;WIDTH:0.531468
G1 X92.791 Y6.304 E.00716
;WIDTH:0.565734
G1 X92.761 Y6.376 E.00316
;WIDTH:0.599999
G1 X92.732 Y6.448 E.00336
G1 X92.761 Y6.696 E.01078
G1 X93.019 Y7.142 E.02217
