; HEADER_BLOCK_START
; generated by OrcaSlicer 1.6.6 on 2023-12-04 at 22:15:20
; total layer number: 20
; HEADER_BLOCK_END

; THUMBNAIL_BLOCK_START
; THUMBNAIL_BLOCK_END

; external perimeters extrusion width = 0.48mm
; perimeters extrusion width = 0.48mm
; infill extrusion width = 0.48mm
; solid infill extrusion width = 0.48mm
; top infill extrusion width = 0.48mm
; support material extrusion width = 0.40mm
; first layer extrusion width = 0.60mm

; external perimeters extrusion width = 0.48mm
; perimeters extrusion width = 0.48mm
; infill extrusion width = 0.48mm
; solid infill extrusion width = 0.48mm
; top infill extrusion width = 0.48mm
; support material extrusion width = 0.40mm
; first layer extrusion width = 0.60mm

; EXECUTABLE_BLOCK_START
EXCLUDE_OBJECT_DEFINE NAME=neopixel_stick_cover.stl_id_0_copy_0 CENTER=60.8643,87.1045 POLYGON=[[34.8643,83.6045],[86.8643,83.6045],[86.8643,90.6045],[34.8643,90.6045],[34.8643,83.6045]]
EXCLUDE_OBJECT_DEFINE NAME=neopixel_stick_cover.stl_id_1_copy_0 CENTER=61.5189,52.6656 POLYGON=[[35.5189,49.1656],[87.5189,49.1656],[87.5189,56.1656],[35.5189,56.1656],[35.5189,49.1656]]
M73 P0 R2
;TYPE:Custom
M104 S0
M140 S0

print_start EXTRUDER=280 BED=110

G92 E0.0
G90
G21
M83 ; use relative distances for extrusion
; Filament gcode
SET_PRESSURE_ADVANCE ADVANCE=0.015; Override pressure advance value
M106 S0
;LAYER_CHANGE
;Z:0.2
;HEIGHT:0.2
;BEFORE_LAYER_CHANGE
;0.2
G92 E0

G1 E-.5 F1800
;AFTER_LAYER_CHANGE
;0.2
SET_VELOCITY_LIMIT ACCEL=10000
SET_VELOCITY_LIMIT SQUARE_CORNER_VELOCITY=9
; printing object neopixel_stick_cover.stl id:0 copy 0
EXCLUDE_OBJECT_START NAME=neopixel_stick_cover.stl_id_0_copy_0
G1 X36.836 Y88.633 F30000
G1 Z.2
G1 E.5 F1800
;TYPE:Inner wall
;WIDTH:0.6
G1 F6000
G1 X36.836 Y85.576 E.12747
G1 X84.893 Y85.576 E2.00348
G1 X84.893 Y88.633 E.12747
G1 X36.876 Y88.633 E2.00181
G1 X36.278 Y89.19 F30000
G1 F6000
G1 X36.278 Y85.019 E.17391
M73 P1 R2
G1 X85.45 Y85.019 E2.04993
G1 X85.45 Y89.19 E.17391
G1 X36.318 Y89.19 E2.04826
G1 X35.721 Y89.747 F30000
G1 F6000
G1 X35.721 Y84.462 E.22036
G1 X86.007 Y84.462 E2.09638
M73 P2 R2
G1 X86.007 Y89.747 E.22036
G1 X35.761 Y89.747 E2.09471
G1 X35.164 Y90.305 F30000
;TYPE:Outer wall
G1 F6000
G1 X35.164 Y83.905 E.26681
G1 X86.564 Y83.905 E2.14283
G1 X86.564 Y90.305 E.26681
M73 P3 R2
G1 X35.204 Y90.305 E2.14116
G1 E-.5 F1800
G17
G3 Z.3 I.029 J.303 P1  F30000
G1 X83.597 Y85.743 Z.3
G1 Z.2
G1 E.5 F1800
;TYPE:Bottom surface
;WIDTH:0.601512
G1 F9000
G1 X84.475 Y86.622 E.05194
G1 X84.475 Y87.411 E.03302
G1 X83.057 Y85.994 E.08382
G1 X82.267 Y85.994 E.03302
G1 X84.475 Y88.215 E.13094
G1 X83.699 Y88.215 E.03244
G1 X81.477 Y85.994 E.13136
G1 X80.687 Y85.994 E.03302
G1 X82.909 Y88.215 E.13136
G1 X82.119 Y88.215 E.03302
G1 X79.897 Y85.994 E.13136
G1 X79.108 Y85.994 E.03302
G1 X81.329 Y88.215 E.13136
G1 X80.539 Y88.215 E.03302
G1 X78.318 Y85.994 E.13136
G1 X77.528 Y85.994 E.03302
G1 X79.75 Y88.215 E.13136
G1 X78.96 Y88.215 E.03302
G1 X76.738 Y85.994 E.13136
G1 X75.948 Y85.994 E.03302
G1 X78.17 Y88.215 E.13136
G1 X77.38 Y88.215 E.03302
G1 X75.158 Y85.994 E.13136
G1 X74.368 Y85.994 E.03302
M73 P4 R2
G1 X76.59 Y88.215 E.13136
G1 X75.8 Y88.215 E.03302
G1 X73.578 Y85.994 E.13136
G1 X72.788 Y85.994 E.03302
G1 X75.01 Y88.215 E.13136
G1 X74.22 Y88.215 E.03302
G1 X71.998 Y85.994 E.13136
G1 X71.208 Y85.994 E.03302
G1 X73.43 Y88.215 E.13136
G1 X72.64 Y88.215 E.03302
G1 X70.418 Y85.994 E.13136
G1 X69.628 Y85.994 E.03302
G1 X71.85 Y88.215 E.13136
G1 X71.06 Y88.215 E.03302
G1 X68.838 Y85.994 E.13136
G1 X68.048 Y85.994 E.03302
G1 X70.27 Y88.215 E.13136
G1 X69.48 Y88.215 E.03302
G1 X67.258 Y85.994 E.13136
G1 X66.468 Y85.994 E.03302
G1 X68.69 Y88.215 E.13136
G1 X67.9 Y88.215 E.03302
G1 X65.678 Y85.994 E.13136
G1 X64.888 Y85.994 E.03302
G1 X67.11 Y88.215 E.13136
G1 X66.32 Y88.215 E.03302
G1 X64.098 Y85.994 E.13136
G1 X63.308 Y85.994 E.03302
G1 X65.53 Y88.215 E.13136
G1 X64.74 Y88.215 E.03302
G1 X62.518 Y85.994 E.13136
G1 X61.728 Y85.994 E.03302
G1 X63.95 Y88.215 E.13136
G1 X63.16 Y88.215 E.03302
G1 X60.938 Y85.994 E.13136
G1 X60.148 Y85.994 E.03302
G1 X62.37 Y88.215 E.13136
G1 X61.58 Y88.215 E.03302
G1 X59.358 Y85.994 E.13136
G1 X58.568 Y85.994 E.03302
G1 X60.79 Y88.215 E.13136
G1 X60 Y88.215 E.03302
G1 X57.778 Y85.994 E.13136
G1 X56.988 Y85.994 E.03302
G1 X59.21 Y88.215 E.13136
G1 X58.42 Y88.215 E.03302
G1 X56.198 Y85.994 E.13136
G1 X55.408 Y85.994 E.03302
G1 X57.63 Y88.215 E.13136
G1 X56.84 Y88.215 E.03302
G1 X54.618 Y85.994 E.13136
G1 X53.829 Y85.994 E.03302
G1 X56.05 Y88.215 E.13136
G1 X55.26 Y88.215 E.03302
G1 X53.039 Y85.994 E.13136
G1 X52.249 Y85.994 E.03302
G1 X54.471 Y88.215 E.13136
M73 P5 R2
G1 X53.681 Y88.215 E.03302
G1 X51.459 Y85.994 E.13136
G1 X50.669 Y85.994 E.03302
G1 X52.891 Y88.215 E.13136
G1 X52.101 Y88.215 E.03302
G1 X49.879 Y85.994 E.13136
G1 X49.089 Y85.994 E.03302
G1 X51.311 Y88.215 E.13136
G1 X50.521 Y88.215 E.03302
G1 X48.299 Y85.994 E.13136
G1 X47.509 Y85.994 E.03302
G1 X49.731 Y88.215 E.13136
G1 X48.941 Y88.215 E.03302
G1 X46.719 Y85.994 E.13136
G1 X45.929 Y85.994 E.03302
G1 X48.151 Y88.215 E.13136
G1 X47.361 Y88.215 E.03302
G1 X45.139 Y85.994 E.13136
G1 X44.349 Y85.994 E.03302
G1 X46.571 Y88.215 E.13136
G1 X45.781 Y88.215 E.03302
G1 X43.559 Y85.994 E.13136
G1 X42.769 Y85.994 E.03302
G1 X44.991 Y88.215 E.13136
G1 X44.201 Y88.215 E.03302
G1 X41.979 Y85.994 E.13136
G1 X41.189 Y85.994 E.03302
G1 X43.411 Y88.215 E.13136
G1 X42.621 Y88.215 E.03302
G1 X40.399 Y85.994 E.13136
G1 X39.609 Y85.994 E.03302
G1 X41.831 Y88.215 E.13136
G1 X41.041 Y88.215 E.03302
G1 X38.819 Y85.994 E.13136
G1 X38.029 Y85.994 E.03302
G1 X40.251 Y88.215 E.13136
G1 X39.461 Y88.215 E.03302
G1 X37.253 Y86.008 E.13052
G1 X37.253 Y86.798 E.03302
G1 X38.671 Y88.215 E.08382
G1 X37.881 Y88.215 E.03302
G1 X37.003 Y87.337 E.05194
; stop printing object neopixel_stick_cover.stl id:0 copy 0
; printing object neopixel_stick_cover.stl id:1 copy 0
G1 E-.35 F1800
;WIPE_START
G1 F9000
G1 X37.71 Y88.044 E-.1425
;WIPE_END
G1 E-.0075 F1800
EXCLUDE_OBJECT_END NAME=neopixel_stick_cover.stl_id_0_copy_0
EXCLUDE_OBJECT_START NAME=neopixel_stick_cover.stl_id_1_copy_0
G17
G3 Z.3 I.304 J-.002 P1  F30000
G1 X37.49 Y54.194 Z.3
G1 Z.2
G1 E.5 F1800
;TYPE:Inner wall
;WIDTH:0.6
G1 F6000
G1 X37.49 Y51.137 E.12747
G1 X85.548 Y51.137 E2.00348
M73 P6 R2
G1 X85.548 Y54.194 E.12747
G1 X37.53 Y54.194 E2.00181
G1 X36.933 Y54.751 F30000
G1 F6000
G1 X36.933 Y50.58 E.17391
G1 X86.105 Y50.58 E2.04993
M73 P7 R2
G1 X86.105 Y54.751 E.17391
G1 X36.973 Y54.751 E2.04826
G1 X36.376 Y55.308 F30000
G1 F6000
G1 X36.376 Y50.023 E.22036
G1 X86.662 Y50.023 E2.09638
G1 X86.662 Y55.308 E.22036
G1 X36.416 Y55.308 E2.09471
M73 P8 R2
G1 X35.819 Y55.866 F30000
;TYPE:Outer wall
G1 F6000
G1 X35.819 Y49.466 E.26681
G1 X87.219 Y49.466 E2.14283
G1 X87.219 Y55.866 E.26681
G1 X35.859 Y55.866 E2.14116
M73 P9 R2
G1 E-.5 F1800
G17
G3 Z.3 I.029 J.303 P1  F30000
G1 X84.251 Y51.304 Z.3
G1 Z.2
G1 E.5 F1800
;TYPE:Bottom surface
;WIDTH:0.601512
G1 F9000
G1 X85.13 Y52.183 E.05194
G1 X85.13 Y52.973 E.03302
G1 X83.712 Y51.555 E.08382
G1 X82.922 Y51.555 E.03302
G1 X85.13 Y53.777 E.13094
G1 X84.354 Y53.777 E.03244
G1 X82.132 Y51.555 E.13136
G1 X81.342 Y51.555 E.03302
G1 X83.564 Y53.777 E.13136
G1 X82.774 Y53.777 E.03302
G1 X80.552 Y51.555 E.13136
G1 X79.762 Y51.555 E.03302
G1 X81.984 Y53.777 E.13136
G1 X81.194 Y53.777 E.03302
G1 X78.972 Y51.555 E.13136
G1 X78.182 Y51.555 E.03302
G1 X80.404 Y53.777 E.13136
G1 X79.614 Y53.777 E.03302
G1 X77.392 Y51.555 E.13136
G1 X76.602 Y51.555 E.03302
G1 X78.824 Y53.777 E.13136
G1 X78.034 Y53.777 E.03302
G1 X75.812 Y51.555 E.13136
G1 X75.022 Y51.555 E.03302
G1 X77.244 Y53.777 E.13136
G1 X76.454 Y53.777 E.03302
G1 X74.232 Y51.555 E.13136
G1 X73.442 Y51.555 E.03302
G1 X75.664 Y53.777 E.13136
G1 X74.874 Y53.777 E.03302
G1 X72.652 Y51.555 E.13136
G1 X71.862 Y51.555 E.03302
G1 X74.084 Y53.777 E.13136
G1 X73.294 Y53.777 E.03302
G1 X71.072 Y51.555 E.13136
G1 X70.283 Y51.555 E.03302
G1 X72.504 Y53.777 E.13136
G1 X71.714 Y53.777 E.03302
G1 X69.493 Y51.555 E.13136
G1 X68.703 Y51.555 E.03302
G1 X70.925 Y53.777 E.13136
M73 P10 R2
G1 X70.135 Y53.777 E.03302
G1 X67.913 Y51.555 E.13136
G1 X67.123 Y51.555 E.03302
G1 X69.345 Y53.777 E.13136
G1 X68.555 Y53.777 E.03302
G1 X66.333 Y51.555 E.13136
G1 X65.543 Y51.555 E.03302
G1 X67.765 Y53.777 E.13136
G1 X66.975 Y53.777 E.03302
G1 X64.753 Y51.555 E.13136
G1 X63.963 Y51.555 E.03302
G1 X66.185 Y53.777 E.13136
G1 X65.395 Y53.777 E.03302
G1 X63.173 Y51.555 E.13136
G1 X62.383 Y51.555 E.03302
G1 X64.605 Y53.777 E.13136
G1 X63.815 Y53.777 E.03302
G1 X61.593 Y51.555 E.13136
G1 X60.803 Y51.555 E.03302
G1 X63.025 Y53.777 E.13136
G1 X62.235 Y53.777 E.03302
G1 X60.013 Y51.555 E.13136
G1 X59.223 Y51.555 E.03302
G1 X61.445 Y53.777 E.13136
G1 X60.655 Y53.777 E.03302
G1 X58.433 Y51.555 E.13136
G1 X57.643 Y51.555 E.03302
G1 X59.865 Y53.777 E.13136
G1 X59.075 Y53.777 E.03302
G1 X56.853 Y51.555 E.13136
G1 X56.063 Y51.555 E.03302
G1 X58.285 Y53.777 E.13136
G1 X57.495 Y53.777 E.03302
G1 X55.273 Y51.555 E.13136
G1 X54.483 Y51.555 E.03302
G1 X56.705 Y53.777 E.13136
G1 X55.915 Y53.777 E.03302
G1 X53.693 Y51.555 E.13136
G1 X52.903 Y51.555 E.03302
G1 X55.125 Y53.777 E.13136
G1 X54.335 Y53.777 E.03302
G1 X52.113 Y51.555 E.13136
G1 X51.323 Y51.555 E.03302
G1 X53.545 Y53.777 E.13136
G1 X52.755 Y53.777 E.03302
G1 X50.533 Y51.555 E.13136
G1 X49.743 Y51.555 E.03302
G1 X51.965 Y53.777 E.13136
G1 X51.175 Y53.777 E.03302
G1 X48.953 Y51.555 E.13136
G1 X48.163 Y51.555 E.03302
G1 X50.385 Y53.777 E.13136
G1 X49.595 Y53.777 E.03302
G1 X47.373 Y51.555 E.13136
G1 X46.583 Y51.555 E.03302
G1 X48.805 Y53.777 E.13136
G1 X48.015 Y53.777 E.03302
M73 P11 R2
G1 X45.794 Y51.555 E.13136
G1 X45.004 Y51.555 E.03302
G1 X47.225 Y53.777 E.13136
G1 X46.436 Y53.777 E.03302
G1 X44.214 Y51.555 E.13136
G1 X43.424 Y51.555 E.03302
G1 X45.646 Y53.777 E.13136
G1 X44.856 Y53.777 E.03302
G1 X42.634 Y51.555 E.13136
G1 X41.844 Y51.555 E.03302
G1 X44.066 Y53.777 E.13136
G1 X43.276 Y53.777 E.03302
G1 X41.054 Y51.555 E.13136
G1 X40.264 Y51.555 E.03302
G1 X42.486 Y53.777 E.13136
G1 X41.696 Y53.777 E.03302
G1 X39.474 Y51.555 E.13136
G1 X38.684 Y51.555 E.03302
G1 X40.906 Y53.777 E.13136
G1 X40.116 Y53.777 E.03302
G1 X37.908 Y51.569 E.13052
G1 X37.908 Y52.359 E.03302
G1 X39.326 Y53.777 E.08382
G1 X38.536 Y53.777 E.03302
G1 X37.657 Y52.898 E.05194
; stop printing object neopixel_stick_cover.stl id:1 copy 0
M106 S38
;LAYER_CHANGE
;Z:0.4
;HEIGHT:0.2
;BEFORE_LAYER_CHANGE
;0.4
G92 E0

G1 E-.35 F1800
;WIPE_START
G1 F9000
G1 X38.364 Y53.605 E-.1425
;WIPE_END
G1 E-.0075 F1800
EXCLUDE_OBJECT_END NAME=neopixel_stick_cover.stl_id_1_copy_0
;AFTER_LAYER_CHANGE
;0.4
M140 S110 ; set bed temperature
; printing object neopixel_stick_cover.stl id:0 copy 0
SET_VELOCITY_LIMIT SQUARE_CORNER_VELOCITY=12
EXCLUDE_OBJECT_START NAME=neopixel_stick_cover.stl_id_0_copy_0
G17
G3 Z.4 I-.608 J-.033 P1  F30000
G1 X36.416 Y89.053 Z.4
G1 E.5 F1800
SET_VELOCITY_LIMIT SQUARE_CORNER_VELOCITY=7
;TYPE:Inner wall
;WIDTH:0.48
G1 F12000
G1 X36.416 Y85.156 E.12748
G1 X85.313 Y85.156 E1.59939
G1 X85.313 Y89.053 E.12748
G1 X36.456 Y89.053 E1.59808
SET_VELOCITY_LIMIT SQUARE_CORNER_VELOCITY=12
M73 P12 R2
G1 X35.978 Y89.49 F30000
SET_VELOCITY_LIMIT SQUARE_CORNER_VELOCITY=7
G1 F12000
G1 X35.978 Y84.719 E.15608
G1 X85.75 Y84.719 E1.62798
G1 X85.75 Y89.49 E.15608
G1 X36.018 Y89.49 E1.62667
SET_VELOCITY_LIMIT SQUARE_CORNER_VELOCITY=12
G1 X35.541 Y89.927 F30000
SET_VELOCITY_LIMIT SQUARE_CORNER_VELOCITY=7
G1 F12000
G1 X35.541 Y84.282 E.18467
G1 X86.187 Y84.282 E1.65657
G1 X86.187 Y89.927 E.18467
G1 X35.581 Y89.927 E1.65527
SET_VELOCITY_LIMIT SQUARE_CORNER_VELOCITY=12
G1 X35.104 Y90.365 F30000
SET_VELOCITY_LIMIT SQUARE_CORNER_VELOCITY=7
;TYPE:Outer wall
G1 F12000
G1 X35.104 Y83.845 E.21326
G1 X86.624 Y83.845 E1.68517
M73 P13 R2
G1 X86.624 Y90.365 E.21326
G1 X35.144 Y90.365 E1.68386
SET_VELOCITY_LIMIT SQUARE_CORNER_VELOCITY=12
G1 E-.5 F1800
G17
G3 Z.5 I.02 J.304 P1  F30000
G1 X84.876 Y87.105 Z.5
G1 Z.4
G1 E.5 F1800
SET_VELOCITY_LIMIT SQUARE_CORNER_VELOCITY=20
;TYPE:Internal solid infill
;WIDTH:0.479999
G1 F18532.119
G1 X84.876 Y85.593 E.04945
G1 X36.853 Y85.593 E1.57079
G1 X36.853 Y88.616 E.09889
G1 X84.876 Y88.616 E1.57079
G1 X84.876 Y87.145 E.04814
SET_VELOCITY_LIMIT SQUARE_CORNER_VELOCITY=12
G1 X84.439 Y87.105 F30000
SET_VELOCITY_LIMIT SQUARE_CORNER_VELOCITY=20
G1 F18532.119
G1 X84.439 Y86.03 E.03515
G1 X37.29 Y86.03 E1.5422
M73 P14 R2
G1 X37.29 Y88.179 E.0703
G1 X84.439 Y88.179 E1.5422
G1 X84.439 Y87.145 E.03384
SET_VELOCITY_LIMIT SQUARE_CORNER_VELOCITY=12
G1 X84.002 Y87.105 F30000
SET_VELOCITY_LIMIT SQUARE_CORNER_VELOCITY=20
G1 F18532.119
G1 X84.002 Y86.467 E.02085
G1 X37.727 Y86.467 E1.51361
G1 X37.727 Y87.742 E.04171
G1 X84.002 Y87.742 E1.51361
G1 X84.002 Y87.145 E.01954
SET_VELOCITY_LIMIT SQUARE_CORNER_VELOCITY=12
G1 X83.574 Y87.105 F30000
SET_VELOCITY_LIMIT SQUARE_CORNER_VELOCITY=20
;WIDTH:0.46191
G1 F19332.204
G1 X83.574 Y86.895 E.00657
G1 X38.155 Y86.895 E1.42412
G1 X38.155 Y87.314 E.01314
G1 X83.574 Y87.314 E1.42412
G1 X83.574 Y87.145 E.00531
; stop printing object neopixel_stick_cover.stl id:0 copy 0
; printing object neopixel_stick_cover.stl id:1 copy 0
SET_VELOCITY_LIMIT SQUARE_CORNER_VELOCITY=12
G1 E-.35 F1800
;WIPE_START
G1 F19332.204
G1 X83.574 Y87.314 E-.02415
G1 X82.743 Y87.314 E-.11835
;WIPE_END
G1 E-.0075 F1800
EXCLUDE_OBJECT_END NAME=neopixel_stick_cover.stl_id_0_copy_0
EXCLUDE_OBJECT_START NAME=neopixel_stick_cover.stl_id_1_copy_0
G17
G3 Z.5 I.177 J-.247 P1  F30000
G1 X37.07 Y54.614 Z.5
G1 Z.4
G1 E.5 F1800
SET_VELOCITY_LIMIT SQUARE_CORNER_VELOCITY=7
;TYPE:Inner wall
;WIDTH:0.48
G1 F12000
G1 X37.07 Y50.717 E.12748
G1 X85.968 Y50.717 E1.59939
M73 P15 R2
G1 X85.968 Y54.614 E.12748
G1 X37.11 Y54.614 E1.59808
SET_VELOCITY_LIMIT SQUARE_CORNER_VELOCITY=12
G1 X36.633 Y55.051 F30000
SET_VELOCITY_LIMIT SQUARE_CORNER_VELOCITY=7
G1 F12000
G1 X36.633 Y50.28 E.15608
G1 X86.405 Y50.28 E1.62798
G1 X86.405 Y55.051 E.15608
G1 X36.673 Y55.051 E1.62667
SET_VELOCITY_LIMIT SQUARE_CORNER_VELOCITY=12
G1 X36.196 Y55.488 F30000
SET_VELOCITY_LIMIT SQUARE_CORNER_VELOCITY=7
G1 F12000
G1 X36.196 Y49.843 E.18467
G1 X86.842 Y49.843 E1.65657
M73 P16 R2
G1 X86.842 Y55.488 E.18467
G1 X36.236 Y55.488 E1.65527
SET_VELOCITY_LIMIT SQUARE_CORNER_VELOCITY=12
M73 P16 R1
G1 X35.759 Y55.926 F30000
SET_VELOCITY_LIMIT SQUARE_CORNER_VELOCITY=7
;TYPE:Outer wall
G1 F12000
G1 X35.759 Y49.406 E.21326
G1 X87.279 Y49.406 E1.68517
G1 X87.279 Y55.926 E.21326
G1 X35.799 Y55.926 E1.68386
SET_VELOCITY_LIMIT SQUARE_CORNER_VELOCITY=12
G1 E-.5 F1800
G17
G3 Z.5 I.02 J.304 P1  F30000
G1 X85.531 Y52.666 Z.5
G1 Z.4
G1 E.5 F1800
SET_VELOCITY_LIMIT SQUARE_CORNER_VELOCITY=20
;TYPE:Internal solid infill
;WIDTH:0.479999
G1 F18532.119
G1 X85.531 Y51.154 E.04945
G1 X37.507 Y51.154 E1.57079
M73 P17 R1
G1 X37.507 Y54.177 E.09889
G1 X85.531 Y54.177 E1.57079
G1 X85.531 Y52.706 E.04814
SET_VELOCITY_LIMIT SQUARE_CORNER_VELOCITY=12
G1 X85.094 Y52.666 F30000
SET_VELOCITY_LIMIT SQUARE_CORNER_VELOCITY=20
G1 F18532.119
G1 X85.094 Y51.591 E.03515
G1 X37.944 Y51.591 E1.5422
G1 X37.944 Y53.74 E.0703
G1 X85.094 Y53.74 E1.5422
G1 X85.094 Y52.706 E.03384
SET_VELOCITY_LIMIT SQUARE_CORNER_VELOCITY=12
G1 X84.656 Y52.666 F30000
SET_VELOCITY_LIMIT SQUARE_CORNER_VELOCITY=20
G1 F18532.119
G1 X84.656 Y52.028 E.02085
G1 X38.381 Y52.028 E1.51361
G1 X38.381 Y53.303 E.04171
G1 X84.656 Y53.303 E1.51361
G1 X84.656 Y52.706 E.01954
SET_VELOCITY_LIMIT SQUARE_CORNER_VELOCITY=12
G1 X84.228 Y52.666 F30000
SET_VELOCITY_LIMIT SQUARE_CORNER_VELOCITY=20
;WIDTH:0.46191
G1 F19332.204
G1 X84.228 Y52.456 E.00657
G1 X38.809 Y52.456 E1.42412
G1 X38.809 Y52.875 E.01314
G1 X84.228 Y52.875 E1.42412
M73 P18 R1
G1 X84.228 Y52.706 E.00531
; stop printing object neopixel_stick_cover.stl id:1 copy 0
M106 S76
;LAYER_CHANGE
;Z:0.6
;HEIGHT:0.2
;BEFORE_LAYER_CHANGE
;0.6
G92 E0

G1 E-.35 F1800
;WIPE_START
G1 F19332.204
G1 X84.228 Y52.875 E-.02415
G1 X83.398 Y52.875 E-.11835
;WIPE_END
G1 E-.0075 F1800
EXCLUDE_OBJECT_END NAME=neopixel_stick_cover.stl_id_1_copy_0
;AFTER_LAYER_CHANGE
;0.6
