; HEADER_BLOCK_START
; generated by OrcaSlicer 1.6.6 on 2023-12-04 at 21:35:28
; total layer number: 20
; HEADER_BLOCK_END

; THUMBNAIL_BLOCK_START
; THUMBNAIL_BLOCK_END

; external perimeters extrusion width = 0.48mm
; perimeters extrusion width = 0.48mm
; infill extrusion width = 0.48mm
; solid infill extrusion width = 0.48mm
; top infill extrusion width = 0.48mm
; support material extrusion width = 0.40mm
; first layer extrusion width = 0.60mm

; external perimeters extrusion width = 0.48mm
; perimeters extrusion width = 0.48mm
; infill extrusion width = 0.48mm
; solid infill extrusion width = 0.48mm
; top infill extrusion width = 0.48mm
; support material extrusion width = 0.40mm
; first layer extrusion width = 0.60mm

; EXECUTABLE_BLOCK_START
EXCLUDE_OBJECT_DEFINE NAME=neopixel_stick_cover.stl_id_0_copy_0 CENTER=58.1309,45.6693 POLYGON=[[33.1309,42.1693],[83.1309,42.1693],[83.1309,49.1693],[33.1309,49.1693],[33.1309,42.1693]]
EXCLUDE_OBJECT_DEFINE NAME=neopixel_stick_cover.stl_id_1_copy_0 CENTER=60.8643,87.1045 POLYGON=[[35.8643,83.6045],[85.8643,83.6045],[85.8643,90.6045],[35.8643,90.6045],[35.8643,83.6045]]
M73 P0 R3
;TYPE:Custom
M104 S0
M140 S0

print_start EXTRUDER=280 BED=110

G92 E0.0
G90
G21
M83 ; use relative distances for extrusion
; Filament gcode
SET_PRESSURE_ADVANCE ADVANCE=0.015; Override pressure advance value
M106 S0
;LAYER_CHANGE
;Z:0.2
;HEIGHT:0.2
;BEFORE_LAYER_CHANGE
;0.2
G92 E0

G1 E-.5 F1800
;AFTER_LAYER_CHANGE
;0.2
SET_VELOCITY_LIMIT ACCEL=10000
SET_VELOCITY_LIMIT SQUARE_CORNER_VELOCITY=9
; printing object neopixel_stick_cover.stl id:0 copy 0
EXCLUDE_OBJECT_START NAME=neopixel_stick_cover.stl_id_0_copy_0
G1 X35.102 Y47.198 F30000
G1 Z.2
G1 E.5 F1800
;TYPE:Inner wall
;WIDTH:0.6
G1 F6000
G1 X35.102 Y44.141 E.12747
G1 X81.16 Y44.141 E1.9201
G1 X81.16 Y47.198 E.12747
G1 X35.142 Y47.198 E1.91844
G1 X34.545 Y47.755 F30000
G1 F6000
G1 X34.545 Y43.583 E.17391
G1 X81.717 Y43.583 E1.96655
G1 X81.717 Y47.755 E.17391
M73 P1 R3
G1 X34.585 Y47.755 E1.96488
G1 X33.988 Y48.312 F30000
G1 F6000
G1 X33.988 Y43.026 E.22036
G1 X82.274 Y43.026 E2.013
G1 X82.274 Y48.312 E.22036
G1 X34.028 Y48.312 E2.01133
G1 X33.431 Y48.869 F30000
;TYPE:Outer wall
G1 F6000
G1 X33.431 Y42.469 E.26681
G1 X82.831 Y42.469 E2.05945
M73 P2 R3
G1 X82.831 Y48.869 E.26681
G1 X33.471 Y48.869 E2.05778
G1 E-.5 F1800
G17
G3 Z.3 I.03 J.303 P1  F30000
G1 X79.854 Y44.308 Z.3
G1 Z.2
G1 E.5 F1800
;TYPE:Bottom surface
;WIDTH:0.6058
G1 F9000
G1 X80.742 Y45.195 E.05288
G1 X80.742 Y45.991 E.03353
G1 X79.309 Y44.558 E.08537
G1 X78.513 Y44.558 E.03353
G1 X80.735 Y46.78 E.13236
G1 X79.939 Y46.78 E.03353
G1 X77.717 Y44.558 E.13236
G1 X76.921 Y44.558 E.03353
G1 X79.143 Y46.78 E.13236
G1 X78.347 Y46.78 E.03353
G1 X76.125 Y44.558 E.13236
G1 X75.329 Y44.558 E.03353
G1 X77.551 Y46.78 E.13236
G1 X76.755 Y46.78 E.03353
G1 X74.533 Y44.558 E.13236
G1 X73.737 Y44.558 E.03353
G1 X75.959 Y46.78 E.13236
G1 X75.162 Y46.78 E.03353
G1 X72.941 Y44.558 E.13236
G1 X72.145 Y44.558 E.03353
G1 X74.366 Y46.78 E.13236
G1 X73.57 Y46.78 E.03353
G1 X71.348 Y44.558 E.13236
G1 X70.552 Y44.558 E.03353
G1 X72.774 Y46.78 E.13236
G1 X71.978 Y46.78 E.03353
G1 X69.756 Y44.558 E.13236
G1 X68.96 Y44.558 E.03353
M73 P3 R3
G1 X71.182 Y46.78 E.13236
G1 X70.386 Y46.78 E.03353
G1 X68.164 Y44.558 E.13236
G1 X67.368 Y44.558 E.03353
G1 X69.59 Y46.78 E.13236
G1 X68.794 Y46.78 E.03353
G1 X66.572 Y44.558 E.13236
G1 X65.776 Y44.558 E.03353
G1 X67.998 Y46.78 E.13236
G1 X67.202 Y46.78 E.03353
G1 X64.98 Y44.558 E.13236
G1 X64.184 Y44.558 E.03353
G1 X66.406 Y46.78 E.13236
G1 X65.61 Y46.78 E.03353
G1 X63.388 Y44.558 E.13236
G1 X62.592 Y44.558 E.03353
G1 X64.814 Y46.78 E.13236
G1 X64.018 Y46.78 E.03353
G1 X61.796 Y44.558 E.13236
G1 X61 Y44.558 E.03353
G1 X63.222 Y46.78 E.13236
G1 X62.426 Y46.78 E.03353
G1 X60.204 Y44.558 E.13236
G1 X59.408 Y44.558 E.03353
G1 X61.63 Y46.78 E.13236
G1 X60.834 Y46.78 E.03353
G1 X58.612 Y44.558 E.13236
G1 X57.816 Y44.558 E.03353
G1 X60.038 Y46.78 E.13236
G1 X59.242 Y46.78 E.03353
G1 X57.02 Y44.558 E.13236
G1 X56.224 Y44.558 E.03353
G1 X58.446 Y46.78 E.13236
G1 X57.65 Y46.78 E.03353
G1 X55.428 Y44.558 E.13236
M73 P3 R2
G1 X54.632 Y44.558 E.03353
G1 X56.854 Y46.78 E.13236
G1 X56.058 Y46.78 E.03353
G1 X53.836 Y44.558 E.13236
G1 X53.04 Y44.558 E.03353
G1 X55.262 Y46.78 E.13236
G1 X54.466 Y46.78 E.03353
G1 X52.244 Y44.558 E.13236
G1 X51.448 Y44.558 E.03353
G1 X53.67 Y46.78 E.13236
G1 X52.874 Y46.78 E.03353
G1 X50.652 Y44.558 E.13236
G1 X49.856 Y44.558 E.03353
G1 X52.078 Y46.78 E.13236
G1 X51.281 Y46.78 E.03353
G1 X49.06 Y44.558 E.13236
G1 X48.264 Y44.558 E.03353
G1 X50.485 Y46.78 E.13236
G1 X49.689 Y46.78 E.03353
G1 X47.467 Y44.558 E.13236
G1 X46.671 Y44.558 E.03353
G1 X48.893 Y46.78 E.13236
G1 X48.097 Y46.78 E.03353
G1 X45.875 Y44.558 E.13236
G1 X45.079 Y44.558 E.03353
G1 X47.301 Y46.78 E.13236
G1 X46.505 Y46.78 E.03353
G1 X44.283 Y44.558 E.13236
G1 X43.487 Y44.558 E.03353
G1 X45.709 Y46.78 E.13236
G1 X44.913 Y46.78 E.03353
G1 X42.691 Y44.558 E.13236
G1 X41.895 Y44.558 E.03353
G1 X44.117 Y46.78 E.13236
G1 X43.321 Y46.78 E.03353
G1 X41.099 Y44.558 E.13236
G1 X40.303 Y44.558 E.03353
G1 X42.525 Y46.78 E.13236
G1 X41.729 Y46.78 E.03353
M73 P4 R2
G1 X39.507 Y44.558 E.13236
G1 X38.711 Y44.558 E.03353
G1 X40.933 Y46.78 E.13236
G1 X40.137 Y46.78 E.03353
G1 X37.915 Y44.558 E.13236
G1 X37.119 Y44.558 E.03353
G1 X39.341 Y46.78 E.13236
G1 X38.545 Y46.78 E.03353
G1 X36.323 Y44.558 E.13236
G1 X35.527 Y44.558 E.03353
G1 X37.749 Y46.78 E.13236
G1 X36.953 Y46.78 E.03353
G1 X35.52 Y45.347 E.08536
G1 X35.52 Y46.143 E.03353
G1 X36.408 Y47.031 E.05288
; stop printing object neopixel_stick_cover.stl id:0 copy 0
; printing object neopixel_stick_cover.stl id:1 copy 0
G1 E-.35 F1800
;WIPE_START
G1 F9000
G1 X35.7 Y46.324 E-.1425
;WIPE_END
G1 E-.0075 F1800
EXCLUDE_OBJECT_END NAME=neopixel_stick_cover.stl_id_0_copy_0
EXCLUDE_OBJECT_START NAME=neopixel_stick_cover.stl_id_1_copy_0
G17
G3 Z.3 I-.304 J.015 P1  F30000
G1 X37.836 Y88.633 Z.3
G1 Z.2
G1 E.5 F1800
;TYPE:Inner wall
;WIDTH:0.6
G1 F6000
G1 X37.836 Y85.576 E.12747
G1 X83.893 Y85.576 E1.9201
G1 X83.893 Y88.633 E.12747
G1 X37.876 Y88.633 E1.91844
G1 X37.278 Y89.19 F30000
G1 F6000
G1 X37.278 Y85.019 E.17391
G1 X84.45 Y85.019 E1.96655
M73 P5 R2
G1 X84.45 Y89.19 E.17391
G1 X37.318 Y89.19 E1.96488
G1 X36.721 Y89.747 F30000
G1 F6000
G1 X36.721 Y84.462 E.22036
G1 X85.007 Y84.462 E2.013
G1 X85.007 Y89.747 E.22036
G1 X36.761 Y89.747 E2.01133
M73 P6 R2
G1 X36.164 Y90.305 F30000
;TYPE:Outer wall
G1 F6000
G1 X36.164 Y83.905 E.26681
G1 X85.564 Y83.905 E2.05945
G1 X85.564 Y90.305 E.26681
G1 X36.204 Y90.305 E2.05778
G1 E-.5 F1800
G17
G3 Z.3 I.03 J.303 P1  F30000
G1 X82.588 Y85.743 Z.3
G1 Z.2
G1 E.5 F1800
;TYPE:Bottom surface
;WIDTH:0.6058
G1 F9000
G1 X83.475 Y86.631 E.05288
G1 X83.475 Y87.427 E.03353
G1 X82.042 Y85.994 E.08537
G1 X81.246 Y85.994 E.03353
G1 X83.468 Y88.215 E.13236
G1 X82.672 Y88.215 E.03353
G1 X80.45 Y85.994 E.13236
G1 X79.654 Y85.994 E.03353
G1 X81.876 Y88.215 E.13236
G1 X81.08 Y88.215 E.03353
G1 X78.858 Y85.994 E.13236
G1 X78.062 Y85.994 E.03353
G1 X80.284 Y88.215 E.13236
M73 P7 R2
G1 X79.488 Y88.215 E.03353
G1 X77.266 Y85.994 E.13236
G1 X76.47 Y85.994 E.03353
G1 X78.692 Y88.215 E.13236
G1 X77.896 Y88.215 E.03353
G1 X75.674 Y85.994 E.13236
G1 X74.878 Y85.994 E.03353
G1 X77.1 Y88.215 E.13236
G1 X76.304 Y88.215 E.03353
G1 X74.082 Y85.994 E.13236
G1 X73.286 Y85.994 E.03353
G1 X75.508 Y88.215 E.13236
G1 X74.712 Y88.215 E.03353
G1 X72.49 Y85.994 E.13236
G1 X71.694 Y85.994 E.03353
G1 X73.916 Y88.215 E.13236
G1 X73.12 Y88.215 E.03353
G1 X70.898 Y85.994 E.13236
G1 X70.102 Y85.994 E.03353
G1 X72.324 Y88.215 E.13236
G1 X71.528 Y88.215 E.03353
G1 X69.306 Y85.994 E.13236
G1 X68.51 Y85.994 E.03353
G1 X70.732 Y88.215 E.13236
G1 X69.936 Y88.215 E.03353
G1 X67.714 Y85.994 E.13236
G1 X66.918 Y85.994 E.03353
G1 X69.14 Y88.215 E.13236
G1 X68.343 Y88.215 E.03353
G1 X66.122 Y85.994 E.13236
G1 X65.326 Y85.994 E.03353
G1 X67.547 Y88.215 E.13236
G1 X66.751 Y88.215 E.03353
G1 X64.529 Y85.994 E.13236
G1 X63.733 Y85.994 E.03353
G1 X65.955 Y88.215 E.13236
G1 X65.159 Y88.215 E.03353
G1 X62.937 Y85.994 E.13236
G1 X62.141 Y85.994 E.03353
G1 X64.363 Y88.215 E.13236
G1 X63.567 Y88.215 E.03353
G1 X61.345 Y85.994 E.13236
G1 X60.549 Y85.994 E.03353
G1 X62.771 Y88.215 E.13236
G1 X61.975 Y88.215 E.03353
G1 X59.753 Y85.994 E.13236
G1 X58.957 Y85.994 E.03353
G1 X61.179 Y88.215 E.13236
G1 X60.383 Y88.215 E.03353
G1 X58.161 Y85.994 E.13236
G1 X57.365 Y85.994 E.03353
G1 X59.587 Y88.215 E.13236
G1 X58.791 Y88.215 E.03353
G1 X56.569 Y85.994 E.13236
G1 X55.773 Y85.994 E.03353
G1 X57.995 Y88.215 E.13236
G1 X57.199 Y88.215 E.03353
G1 X54.977 Y85.994 E.13236
G1 X54.181 Y85.994 E.03353
G1 X56.403 Y88.215 E.13236
G1 X55.607 Y88.215 E.03353
G1 X53.385 Y85.994 E.13236
G1 X52.589 Y85.994 E.03353
G1 X54.811 Y88.215 E.13236
G1 X54.015 Y88.215 E.03353
G1 X51.793 Y85.994 E.13236
G1 X50.997 Y85.994 E.03353
G1 X53.219 Y88.215 E.13236
G1 X52.423 Y88.215 E.03353
G1 X50.201 Y85.994 E.13236
G1 X49.405 Y85.994 E.03353
G1 X51.627 Y88.215 E.13236
G1 X50.831 Y88.215 E.03353
G1 X48.609 Y85.994 E.13236
M73 P8 R2
G1 X47.813 Y85.994 E.03353
G1 X50.035 Y88.215 E.13236
G1 X49.239 Y88.215 E.03353
G1 X47.017 Y85.994 E.13236
G1 X46.221 Y85.994 E.03353
G1 X48.443 Y88.215 E.13236
G1 X47.647 Y88.215 E.03353
G1 X45.425 Y85.994 E.13236
G1 X44.629 Y85.994 E.03353
G1 X46.851 Y88.215 E.13236
G1 X46.055 Y88.215 E.03353
G1 X43.833 Y85.994 E.13236
G1 X43.037 Y85.994 E.03353
G1 X45.259 Y88.215 E.13236
G1 X44.463 Y88.215 E.03353
G1 X42.241 Y85.994 E.13236
G1 X41.445 Y85.994 E.03353
G1 X43.666 Y88.215 E.13236
G1 X42.87 Y88.215 E.03353
G1 X40.649 Y85.994 E.13236
G1 X39.852 Y85.994 E.03353
G1 X42.074 Y88.215 E.13236
G1 X41.278 Y88.215 E.03353
G1 X39.056 Y85.994 E.13236
G1 X38.26 Y85.994 E.03353
G1 X40.482 Y88.215 E.13236
G1 X39.686 Y88.215 E.03353
G1 X38.253 Y86.783 E.08536
G1 X38.253 Y87.579 E.03353
G1 X39.141 Y88.466 E.05288
; stop printing object neopixel_stick_cover.stl id:1 copy 0
M106 S40
;LAYER_CHANGE
;Z:0.4
;HEIGHT:0.2
;BEFORE_LAYER_CHANGE
;0.4
G92 E0

G1 E-.35 F1800
;WIPE_START
G1 F9000
G1 X38.434 Y87.759 E-.1425
;WIPE_END
G1 E-.0075 F1800
EXCLUDE_OBJECT_END NAME=neopixel_stick_cover.stl_id_1_copy_0
;AFTER_LAYER_CHANGE
;0.4
M140 S110 ; set bed temperature
; printing object neopixel_stick_cover.stl id:0 copy 0
SET_VELOCITY_LIMIT SQUARE_CORNER_VELOCITY=12
EXCLUDE_OBJECT_START NAME=neopixel_stick_cover.stl_id_0_copy_0
G17
G3 Z.4 I.606 J-.057 P1  F30000
G1 X34.682 Y47.618 Z.4
G1 E.5 F1800
SET_VELOCITY_LIMIT SQUARE_CORNER_VELOCITY=7
;TYPE:Inner wall
;WIDTH:0.48
G1 F12000
G1 X34.682 Y43.721 E.12748
G1 X81.58 Y43.721 E1.53397
G1 X81.58 Y47.618 E.12748
G1 X34.722 Y47.618 E1.53266
SET_VELOCITY_LIMIT SQUARE_CORNER_VELOCITY=12
G1 X34.245 Y48.055 F30000
SET_VELOCITY_LIMIT SQUARE_CORNER_VELOCITY=7
G1 F12000
G1 X34.245 Y43.283 E.15608
G1 X82.017 Y43.283 E1.56256
M73 P9 R2
G1 X82.017 Y48.055 E.15608
G1 X34.285 Y48.055 E1.56126
SET_VELOCITY_LIMIT SQUARE_CORNER_VELOCITY=12
G1 X33.808 Y48.492 F30000
SET_VELOCITY_LIMIT SQUARE_CORNER_VELOCITY=7
G1 F12000
G1 X33.808 Y42.846 E.18467
G1 X82.454 Y42.846 E1.59116
G1 X82.454 Y48.492 E.18467
G1 X33.848 Y48.492 E1.58985
SET_VELOCITY_LIMIT SQUARE_CORNER_VELOCITY=12
G1 X33.371 Y48.929 F30000
SET_VELOCITY_LIMIT SQUARE_CORNER_VELOCITY=7
;TYPE:Outer wall
G1 F12000
G1 X33.371 Y42.409 E.21326
G1 X82.891 Y42.409 E1.61975
G1 X82.891 Y48.929 E.21326
G1 X33.411 Y48.929 E1.61844
SET_VELOCITY_LIMIT SQUARE_CORNER_VELOCITY=12
G1 E-.5 F1800
G17
G3 Z.5 I.031 J.303 P1  F30000
G1 X79.631 Y44.158 Z.5
G1 Z.4
M73 P10 R2
G1 E.5 F1800
SET_VELOCITY_LIMIT SQUARE_CORNER_VELOCITY=20
;TYPE:Internal solid infill
;WIDTH:0.479999
G1 F18532.119
G1 X35.119 Y44.158 E1.45593
G1 X35.119 Y47.181 E.09889
G1 X81.143 Y47.181 E1.50538
G1 X81.143 Y44.158 E.09889
G1 X79.671 Y44.158 E.04814
SET_VELOCITY_LIMIT SQUARE_CORNER_VELOCITY=12
G1 X79.631 Y44.595 F30000
SET_VELOCITY_LIMIT SQUARE_CORNER_VELOCITY=20
G1 F18532.119
G1 X35.556 Y44.595 E1.44163
G1 X35.556 Y46.744 E.0703
G1 X80.706 Y46.744 E1.47678
G1 X80.706 Y44.595 E.0703
G1 X79.671 Y44.595 E.03384
SET_VELOCITY_LIMIT SQUARE_CORNER_VELOCITY=12
G1 X79.631 Y45.032 F30000
SET_VELOCITY_LIMIT SQUARE_CORNER_VELOCITY=20
G1 F18532.119
G1 X35.993 Y45.032 E1.42734
G1 X35.993 Y46.307 E.04171
G1 X80.268 Y46.307 E1.44819
G1 X80.268 Y45.032 E.04171
G1 X79.671 Y45.032 E.01954
SET_VELOCITY_LIMIT SQUARE_CORNER_VELOCITY=12
G1 X79.631 Y45.46 F30000
SET_VELOCITY_LIMIT SQUARE_CORNER_VELOCITY=20
;WIDTH:0.46191
G1 F19332.204
G1 X36.421 Y45.46 E1.35484
G1 X36.421 Y45.879 E.01314
G1 X79.84 Y45.879 E1.36141
G1 X79.84 Y45.46 E.01314
G1 X79.671 Y45.46 E.00531
; stop printing object neopixel_stick_cover.stl id:0 copy 0
; printing object neopixel_stick_cover.stl id:1 copy 0
SET_VELOCITY_LIMIT SQUARE_CORNER_VELOCITY=12
G1 E-.35 F1800
;WIPE_START
G1 F19332.204
G1 X79.84 Y45.46 E-.02415
G1 X79.84 Y45.879 E-.05971
G1 X79.429 Y45.879 E-.05864
;WIPE_END
G1 E-.0075 F1800
EXCLUDE_OBJECT_END NAME=neopixel_stick_cover.stl_id_0_copy_0
EXCLUDE_OBJECT_START NAME=neopixel_stick_cover.stl_id_1_copy_0
G17
G3 Z.5 I-.218 J-.212 P1  F30000
G1 X37.416 Y89.053 Z.5
M73 P11 R2
G1 Z.4
G1 E.5 F1800
SET_VELOCITY_LIMIT SQUARE_CORNER_VELOCITY=7
;TYPE:Inner wall
;WIDTH:0.48
G1 F12000
G1 X37.416 Y85.156 E.12748
G1 X84.313 Y85.156 E1.53397
G1 X84.313 Y89.053 E.12748
G1 X37.456 Y89.053 E1.53266
SET_VELOCITY_LIMIT SQUARE_CORNER_VELOCITY=12
G1 X36.978 Y89.49 F30000
SET_VELOCITY_LIMIT SQUARE_CORNER_VELOCITY=7
G1 F12000
G1 X36.978 Y84.719 E.15608
G1 X84.75 Y84.719 E1.56256
G1 X84.75 Y89.49 E.15608
G1 X37.018 Y89.49 E1.56126
SET_VELOCITY_LIMIT SQUARE_CORNER_VELOCITY=12
G1 X36.541 Y89.927 F30000
SET_VELOCITY_LIMIT SQUARE_CORNER_VELOCITY=7
G1 F12000
G1 X36.541 Y84.282 E.18467
G1 X85.187 Y84.282 E1.59116
G1 X85.187 Y89.927 E.18467
G1 X36.581 Y89.927 E1.58985
SET_VELOCITY_LIMIT SQUARE_CORNER_VELOCITY=12
M73 P12 R2
G1 X36.104 Y90.365 F30000
SET_VELOCITY_LIMIT SQUARE_CORNER_VELOCITY=7
;TYPE:Outer wall
G1 F12000
G1 X36.104 Y83.845 E.21326
G1 X85.624 Y83.845 E1.61975
G1 X85.624 Y90.365 E.21326
G1 X36.144 Y90.365 E1.61844
SET_VELOCITY_LIMIT SQUARE_CORNER_VELOCITY=12
G1 E-.5 F1800
G17
G3 Z.5 I.031 J.303 P1  F30000
G1 X82.364 Y85.593 Z.5
G1 Z.4
G1 E.5 F1800
SET_VELOCITY_LIMIT SQUARE_CORNER_VELOCITY=20
;TYPE:Internal solid infill
;WIDTH:0.479999
G1 F18532.119
G1 X37.853 Y85.593 E1.45593
G1 X37.853 Y88.616 E.09889
G1 X83.876 Y88.616 E1.50538
G1 X83.876 Y85.593 E.09889
G1 X82.404 Y85.593 E.04814
SET_VELOCITY_LIMIT SQUARE_CORNER_VELOCITY=12
G1 X82.364 Y86.03 F30000
SET_VELOCITY_LIMIT SQUARE_CORNER_VELOCITY=20
G1 F18532.119
G1 X38.29 Y86.03 E1.44163
G1 X38.29 Y88.179 E.0703
G1 X83.439 Y88.179 E1.47678
G1 X83.439 Y86.03 E.0703
G1 X82.404 Y86.03 E.03384
SET_VELOCITY_LIMIT SQUARE_CORNER_VELOCITY=12
G1 X82.364 Y86.467 F30000
SET_VELOCITY_LIMIT SQUARE_CORNER_VELOCITY=20
M73 P13 R2
G1 F18532.119
G1 X38.727 Y86.467 E1.42734
G1 X38.727 Y87.742 E.04171
G1 X83.002 Y87.742 E1.44819
G1 X83.002 Y86.467 E.04171
G1 X82.404 Y86.467 E.01954
SET_VELOCITY_LIMIT SQUARE_CORNER_VELOCITY=12
G1 X82.364 Y86.895 F30000
SET_VELOCITY_LIMIT SQUARE_CORNER_VELOCITY=20
;WIDTH:0.46191
G1 F19332.204
G1 X39.155 Y86.895 E1.35484
G1 X39.155 Y87.314 E.01314
G1 X82.574 Y87.314 E1.36141
G1 X82.574 Y86.895 E.01314
G1 X82.404 Y86.895 E.00531
; stop printing object neopixel_stick_cover.stl id:1 copy 0
M106 S81
;LAYER_CHANGE
;Z:0.6
;HEIGHT:0.2
;BEFORE_LAYER_CHANGE
;0.6
G92 E0

G1 E-.35 F1800
;WIPE_START
G1 F19332.204
G1 X82.574 Y86.895 E-.02415
G1 X82.574 Y87.314 E-.05971
G1 X82.162 Y87.314 E-.05864
;WIPE_END
G1 E-.0075 F1800
EXCLUDE_OBJECT_END NAME=neopixel_stick_cover.stl_id_1_copy_0
;AFTER_LAYER_CHANGE
;0.6
; printing object neopixel_stick_cover.stl id:0 copy 0
SET_VELOCITY_LIMIT SQUARE_CORNER_VELOCITY=12
EXCLUDE_OBJECT_START NAME=neopixel_stick_cover.stl_id_0_copy_0
G17
G3 Z.6 I.39 J-.467 P1  F30000
G1 X34.682 Y47.618 Z.6
G1 E.5 F1800
SET_VELOCITY_LIMIT SQUARE_CORNER_VELOCITY=7
;TYPE:Inner wall
;WIDTH:0.48
G1 F12000
G1 X34.682 Y43.721 E.12748
G1 X81.58 Y43.721 E1.53397
G1 X81.58 Y47.618 E.12748
