; HEADER_BLOCK_START
; generated by OrcaSlicer 1.6.6 on 2023-11-22 at 17:20:12
; total layer number: 1
; HEADER_BLOCK_END

; THUMBNAIL_BLOCK_START
; THUMBNAIL_BLOCK_END

; external perimeters extrusion width = 0.72mm
; perimeters extrusion width = 0.72mm
; infill extrusion width = 0.72mm
; solid infill extrusion width = 0.72mm
; top infill extrusion width = 0.72mm
; support material extrusion width = 0.60mm
; first layer extrusion width = 0.90mm

; external perimeters extrusion width = 0.72mm
; perimeters extrusion width = 0.72mm
; infill extrusion width = 0.72mm
; solid infill extrusion width = 0.72mm
; top infill extrusion width = 0.72mm
; support material extrusion width = 0.60mm
; first layer extrusion width = 0.90mm

; external perimeters extrusion width = 0.72mm
; perimeters extrusion width = 0.72mm
; infill extrusion width = 0.72mm
; solid infill extrusion width = 0.72mm
; top infill extrusion width = 0.72mm
; support material extrusion width = 0.60mm
; first layer extrusion width = 0.90mm

; external perimeters extrusion width = 0.72mm
; perimeters extrusion width = 0.72mm
; infill extrusion width = 0.72mm
; solid infill extrusion width = 0.72mm
; top infill extrusion width = 0.72mm
; support material extrusion width = 0.60mm
; first layer extrusion width = 0.90mm

; external perimeters extrusion width = 0.72mm
; perimeters extrusion width = 0.72mm
; infill extrusion width = 0.72mm
; solid infill extrusion width = 0.72mm
; top infill extrusion width = 0.72mm
; support material extrusion width = 0.60mm
; first layer extrusion width = 0.90mm

; external perimeters extrusion width = 0.72mm
; perimeters extrusion width = 0.72mm
; infill extrusion width = 0.72mm
; solid infill extrusion width = 0.72mm
; top infill extrusion width = 0.72mm
; support material extrusion width = 0.60mm
; first layer extrusion width = 0.90mm

; external perimeters extrusion width = 0.72mm
; perimeters extrusion width = 0.72mm
; infill extrusion width = 0.72mm
; solid infill extrusion width = 0.72mm
; top infill extrusion width = 0.72mm
; support material extrusion width = 0.60mm
; first layer extrusion width = 0.90mm

; external perimeters extrusion width = 0.72mm
; perimeters extrusion width = 0.72mm
; infill extrusion width = 0.72mm
; solid infill extrusion width = 0.72mm
; top infill extrusion width = 0.72mm
; support material extrusion width = 0.60mm
; first layer extrusion width = 0.90mm

; external perimeters extrusion width = 0.72mm
; perimeters extrusion width = 0.72mm
; infill extrusion width = 0.72mm
; solid infill extrusion width = 0.72mm
; top infill extrusion width = 0.72mm
; support material extrusion width = 0.60mm
; first layer extrusion width = 0.90mm

; EXECUTABLE_BLOCK_START
EXCLUDE_OBJECT_DEFINE NAME=Object_1_id_0_copy_0 CENTER=61,61 POLYGON=[[48.5,48.5],[73.5,48.5],[73.5,73.5],[48.5,73.5],[48.5,48.5]]
EXCLUDE_OBJECT_DEFINE NAME=Object_2_id_1_copy_0 CENTER=19,61 POLYGON=[[6.5,48.5],[31.5,48.5],[31.5,73.5],[6.5,73.5],[6.5,48.5]]
EXCLUDE_OBJECT_DEFINE NAME=Object_3_id_2_copy_0 CENTER=61,19 POLYGON=[[48.5,6.5],[73.5,6.5],[73.5,31.5],[48.5,31.5],[48.5,6.5]]
EXCLUDE_OBJECT_DEFINE NAME=Object_4_id_3_copy_0 CENTER=19,19 POLYGON=[[6.5,6.5],[31.5,6.5],[31.5,31.5],[6.5,31.5],[6.5,6.5]]
EXCLUDE_OBJECT_DEFINE NAME=Object_5_id_4_copy_0 CENTER=61,101 POLYGON=[[48.5,88.5],[73.5,88.5],[73.5,113.5],[48.5,113.5],[48.5,88.5]]
EXCLUDE_OBJECT_DEFINE NAME=Object_6_id_5_copy_0 CENTER=19,101 POLYGON=[[6.5,88.5],[31.5,88.5],[31.5,113.5],[6.5,113.5],[6.5,88.5]]
EXCLUDE_OBJECT_DEFINE NAME=Object_7_id_6_copy_0 CENTER=101,61 POLYGON=[[88.5,48.5],[113.5,48.5],[113.5,73.5],[88.5,73.5],[88.5,48.5]]
EXCLUDE_OBJECT_DEFINE NAME=Object_8_id_7_copy_0 CENTER=101,101 POLYGON=[[88.5,88.5],[113.5,88.5],[113.5,113.5],[88.5,113.5],[88.5,88.5]]
EXCLUDE_OBJECT_DEFINE NAME=Object_9_id_8_copy_0 CENTER=101,19 POLYGON=[[88.5,6.5],[113.5,6.5],[113.5,31.5],[88.5,31.5],[88.5,6.5]]
M73 P0 R1
;TYPE:Custom
M104 S0
M140 S0

print_start EXTRUDER=280 BED=110

G92 E0.0
G90
G21
M83 ; use relative distances for extrusion
; Filament gcode
SET_PRESSURE_ADVANCE ADVANCE=0.015; Override pressure advance value
M106 S0
;LAYER_CHANGE
;Z:0.2
;HEIGHT:0.2
;BEFORE_LAYER_CHANGE
;0.2
G92 E0

G1 E-.5 F1800
;AFTER_LAYER_CHANGE
;0.2
SET_VELOCITY_LIMIT ACCEL=10000
SET_VELOCITY_LIMIT SQUARE_CORNER_VELOCITY=9
; printing object Object_1 id:0 copy 0
EXCLUDE_OBJECT_START NAME=Object_1_id_0_copy_0
G1 X73.05 Y73.05 F30000
G1 Z.2
G1 E.5 F1800
;TYPE:Outer wall
;WIDTH:0.9
G1 F6000
G1 X48.95 Y73.05 E1.54577
G1 X48.95 Y48.95 E1.54577
M73 P1 R1
G1 X73.05 Y48.95 E1.54577
G1 X73.05 Y72.99 E1.54192
M73 P2 R1
G1 E-.5 F1800
G17
G3 Z.3 I.303 J-.025 P1  F30000
G1 X71.058 Y49.207 Z.3
M73 P2 R0
G1 Z.2
G1 E.5 F1800
;TYPE:Bottom surface
;WIDTH:0.901292
G1 F9000
G1 X72.407 Y50.557 E.1226
G1 X72.407 Y51.771 E.07798
G1 X70.229 Y49.593 E.19784
G1 X69.015 Y49.593 E.07798
G1 X72.407 Y52.985 E.30812
G1 X72.407 Y54.198 E.07798
G1 X67.802 Y49.593 E.4184
G1 X66.588 Y49.593 E.07798
G1 X72.407 Y55.412 E.52867
M73 P3 R0
G1 X72.407 Y56.626 E.07798
G1 X65.374 Y49.593 E.63895
G1 X64.16 Y49.593 E.07798
G1 X72.407 Y57.84 E.74923
G1 X72.407 Y59.054 E.07798
G1 X62.946 Y49.593 E.85951
G1 X61.732 Y49.593 E.07798
G1 X72.407 Y60.268 E.96978
G1 X72.407 Y61.482 E.07798
G1 X60.518 Y49.593 E1.08006
M73 P4 R0
G1 X59.304 Y49.593 E.07798
G1 X72.407 Y62.696 E1.19034
G1 X72.407 Y63.91 E.07798
G1 X58.09 Y49.593 E1.30062
G1 X56.876 Y49.593 E.07798
G1 X72.407 Y65.124 E1.41089
G1 X72.407 Y66.338 E.07798
G1 X55.662 Y49.593 E1.52117
M73 P5 R0
G1 X54.448 Y49.593 E.07798
G1 X72.407 Y67.552 E1.63145
G1 X72.407 Y68.765 E.07798
G1 X53.235 Y49.593 E1.74173
G1 X52.021 Y49.593 E.07798
G1 X72.407 Y69.979 E1.85201
M73 P6 R0
G1 X72.407 Y71.193 E.07798
G1 X50.807 Y49.593 E1.96228
G1 X49.593 Y49.593 E.07797
G1 X72.407 Y72.407 E2.07255
M73 P7 R0
G1 X71.193 Y72.407 E.07798
G1 X49.593 Y50.807 E1.96227
G1 X49.593 Y52.021 E.07798
G1 X69.979 Y72.407 E1.852
G1 X68.765 Y72.407 E.07798
G1 X49.593 Y53.235 E1.74172
M73 P8 R0
G1 X49.593 Y54.449 E.07798
G1 X67.551 Y72.407 E1.63144
G1 X66.338 Y72.407 E.07798
G1 X49.593 Y55.662 E1.52116
G1 X49.593 Y56.876 E.07798
G1 X65.124 Y72.407 E1.41088
M73 P9 R0
G1 X63.91 Y72.407 E.07798
G1 X49.593 Y58.09 E1.30061
G1 X49.593 Y59.304 E.07798
G1 X62.696 Y72.407 E1.19033
G1 X61.482 Y72.407 E.07798
G1 X49.593 Y60.518 E1.08005
G1 X49.593 Y61.732 E.07798
G1 X60.268 Y72.407 E.96977
M73 P10 R0
G1 X59.054 Y72.407 E.07798
G1 X49.593 Y62.946 E.8595
G1 X49.593 Y64.16 E.07798
G1 X57.84 Y72.407 E.74922
G1 X56.626 Y72.407 E.07798
G1 X49.593 Y65.374 E.63894
G1 X49.593 Y66.588 E.07798
G1 X55.412 Y72.407 E.52866
G1 X54.198 Y72.407 E.07798
G1 X49.593 Y67.802 E.41839
G1 X49.593 Y69.016 E.07798
G1 X52.984 Y72.407 E.30811
M73 P11 R0
G1 X51.77 Y72.407 E.07798
G1 X49.593 Y70.23 E.19783
G1 X49.593 Y71.443 E.07798
G1 X50.942 Y72.793 E.12259
; stop printing object Object_1 id:0 copy 0
; printing object Object_7 id:6 copy 0
G1 E-.35 F1800
;WIPE_START
G1 F9000
G1 X50.235 Y72.086 E-.1425
;WIPE_END
G1 E-.0075 F1800
EXCLUDE_OBJECT_END NAME=Object_1_id_0_copy_0
EXCLUDE_OBJECT_START NAME=Object_7_id_6_copy_0
G17
G3 Z.3 I-.005 J.304 P1  F30000
G1 X113.05 Y73.05 Z.3
G1 Z.2
G1 E.5 F1800
;TYPE:Outer wall
;WIDTH:0.9
G1 F6000
G1 X88.95 Y73.05 E1.54577
M73 P12 R0
G1 X88.95 Y48.95 E1.54577
G1 X113.05 Y48.95 E1.54577
G1 X113.05 Y72.99 E1.54192
M73 P13 R0
G1 E-.5 F1800
G17
G3 Z.3 I.303 J-.025 P1  F30000
G1 X111.058 Y49.207 Z.3
G1 Z.2
G1 E.5 F1800
;TYPE:Bottom surface
;WIDTH:0.901292
G1 F9000
G1 X112.407 Y50.557 E.1226
G1 X112.407 Y51.771 E.07798
G1 X110.229 Y49.593 E.19784
G1 X109.015 Y49.593 E.07798
G1 X112.407 Y52.985 E.30812
G1 X112.407 Y54.198 E.07798
G1 X107.802 Y49.593 E.4184
M73 P14 R0
G1 X106.588 Y49.593 E.07798
G1 X112.407 Y55.412 E.52867
G1 X112.407 Y56.626 E.07798
G1 X105.374 Y49.593 E.63895
G1 X104.16 Y49.593 E.07798
G1 X112.407 Y57.84 E.74923
G1 X112.407 Y59.054 E.07798
G1 X102.946 Y49.593 E.85951
G1 X101.732 Y49.593 E.07798
G1 X112.407 Y60.268 E.96978
G1 X112.407 Y61.482 E.07798
M73 P15 R0
G1 X100.518 Y49.593 E1.08006
G1 X99.304 Y49.593 E.07798
G1 X112.407 Y62.696 E1.19034
G1 X112.407 Y63.91 E.07798
G1 X98.09 Y49.593 E1.30062
G1 X96.876 Y49.593 E.07798
G1 X112.407 Y65.124 E1.41089
M73 P16 R0
G1 X112.407 Y66.338 E.07798
G1 X95.662 Y49.593 E1.52117
G1 X94.448 Y49.593 E.07798
G1 X112.407 Y67.552 E1.63145
G1 X112.407 Y68.765 E.07798
G1 X93.235 Y49.593 E1.74173
M73 P17 R0
G1 X92.021 Y49.593 E.07798
G1 X112.407 Y69.979 E1.85201
G1 X112.407 Y71.193 E.07798
G1 X90.807 Y49.593 E1.96228
G1 X89.593 Y49.593 E.07797
G1 X112.407 Y72.407 E2.07255
M73 P18 R0
G1 X111.193 Y72.407 E.07798
G1 X89.593 Y50.807 E1.96227
G1 X89.593 Y52.021 E.07798
G1 X109.979 Y72.407 E1.852
G1 X108.765 Y72.407 E.07798
M73 P19 R0
G1 X89.593 Y53.235 E1.74172
G1 X89.593 Y54.449 E.07798
G1 X107.551 Y72.407 E1.63144
G1 X106.338 Y72.407 E.07798
G1 X89.593 Y55.662 E1.52116
G1 X89.593 Y56.876 E.07798
M73 P20 R0
G1 X105.124 Y72.407 E1.41088
G1 X103.91 Y72.407 E.07798
G1 X89.593 Y58.09 E1.30061
G1 X89.593 Y59.304 E.07798
G1 X102.696 Y72.407 E1.19033
G1 X101.482 Y72.407 E.07798
G1 X89.593 Y60.518 E1.08005
M73 P21 R0
G1 X89.593 Y61.732 E.07798
G1 X100.268 Y72.407 E.96977
G1 X99.054 Y72.407 E.07798
G1 X89.593 Y62.946 E.8595
G1 X89.593 Y64.16 E.07798
G1 X97.84 Y72.407 E.74922
G1 X96.626 Y72.407 E.07798
G1 X89.593 Y65.374 E.63894
G1 X89.593 Y66.588 E.07798
G1 X95.412 Y72.407 E.52866
G1 X94.198 Y72.407 E.07798
G1 X89.593 Y67.802 E.41839
M73 P22 R0
G1 X89.593 Y69.016 E.07798
G1 X92.984 Y72.407 E.30811
G1 X91.77 Y72.407 E.07798
G1 X89.593 Y70.23 E.19783
G1 X89.593 Y71.443 E.07798
G1 X90.942 Y72.793 E.12259
; stop printing object Object_7 id:6 copy 0
; printing object Object_8 id:7 copy 0
G1 E-.35 F1800
;WIPE_START
G1 F9000
G1 X90.235 Y72.086 E-.1425
;WIPE_END
G1 E-.0075 F1800
EXCLUDE_OBJECT_END NAME=Object_7_id_6_copy_0
EXCLUDE_OBJECT_START NAME=Object_8_id_7_copy_0
G17
G3 Z.3 I-.266 J.148 P1  F30000
G1 X113.05 Y113.05 Z.3
G1 Z.2
G1 E.5 F1800
;TYPE:Outer wall
;WIDTH:0.9
G1 F6000
G1 X88.95 Y113.05 E1.54577
M73 P23 R0
G1 X88.95 Y88.95 E1.54577
G1 X113.05 Y88.95 E1.54577
M73 P24 R0
G1 X113.05 Y112.99 E1.54192
G1 E-.5 F1800
G17
G3 Z.3 I.303 J-.025 P1  F30000
G1 X111.058 Y89.207 Z.3
G1 Z.2
G1 E.5 F1800
;TYPE:Bottom surface
;WIDTH:0.901292
G1 F9000
G1 X112.407 Y90.557 E.1226
G1 X112.407 Y91.771 E.07798
G1 X110.229 Y89.593 E.19784
G1 X109.015 Y89.593 E.07798
G1 X112.407 Y92.985 E.30812
M73 P25 R0
G1 X112.407 Y94.198 E.07798
G1 X107.802 Y89.593 E.4184
G1 X106.588 Y89.593 E.07798
G1 X112.407 Y95.412 E.52867
G1 X112.407 Y96.626 E.07798
G1 X105.374 Y89.593 E.63895
G1 X104.16 Y89.593 E.07798
G1 X112.407 Y97.84 E.74923
G1 X112.407 Y99.054 E.07798
G1 X102.946 Y89.593 E.85951
G1 X101.732 Y89.593 E.07798
G1 X112.407 Y100.268 E.96978
M73 P26 R0
G1 X112.407 Y101.482 E.07798
G1 X100.518 Y89.593 E1.08006
G1 X99.304 Y89.593 E.07798
G1 X112.407 Y102.696 E1.19034
G1 X112.407 Y103.91 E.07798
G1 X98.09 Y89.593 E1.30062
G1 X96.876 Y89.593 E.07798
G1 X112.407 Y105.124 E1.41089
M73 P27 R0
G1 X112.407 Y106.338 E.07798
G1 X95.662 Y89.593 E1.52117
G1 X94.448 Y89.593 E.07798
G1 X112.407 Y107.552 E1.63145
G1 X112.407 Y108.765 E.07798
G1 X93.235 Y89.593 E1.74173
M73 P28 R0
G1 X92.021 Y89.593 E.07798
G1 X112.407 Y109.979 E1.85201
G1 X112.407 Y111.193 E.07798
G1 X90.807 Y89.593 E1.96228
G1 X89.593 Y89.593 E.07797
G1 X112.407 Y112.407 E2.07255
M73 P29 R0
G1 X111.193 Y112.407 E.07798
G1 X89.593 Y90.807 E1.96227
G1 X89.593 Y92.021 E.07798
G1 X109.979 Y112.407 E1.852
M73 P30 R0
G1 X108.765 Y112.407 E.07798
G1 X89.593 Y93.235 E1.74172
G1 X89.593 Y94.449 E.07798
G1 X107.551 Y112.407 E1.63144
G1 X106.338 Y112.407 E.07798
G1 X89.593 Y95.662 E1.52116
M73 P31 R0
G1 X89.593 Y96.876 E.07798
G1 X105.124 Y112.407 E1.41088
G1 X103.91 Y112.407 E.07798
G1 X89.593 Y98.09 E1.30061
G1 X89.593 Y99.304 E.07798
G1 X102.696 Y112.407 E1.19033
G1 X101.482 Y112.407 E.07798
G1 X89.593 Y100.518 E1.08005
M73 P32 R0
G1 X89.593 Y101.732 E.07798
G1 X100.268 Y112.407 E.96977
G1 X99.054 Y112.407 E.07798
G1 X89.593 Y102.946 E.8595
G1 X89.593 Y104.16 E.07798
G1 X97.84 Y112.407 E.74922
G1 X96.626 Y112.407 E.07798
G1 X89.593 Y105.374 E.63894
G1 X89.593 Y106.588 E.07798
G1 X95.412 Y112.407 E.52866
M73 P33 R0
G1 X94.198 Y112.407 E.07798
G1 X89.593 Y107.802 E.41839
G1 X89.593 Y109.016 E.07798
G1 X92.984 Y112.407 E.30811
G1 X91.77 Y112.407 E.07798
G1 X89.593 Y110.23 E.19783
G1 X89.593 Y111.443 E.07798
G1 X90.942 Y112.793 E.12259
; stop printing object Object_8 id:7 copy 0
; printing object Object_5 id:4 copy 0
G1 E-.35 F1800
;WIPE_START
G1 F9000
G1 X90.235 Y112.086 E-.1425
;WIPE_END
G1 E-.0075 F1800
EXCLUDE_OBJECT_END NAME=Object_8_id_7_copy_0
EXCLUDE_OBJECT_START NAME=Object_5_id_4_copy_0
G17
G3 Z.3 I-.017 J-.304 P1  F30000
G1 X73.05 Y113.05 Z.3
G1 Z.2
G1 E.5 F1800
;TYPE:Outer wall
;WIDTH:0.9
G1 F6000
G1 X48.95 Y113.05 E1.54577
M73 P34 R0
G1 X48.95 Y88.95 E1.54577
G1 X73.05 Y88.95 E1.54577
M73 P35 R0
G1 X73.05 Y112.99 E1.54192
G1 E-.5 F1800
G17
G3 Z.3 I.303 J-.025 P1  F30000
G1 X71.058 Y89.207 Z.3
G1 Z.2
G1 E.5 F1800
;TYPE:Bottom surface
;WIDTH:0.901292
G1 F9000
G1 X72.407 Y90.557 E.1226
G1 X72.407 Y91.771 E.07798
G1 X70.229 Y89.593 E.19784
G1 X69.015 Y89.593 E.07798
G1 X72.407 Y92.985 E.30812
M73 P36 R0
G1 X72.407 Y94.198 E.07798
G1 X67.802 Y89.593 E.4184
G1 X66.588 Y89.593 E.07798
G1 X72.407 Y95.412 E.52867
G1 X72.407 Y96.626 E.07798
G1 X65.374 Y89.593 E.63895
G1 X64.16 Y89.593 E.07798
G1 X72.407 Y97.84 E.74923
G1 X72.407 Y99.054 E.07798
G1 X62.946 Y89.593 E.85951
G1 X61.732 Y89.593 E.07798
G1 X72.407 Y100.268 E.96978
M73 P37 R0
G1 X72.407 Y101.482 E.07798
G1 X60.518 Y89.593 E1.08006
G1 X59.304 Y89.593 E.07798
G1 X72.407 Y102.696 E1.19034
G1 X72.407 Y103.91 E.07798
G1 X58.09 Y89.593 E1.30062
G1 X56.876 Y89.593 E.07798
G1 X72.407 Y105.124 E1.41089
M73 P38 R0
G1 X72.407 Y106.338 E.07798
G1 X55.662 Y89.593 E1.52117
G1 X54.448 Y89.593 E.07798
G1 X72.407 Y107.552 E1.63145
G1 X72.407 Y108.765 E.07798
G1 X53.235 Y89.593 E1.74173
M73 P39 R0
G1 X52.021 Y89.593 E.07798
G1 X72.407 Y109.979 E1.85201
G1 X72.407 Y111.193 E.07798
G1 X50.807 Y89.593 E1.96228
G1 X49.593 Y89.593 E.07797
G1 X72.407 Y112.407 E2.07255
M73 P40 R0
G1 X71.193 Y112.407 E.07798
G1 X49.593 Y90.807 E1.96227
G1 X49.593 Y92.021 E.07798
G1 X69.979 Y112.407 E1.852
M73 P41 R0
G1 X68.765 Y112.407 E.07798
G1 X49.593 Y93.235 E1.74172
G1 X49.593 Y94.449 E.07798
G1 X67.551 Y112.407 E1.63144
G1 X66.338 Y112.407 E.07798
G1 X49.593 Y95.662 E1.52116
M73 P42 R0
G1 X49.593 Y96.876 E.07798
G1 X65.124 Y112.407 E1.41088
G1 X63.91 Y112.407 E.07798
G1 X49.593 Y98.09 E1.30061
G1 X49.593 Y99.304 E.07798
G1 X62.696 Y112.407 E1.19033
G1 X61.482 Y112.407 E.07798
G1 X49.593 Y100.518 E1.08005
M73 P43 R0
G1 X49.593 Y101.732 E.07798
G1 X60.268 Y112.407 E.96977
G1 X59.054 Y112.407 E.07798
G1 X49.593 Y102.946 E.8595
G1 X49.593 Y104.16 E.07798
G1 X57.84 Y112.407 E.74922
G1 X56.626 Y112.407 E.07798
G1 X49.593 Y105.374 E.63894
G1 X49.593 Y106.588 E.07798
G1 X55.412 Y112.407 E.52866
M73 P44 R0
G1 X54.198 Y112.407 E.07798
G1 X49.593 Y107.802 E.41839
G1 X49.593 Y109.016 E.07798
G1 X52.984 Y112.407 E.30811
G1 X51.77 Y112.407 E.07798
G1 X49.593 Y110.23 E.19783
G1 X49.593 Y111.443 E.07798
G1 X50.942 Y112.793 E.12259
; stop printing object Object_5 id:4 copy 0
; printing object Object_6 id:5 copy 0
G1 E-.35 F1800
;WIPE_START
G1 F9000
G1 X50.235 Y112.086 E-.1425
;WIPE_END
G1 E-.0075 F1800
EXCLUDE_OBJECT_END NAME=Object_5_id_4_copy_0
EXCLUDE_OBJECT_START NAME=Object_6_id_5_copy_0
G17
G3 Z.3 I-.015 J-.304 P1  F30000
G1 X31.05 Y113.05 Z.3
G1 Z.2
G1 E.5 F1800
;TYPE:Outer wall
;WIDTH:0.9
G1 F6000
G1 X6.95 Y113.05 E1.54577
M73 P45 R0
G1 X6.95 Y88.95 E1.54577
G1 X31.05 Y88.95 E1.54577
M73 P46 R0
G1 X31.05 Y112.99 E1.54192
G1 E-.5 F1800
G17
G3 Z.3 I.303 J-.025 P1  F30000
G1 X29.058 Y89.207 Z.3
G1 Z.2
G1 E.5 F1800
;TYPE:Bottom surface
;WIDTH:0.901292
G1 F9000
G1 X30.407 Y90.557 E.1226
G1 X30.407 Y91.771 E.07798
G1 X28.229 Y89.593 E.19784
G1 X27.015 Y89.593 E.07798
G1 X30.407 Y92.985 E.30812
M73 P47 R0
G1 X30.407 Y94.198 E.07798
G1 X25.802 Y89.593 E.4184
