; HEADER_BLOCK_START
; generated by OrcaSlicer 1.6.6 on 2023-12-22 at 03:00:02
; total layer number: 1
; HEADER_BLOCK_END

; THUMBNAIL_BLOCK_START
; THUMBNAIL_BLOCK_END

; external perimeters extrusion width = 0.48mm
; perimeters extrusion width = 0.48mm
; infill extrusion width = 0.48mm
; solid infill extrusion width = 0.48mm
; top infill extrusion width = 0.48mm
; support material extrusion width = 0.40mm
; first layer extrusion width = 0.60mm

; external perimeters extrusion width = 0.48mm
; perimeters extrusion width = 0.48mm
; infill extrusion width = 0.48mm
; solid infill extrusion width = 0.48mm
; top infill extrusion width = 0.48mm
; support material extrusion width = 0.40mm
; first layer extrusion width = 0.60mm

; external perimeters extrusion width = 0.48mm
; perimeters extrusion width = 0.48mm
; infill extrusion width = 0.48mm
; solid infill extrusion width = 0.48mm
; top infill extrusion width = 0.48mm
; support material extrusion width = 0.40mm
; first layer extrusion width = 0.60mm

; external perimeters extrusion width = 0.48mm
; perimeters extrusion width = 0.48mm
; infill extrusion width = 0.48mm
; solid infill extrusion width = 0.48mm
; top infill extrusion width = 0.48mm
; support material extrusion width = 0.40mm
; first layer extrusion width = 0.60mm

; external perimeters extrusion width = 0.48mm
; perimeters extrusion width = 0.48mm
; infill extrusion width = 0.48mm
; solid infill extrusion width = 0.48mm
; top infill extrusion width = 0.48mm
; support material extrusion width = 0.40mm
; first layer extrusion width = 0.60mm

; external perimeters extrusion width = 0.48mm
; perimeters extrusion width = 0.48mm
; infill extrusion width = 0.48mm
; solid infill extrusion width = 0.48mm
; top infill extrusion width = 0.48mm
; support material extrusion width = 0.40mm
; first layer extrusion width = 0.60mm

; external perimeters extrusion width = 0.48mm
; perimeters extrusion width = 0.48mm
; infill extrusion width = 0.48mm
; solid infill extrusion width = 0.48mm
; top infill extrusion width = 0.48mm
; support material extrusion width = 0.40mm
; first layer extrusion width = 0.60mm

; external perimeters extrusion width = 0.48mm
; perimeters extrusion width = 0.48mm
; infill extrusion width = 0.48mm
; solid infill extrusion width = 0.48mm
; top infill extrusion width = 0.48mm
; support material extrusion width = 0.40mm
; first layer extrusion width = 0.60mm

; external perimeters extrusion width = 0.48mm
; perimeters extrusion width = 0.48mm
; infill extrusion width = 0.48mm
; solid infill extrusion width = 0.48mm
; top infill extrusion width = 0.48mm
; support material extrusion width = 0.40mm
; first layer extrusion width = 0.60mm

; EXECUTABLE_BLOCK_START
EXCLUDE_OBJECT_DEFINE NAME=Object_8_id_0_copy_0 CENTER=101,101 POLYGON=[[88.5,88.5],[113.5,88.5],[113.5,113.5],[88.5,113.5],[88.5,88.5]]
EXCLUDE_OBJECT_DEFINE NAME=Object_5_id_1_copy_0 CENTER=61,101 POLYGON=[[48.5,88.5],[73.5,88.5],[73.5,113.5],[48.5,113.5],[48.5,88.5]]
EXCLUDE_OBJECT_DEFINE NAME=Object_6_id_2_copy_0 CENTER=19,101 POLYGON=[[6.5,88.5],[31.5,88.5],[31.5,113.5],[6.5,113.5],[6.5,88.5]]
EXCLUDE_OBJECT_DEFINE NAME=Object_2_id_3_copy_0 CENTER=19,61 POLYGON=[[6.5,48.5],[31.5,48.5],[31.5,73.5],[6.5,73.5],[6.5,48.5]]
EXCLUDE_OBJECT_DEFINE NAME=Object_1_id_4_copy_0 CENTER=61,61 POLYGON=[[48.5,48.5],[73.5,48.5],[73.5,73.5],[48.5,73.5],[48.5,48.5]]
EXCLUDE_OBJECT_DEFINE NAME=Object_7_id_5_copy_0 CENTER=101,61 POLYGON=[[88.5,48.5],[113.5,48.5],[113.5,73.5],[88.5,73.5],[88.5,48.5]]
EXCLUDE_OBJECT_DEFINE NAME=Object_9_id_6_copy_0 CENTER=101,19 POLYGON=[[88.5,6.5],[113.5,6.5],[113.5,31.5],[88.5,31.5],[88.5,6.5]]
EXCLUDE_OBJECT_DEFINE NAME=Object_3_id_7_copy_0 CENTER=61,19 POLYGON=[[48.5,6.5],[73.5,6.5],[73.5,31.5],[48.5,31.5],[48.5,6.5]]
EXCLUDE_OBJECT_DEFINE NAME=Object_4_id_8_copy_0 CENTER=19,19 POLYGON=[[6.5,6.5],[31.5,6.5],[31.5,31.5],[6.5,31.5],[6.5,6.5]]
M73 P0 R1
;TYPE:Custom
M104 S0
M140 S0

print_start EXTRUDER=280 BED=110

G92 E0.0
G90
G21
M83 ; use relative distances for extrusion
; Filament gcode
SET_PRESSURE_ADVANCE ADVANCE=0.02; Override pressure advance value
M106 S0
;LAYER_CHANGE
;Z:0.1
;HEIGHT:0.1
;BEFORE_LAYER_CHANGE
;0.1
G92 E0

G1 E-.5 F1800
;AFTER_LAYER_CHANGE
;0.1
SET_VELOCITY_LIMIT ACCEL=10000
SET_VELOCITY_LIMIT SQUARE_CORNER_VELOCITY=9
; printing object Object_6 id:2 copy 0
EXCLUDE_OBJECT_START NAME=Object_6_id_2_copy_0
G1 X31.2 Y113.2 F30000
G1 Z.1
G1 E.5 F1800
;TYPE:Outer wall
;WIDTH:0.6
G1 F6000
G1 X6.8 Y113.2 E.54581
G1 X6.8 Y88.8 E.54581
M73 P1 R1
G1 X31.2 Y88.8 E.54581
G1 X31.2 Y113.16 E.54491
G1 E-.5 F1800
G17
G3 Z.2 I.304 J-.017 P1  F30000
G1 X29.837 Y88.974 Z.2
G1 Z.1
G1 E.5 F1800
;TYPE:Bottom surface
;WIDTH:0.609352
G1 F9000
G1 X30.766 Y89.903 E.02986
G1 X30.766 Y90.734 E.0189
G1 X29.266 Y89.234 E.04822
G1 X28.435 Y89.234 E.0189
G1 X30.766 Y91.565 E.07495
G1 X30.766 Y92.397 E.0189
M73 P2 R1
G1 X27.603 Y89.234 E.10167
G1 X26.772 Y89.234 E.0189
G1 X30.766 Y93.228 E.1284
G1 X30.766 Y94.06 E.0189
G1 X25.94 Y89.234 E.15513
G1 X25.109 Y89.234 E.0189
G1 X30.766 Y94.891 E.18185
G1 X30.766 Y95.722 E.0189
G1 X24.278 Y89.234 E.20858
G1 X23.446 Y89.234 E.0189
G1 X30.766 Y96.554 E.23531
G1 X30.766 Y97.385 E.0189
G1 X22.615 Y89.234 E.26203
G1 X21.783 Y89.234 E.0189
G1 X30.766 Y98.217 E.28876
G1 X30.766 Y99.048 E.0189
G1 X20.952 Y89.234 E.31549
G1 X20.121 Y89.234 E.0189
G1 X30.766 Y99.879 E.34221
M73 P3 R1
G1 X30.766 Y100.711 E.0189
G1 X19.289 Y89.234 E.36894
G1 X18.458 Y89.234 E.0189
G1 X30.766 Y101.542 E.39567
G1 X30.766 Y102.374 E.0189
G1 X17.626 Y89.234 E.42239
G1 X16.795 Y89.234 E.0189
G1 X30.766 Y103.205 E.44912
G1 X30.766 Y104.036 E.0189
G1 X15.964 Y89.234 E.47584
M73 P4 R1
G1 X15.132 Y89.234 E.0189
G1 X30.766 Y104.868 E.50257
G1 X30.766 Y105.699 E.0189
G1 X14.301 Y89.234 E.5293
G1 X13.469 Y89.234 E.0189
G1 X30.766 Y106.531 E.55602
G1 X30.766 Y107.362 E.0189
G1 X12.638 Y89.234 E.58275
G1 X11.807 Y89.234 E.0189
G1 X30.766 Y108.193 E.60948
M73 P5 R1
G1 X30.766 Y109.025 E.0189
G1 X10.975 Y89.234 E.6362
G1 X10.144 Y89.234 E.0189
G1 X30.766 Y109.856 E.66293
G1 X30.766 Y110.688 E.0189
G1 X9.312 Y89.234 E.68966
G1 X8.481 Y89.234 E.0189
G1 X30.766 Y111.519 E.71638
M73 P6 R1
G1 X30.766 Y112.35 E.0189
G1 X7.65 Y89.234 E.74311
G1 X7.234 Y89.234 E.00945
G1 X7.234 Y89.65 E.00945
G1 X30.35 Y112.766 E.74311
G1 X29.519 Y112.766 E.0189
G1 X7.234 Y90.481 E.71638
M73 P7 R1
G1 X7.234 Y91.312 E.0189
G1 X28.688 Y112.766 E.68965
G1 X27.856 Y112.766 E.0189
G1 X7.234 Y92.144 E.66293
G1 X7.234 Y92.975 E.0189
G1 X27.025 Y112.766 E.6362
G1 X26.193 Y112.766 E.0189
G1 X7.234 Y93.807 E.60947
M73 P8 R1
G1 X7.234 Y94.638 E.0189
G1 X25.362 Y112.766 E.58275
G1 X24.531 Y112.766 E.0189
G1 X7.234 Y95.469 E.55602
G1 X7.234 Y96.301 E.0189
G1 X23.699 Y112.766 E.52929
G1 X22.868 Y112.766 E.0189
G1 X7.234 Y97.132 E.50257
M73 P9 R1
G1 X7.234 Y97.964 E.0189
G1 X22.036 Y112.766 E.47584
G1 X21.205 Y112.766 E.0189
G1 X7.234 Y98.795 E.44911
G1 X7.234 Y99.627 E.0189
G1 X20.373 Y112.766 E.42239
G1 X19.542 Y112.766 E.0189
G1 X7.234 Y100.458 E.39566
G1 X7.234 Y101.289 E.0189
G1 X18.711 Y112.766 E.36893
G1 X17.879 Y112.766 E.0189
G1 X7.234 Y102.121 E.34221
M73 P10 R1
G1 X7.234 Y102.952 E.0189
G1 X17.048 Y112.766 E.31548
G1 X16.216 Y112.766 E.0189
G1 X7.234 Y103.784 E.28876
G1 X7.234 Y104.615 E.0189
G1 X15.385 Y112.766 E.26203
G1 X14.554 Y112.766 E.0189
G1 X7.234 Y105.446 E.2353
G1 X7.234 Y106.278 E.0189
G1 X13.722 Y112.766 E.20858
G1 X12.891 Y112.766 E.0189
G1 X7.234 Y107.109 E.18185
G1 X7.234 Y107.941 E.0189
G1 X12.059 Y112.766 E.15512
G1 X11.228 Y112.766 E.0189
G1 X7.234 Y108.772 E.1284
G1 X7.234 Y109.603 E.0189
G1 X10.397 Y112.766 E.10167
M73 P11 R1
G1 X9.565 Y112.766 E.0189
G1 X7.234 Y110.435 E.07494
G1 X7.234 Y111.266 E.0189
G1 X8.734 Y112.766 E.04822
G1 X7.902 Y112.766 E.0189
G1 X6.974 Y111.837 E.02986
; stop printing object Object_6 id:2 copy 0
; printing object Object_2 id:3 copy 0
G1 E-.35 F1800
;WIPE_START
G1 F9000
G1 X7.681 Y112.544 E-.1425
;WIPE_END
G1 E-.0075 F1800
EXCLUDE_OBJECT_END NAME=Object_6_id_2_copy_0
EXCLUDE_OBJECT_START NAME=Object_2_id_3_copy_0
G17
G3 Z.2 I.261 J.156 P1  F30000
G1 X31.2 Y73.2 Z.2
G1 Z.1
G1 E.5 F1800
;TYPE:Outer wall
;WIDTH:0.6
G1 F6000
G1 X6.8 Y73.2 E.54581
G1 X6.8 Y48.8 E.54581
M73 P12 R1
G1 X31.2 Y48.8 E.54581
G1 X31.2 Y73.16 E.54491
G1 E-.5 F1800
G17
G3 Z.2 I.304 J-.017 P1  F30000
G1 X29.837 Y48.974 Z.2
G1 Z.1
G1 E.5 F1800
;TYPE:Bottom surface
;WIDTH:0.609352
G1 F9000
G1 X30.766 Y49.903 E.02986
G1 X30.766 Y50.734 E.0189
G1 X29.266 Y49.234 E.04822
M73 P13 R1
G1 X28.435 Y49.234 E.0189
G1 X30.766 Y51.565 E.07495
G1 X30.766 Y52.397 E.0189
G1 X27.603 Y49.234 E.10167
G1 X26.772 Y49.234 E.0189
G1 X30.766 Y53.228 E.1284
G1 X30.766 Y54.06 E.0189
G1 X25.94 Y49.234 E.15513
G1 X25.109 Y49.234 E.0189
G1 X30.766 Y54.891 E.18185
G1 X30.766 Y55.722 E.0189
G1 X24.278 Y49.234 E.20858
G1 X23.446 Y49.234 E.0189
G1 X30.766 Y56.554 E.23531
G1 X30.766 Y57.385 E.0189
G1 X22.615 Y49.234 E.26203
G1 X21.783 Y49.234 E.0189
G1 X30.766 Y58.217 E.28876
G1 X30.766 Y59.048 E.0189
G1 X20.952 Y49.234 E.31549
M73 P14 R1
G1 X20.121 Y49.234 E.0189
G1 X30.766 Y59.879 E.34221
G1 X30.766 Y60.711 E.0189
G1 X19.289 Y49.234 E.36894
G1 X18.458 Y49.234 E.0189
G1 X30.766 Y61.542 E.39567
G1 X30.766 Y62.374 E.0189
G1 X17.626 Y49.234 E.42239
G1 X16.795 Y49.234 E.0189
G1 X30.766 Y63.205 E.44912
G1 X30.766 Y64.036 E.0189
G1 X15.964 Y49.234 E.47584
M73 P15 R1
G1 X15.132 Y49.234 E.0189
G1 X30.766 Y64.868 E.50257
G1 X30.766 Y65.699 E.0189
G1 X14.301 Y49.234 E.5293
G1 X13.469 Y49.234 E.0189
G1 X30.766 Y66.531 E.55602
G1 X30.766 Y67.362 E.0189
G1 X12.638 Y49.234 E.58275
G1 X11.807 Y49.234 E.0189
M73 P16 R1
G1 X30.766 Y68.193 E.60948
G1 X30.766 Y69.025 E.0189
G1 X10.975 Y49.234 E.6362
G1 X10.144 Y49.234 E.0189
G1 X30.766 Y69.856 E.66293
G1 X30.766 Y70.688 E.0189
G1 X9.312 Y49.234 E.68966
M73 P17 R1
G1 X8.481 Y49.234 E.0189
G1 X30.766 Y71.519 E.71638
G1 X30.766 Y72.35 E.0189
G1 X7.65 Y49.234 E.74311
G1 X7.234 Y49.234 E.00945
G1 X7.234 Y49.65 E.00945
G1 X30.35 Y72.766 E.74311
G1 X29.519 Y72.766 E.0189
G1 X7.234 Y50.481 E.71638
M73 P18 R1
G1 X7.234 Y51.312 E.0189
G1 X28.688 Y72.766 E.68965
G1 X27.856 Y72.766 E.0189
G1 X7.234 Y52.144 E.66293
G1 X7.234 Y52.975 E.0189
G1 X27.025 Y72.766 E.6362
G1 X26.193 Y72.766 E.0189
G1 X7.234 Y53.807 E.60947
M73 P19 R1
G1 X7.234 Y54.638 E.0189
G1 X25.362 Y72.766 E.58275
G1 X24.531 Y72.766 E.0189
G1 X7.234 Y55.469 E.55602
G1 X7.234 Y56.301 E.0189
G1 X23.699 Y72.766 E.52929
G1 X22.868 Y72.766 E.0189
G1 X7.234 Y57.132 E.50257
M73 P20 R1
G1 X7.234 Y57.964 E.0189
G1 X22.036 Y72.766 E.47584
G1 X21.205 Y72.766 E.0189
G1 X7.234 Y58.795 E.44911
G1 X7.234 Y59.627 E.0189
G1 X20.373 Y72.766 E.42239
G1 X19.542 Y72.766 E.0189
G1 X7.234 Y60.458 E.39566
G1 X7.234 Y61.289 E.0189
G1 X18.711 Y72.766 E.36893
M73 P21 R1
G1 X17.879 Y72.766 E.0189
G1 X7.234 Y62.121 E.34221
G1 X7.234 Y62.952 E.0189
G1 X17.048 Y72.766 E.31548
G1 X16.216 Y72.766 E.0189
G1 X7.234 Y63.784 E.28876
G1 X7.234 Y64.615 E.0189
G1 X15.385 Y72.766 E.26203
G1 X14.554 Y72.766 E.0189
G1 X7.234 Y65.446 E.2353
G1 X7.234 Y66.278 E.0189
G1 X13.722 Y72.766 E.20858
G1 X12.891 Y72.766 E.0189
G1 X7.234 Y67.109 E.18185
G1 X7.234 Y67.941 E.0189
G1 X12.059 Y72.766 E.15512
G1 X11.228 Y72.766 E.0189
G1 X7.234 Y68.772 E.1284
M73 P22 R1
G1 X7.234 Y69.603 E.0189
G1 X10.397 Y72.766 E.10167
G1 X9.565 Y72.766 E.0189
G1 X7.234 Y70.435 E.07494
G1 X7.234 Y71.266 E.0189
G1 X8.734 Y72.766 E.04822
G1 X7.902 Y72.766 E.0189
G1 X6.974 Y71.837 E.02986
; stop printing object Object_2 id:3 copy 0
; printing object Object_4 id:8 copy 0
G1 E-.35 F1800
;WIPE_START
G1 F9000
G1 X7.681 Y72.544 E-.1425
;WIPE_END
G1 E-.0075 F1800
EXCLUDE_OBJECT_END NAME=Object_2_id_3_copy_0
EXCLUDE_OBJECT_START NAME=Object_4_id_8_copy_0
G17
G3 Z.2 I.264 J.15 P1  F30000
G1 X31.2 Y31.2 Z.2
G1 Z.1
G1 E.5 F1800
;TYPE:Outer wall
;WIDTH:0.6
G1 F6000
G1 X6.8 Y31.2 E.54581
G1 X6.8 Y6.8 E.54581
M73 P23 R1
G1 X31.2 Y6.8 E.54581
G1 X31.2 Y31.16 E.54491
G1 E-.5 F1800
G17
G3 Z.2 I.304 J-.017 P1  F30000
G1 X29.837 Y6.974 Z.2
G1 Z.1
M73 P24 R1
G1 E.5 F1800
;TYPE:Bottom surface
;WIDTH:0.609352
G1 F9000
G1 X30.766 Y7.903 E.02986
G1 X30.766 Y8.734 E.0189
G1 X29.266 Y7.234 E.04822
G1 X28.435 Y7.234 E.0189
G1 X30.766 Y9.565 E.07495
G1 X30.766 Y10.397 E.0189
G1 X27.603 Y7.234 E.10167
G1 X26.772 Y7.234 E.0189
G1 X30.766 Y11.228 E.1284
G1 X30.766 Y12.06 E.0189
G1 X25.94 Y7.234 E.15513
G1 X25.109 Y7.234 E.0189
G1 X30.766 Y12.891 E.18185
G1 X30.766 Y13.722 E.0189
G1 X24.278 Y7.234 E.20858
G1 X23.446 Y7.234 E.0189
G1 X30.766 Y14.554 E.23531
G1 X30.766 Y15.385 E.0189
G1 X22.615 Y7.234 E.26203
G1 X21.783 Y7.234 E.0189
G1 X30.766 Y16.217 E.28876
G1 X30.766 Y17.048 E.0189
M73 P25 R1
G1 X20.952 Y7.234 E.31549
G1 X20.121 Y7.234 E.0189
G1 X30.766 Y17.879 E.34221
G1 X30.766 Y18.711 E.0189
G1 X19.289 Y7.234 E.36894
G1 X18.458 Y7.234 E.0189
G1 X30.766 Y19.542 E.39567
G1 X30.766 Y20.374 E.0189
G1 X17.626 Y7.234 E.42239
G1 X16.795 Y7.234 E.0189
G1 X30.766 Y21.205 E.44912
G1 X30.766 Y22.036 E.0189
M73 P26 R1
G1 X15.964 Y7.234 E.47584
G1 X15.132 Y7.234 E.0189
G1 X30.766 Y22.868 E.50257
G1 X30.766 Y23.699 E.0189
G1 X14.301 Y7.234 E.5293
G1 X13.469 Y7.234 E.0189
G1 X30.766 Y24.531 E.55602
G1 X30.766 Y25.362 E.0189
G1 X12.638 Y7.234 E.58275
M73 P27 R1
G1 X11.807 Y7.234 E.0189
G1 X30.766 Y26.193 E.60948
G1 X30.766 Y27.025 E.0189
G1 X10.975 Y7.234 E.6362
G1 X10.144 Y7.234 E.0189
G1 X30.766 Y27.856 E.66293
G1 X30.766 Y28.688 E.0189
G1 X9.312 Y7.234 E.68966
M73 P28 R1
G1 X8.481 Y7.234 E.0189
G1 X30.766 Y29.519 E.71638
G1 X30.766 Y30.35 E.0189
G1 X7.65 Y7.234 E.74311
G1 X7.234 Y7.234 E.00945
G1 X7.234 Y7.65 E.00945
G1 X30.35 Y30.766 E.74311
G1 X29.519 Y30.766 E.0189
M73 P29 R1
G1 X7.234 Y8.481 E.71638
G1 X7.234 Y9.312 E.0189
G1 X28.688 Y30.766 E.68965
G1 X27.856 Y30.766 E.0189
G1 X7.234 Y10.144 E.66293
G1 X7.234 Y10.975 E.0189
G1 X27.025 Y30.766 E.6362
M73 P30 R1
G1 X26.193 Y30.766 E.0189
G1 X7.234 Y11.807 E.60947
M73 P30 R0
G1 X7.234 Y12.638 E.0189
G1 X25.362 Y30.766 E.58275
G1 X24.531 Y30.766 E.0189
G1 X7.234 Y13.469 E.55602
G1 X7.234 Y14.301 E.0189
G1 X23.699 Y30.766 E.52929
G1 X22.868 Y30.766 E.0189
M73 P31 R0
G1 X7.234 Y15.132 E.50257
G1 X7.234 Y15.964 E.0189
G1 X22.036 Y30.766 E.47584
G1 X21.205 Y30.766 E.0189
G1 X7.234 Y16.795 E.44911
G1 X7.234 Y17.627 E.0189
G1 X20.373 Y30.766 E.42239
G1 X19.542 Y30.766 E.0189
G1 X7.234 Y18.458 E.39566
G1 X7.234 Y19.289 E.0189
G1 X18.711 Y30.766 E.36893
M73 P32 R0
G1 X17.879 Y30.766 E.0189
G1 X7.234 Y20.121 E.34221
G1 X7.234 Y20.952 E.0189
G1 X17.048 Y30.766 E.31548
G1 X16.216 Y30.766 E.0189
G1 X7.234 Y21.784 E.28876
G1 X7.234 Y22.615 E.0189
G1 X15.385 Y30.766 E.26203
G1 X14.554 Y30.766 E.0189
G1 X7.234 Y23.446 E.2353
G1 X7.234 Y24.278 E.0189
G1 X13.722 Y30.766 E.20858
G1 X12.891 Y30.766 E.0189
G1 X7.234 Y25.109 E.18185
G1 X7.234 Y25.941 E.0189
G1 X12.059 Y30.766 E.15512
M73 P33 R0
G1 X11.228 Y30.766 E.0189
G1 X7.234 Y26.772 E.1284
G1 X7.234 Y27.603 E.0189
G1 X10.397 Y30.766 E.10167
G1 X9.565 Y30.766 E.0189
G1 X7.234 Y28.435 E.07494
G1 X7.234 Y29.266 E.0189
G1 X8.734 Y30.766 E.04822
G1 X7.902 Y30.766 E.0189
G1 X6.974 Y29.837 E.02986
; stop printing object Object_4 id:8 copy 0
; printing object Object_3 id:7 copy 0
G1 E-.35 F1800
;WIPE_START
G1 F9000
G1 X7.681 Y30.544 E-.1425
;WIPE_END
G1 E-.0075 F1800
EXCLUDE_OBJECT_END NAME=Object_4_id_8_copy_0
EXCLUDE_OBJECT_START NAME=Object_3_id_7_copy_0
G17
G3 Z.2 I-.003 J.304 P1  F30000
G1 X73.2 Y31.2 Z.2
G1 Z.1
G1 E.5 F1800
;TYPE:Outer wall
;WIDTH:0.6
G1 F6000
G1 X48.8 Y31.2 E.54581
M73 P34 R0
G1 X48.8 Y6.8 E.54581
G1 X73.2 Y6.8 E.54581
G1 X73.2 Y31.16 E.54491
G1 E-.5 F1800
G17
G3 Z.2 I.304 J-.017 P1  F30000
G1 X71.837 Y6.974 Z.2
M73 P35 R0
G1 Z.1
G1 E.5 F1800
;TYPE:Bottom surface
;WIDTH:0.609352
G1 F9000
G1 X72.766 Y7.903 E.02986
G1 X72.766 Y8.734 E.0189
G1 X71.266 Y7.234 E.04822
G1 X70.435 Y7.234 E.0189
G1 X72.766 Y9.565 E.07495
G1 X72.766 Y10.397 E.0189
G1 X69.603 Y7.234 E.10167
G1 X68.772 Y7.234 E.0189
G1 X72.766 Y11.228 E.1284
G1 X72.766 Y12.06 E.0189
G1 X67.94 Y7.234 E.15513
G1 X67.109 Y7.234 E.0189
