; HEADER_BLOCK_START
; generated by OrcaSlicer 1.6.6 on 2023-12-26 at 16:32:46
; total layer number: 1
; HEADER_BLOCK_END

; THUMBNAIL_BLOCK_START
; THUMBNAIL_BLOCK_END

; external perimeters extrusion width = 0.48mm
; perimeters extrusion width = 0.48mm
; infill extrusion width = 0.48mm
; solid infill extrusion width = 0.48mm
; top infill extrusion width = 0.48mm
; support material extrusion width = 0.40mm
; first layer extrusion width = 0.60mm

; external perimeters extrusion width = 0.48mm
; perimeters extrusion width = 0.48mm
; infill extrusion width = 0.48mm
; solid infill extrusion width = 0.48mm
; top infill extrusion width = 0.48mm
; support material extrusion width = 0.40mm
; first layer extrusion width = 0.60mm

; external perimeters extrusion width = 0.48mm
; perimeters extrusion width = 0.48mm
; infill extrusion width = 0.48mm
; solid infill extrusion width = 0.48mm
; top infill extrusion width = 0.48mm
; support material extrusion width = 0.40mm
; first layer extrusion width = 0.60mm

; external perimeters extrusion width = 0.48mm
; perimeters extrusion width = 0.48mm
; infill extrusion width = 0.48mm
; solid infill extrusion width = 0.48mm
; top infill extrusion width = 0.48mm
; support material extrusion width = 0.40mm
; first layer extrusion width = 0.60mm

; external perimeters extrusion width = 0.48mm
; perimeters extrusion width = 0.48mm
; infill extrusion width = 0.48mm
; solid infill extrusion width = 0.48mm
; top infill extrusion width = 0.48mm
; support material extrusion width = 0.40mm
; first layer extrusion width = 0.60mm

; external perimeters extrusion width = 0.48mm
; perimeters extrusion width = 0.48mm
; infill extrusion width = 0.48mm
; solid infill extrusion width = 0.48mm
; top infill extrusion width = 0.48mm
; support material extrusion width = 0.40mm
; first layer extrusion width = 0.60mm

; external perimeters extrusion width = 0.48mm
; perimeters extrusion width = 0.48mm
; infill extrusion width = 0.48mm
; solid infill extrusion width = 0.48mm
; top infill extrusion width = 0.48mm
; support material extrusion width = 0.40mm
; first layer extrusion width = 0.60mm

; external perimeters extrusion width = 0.48mm
; perimeters extrusion width = 0.48mm
; infill extrusion width = 0.48mm
; solid infill extrusion width = 0.48mm
; top infill extrusion width = 0.48mm
; support material extrusion width = 0.40mm
; first layer extrusion width = 0.60mm

; external perimeters extrusion width = 0.48mm
; perimeters extrusion width = 0.48mm
; infill extrusion width = 0.48mm
; solid infill extrusion width = 0.48mm
; top infill extrusion width = 0.48mm
; support material extrusion width = 0.40mm
; first layer extrusion width = 0.60mm

; EXECUTABLE_BLOCK_START
EXCLUDE_OBJECT_DEFINE NAME=Object_1_id_0_copy_0 CENTER=60,60 POLYGON=[[47.5,47.5],[72.5,47.5],[72.5,72.5],[47.5,72.5],[47.5,47.5]]
EXCLUDE_OBJECT_DEFINE NAME=Object_2_id_1_copy_0 CENTER=18,60 POLYGON=[[5.5,47.5],[30.5,47.5],[30.5,72.5],[5.5,72.5],[5.5,47.5]]
EXCLUDE_OBJECT_DEFINE NAME=Object_3_id_2_copy_0 CENTER=60,18 POLYGON=[[47.5,5.5],[72.5,5.5],[72.5,30.5],[47.5,30.5],[47.5,5.5]]
EXCLUDE_OBJECT_DEFINE NAME=Object_4_id_3_copy_0 CENTER=18,18 POLYGON=[[5.5,5.5],[30.5,5.5],[30.5,30.5],[5.5,30.5],[5.5,5.5]]
EXCLUDE_OBJECT_DEFINE NAME=Object_5_id_4_copy_0 CENTER=60,100 POLYGON=[[47.5,87.5],[72.5,87.5],[72.5,112.5],[47.5,112.5],[47.5,87.5]]
EXCLUDE_OBJECT_DEFINE NAME=Object_6_id_5_copy_0 CENTER=18,100 POLYGON=[[5.5,87.5],[30.5,87.5],[30.5,112.5],[5.5,112.5],[5.5,87.5]]
EXCLUDE_OBJECT_DEFINE NAME=Object_7_id_6_copy_0 CENTER=100,60 POLYGON=[[87.5,47.5],[112.5,47.5],[112.5,72.5],[87.5,72.5],[87.5,47.5]]
EXCLUDE_OBJECT_DEFINE NAME=Object_8_id_7_copy_0 CENTER=100,100 POLYGON=[[87.5,87.5],[112.5,87.5],[112.5,112.5],[87.5,112.5],[87.5,87.5]]
EXCLUDE_OBJECT_DEFINE NAME=Object_9_id_8_copy_0 CENTER=100,18 POLYGON=[[87.5,5.5],[112.5,5.5],[112.5,30.5],[87.5,30.5],[87.5,5.5]]
M73 P0 R1
;TYPE:Custom
M104 S0
M140 S0

print_start EXTRUDER=280 BED=110

G92 E0.0
G90
G21
M83 ; use relative distances for extrusion
; Filament gcode
SET_PRESSURE_ADVANCE ADVANCE=0.02; Override pressure advance value
M106 S0
;LAYER_CHANGE
;Z:0.2
;HEIGHT:0.2
;BEFORE_LAYER_CHANGE
;0.2
G92 E0

G1 E-.5 F1800
;AFTER_LAYER_CHANGE
;0.2
SET_VELOCITY_LIMIT ACCEL=10000
SET_VELOCITY_LIMIT SQUARE_CORNER_VELOCITY=9
; printing object Object_1 id:0 copy 0
EXCLUDE_OBJECT_START NAME=Object_1_id_0_copy_0
G1 X72.2 Y72.2 F30000
G1 Z.2
G1 E.5 F1800
;TYPE:Outer wall
;WIDTH:0.599999
G1 F6000
G1 X47.8 Y72.2 E1.05112
G1 X47.8 Y47.8 E1.05112
G1 X72.2 Y47.8 E1.05112
M73 P1 R1
G1 X72.2 Y60 E.52556
G1 X72.2 Y72.16 E.52384
G1 E-.5 F1800
G17
G3 Z.3 I.304 J-.016 P1  F30000
G1 X70.902 Y47.967 Z.3
G1 Z.2
G1 E.5 F1800
;TYPE:Bottom surface
;WIDTH:0.602148
G1 F9000
G1 X71.782 Y48.847 E.05382
G1 X71.782 Y49.638 E.0342
G1 X70.362 Y48.218 E.08685
G1 X69.571 Y48.218 E.0342
G1 X71.782 Y50.429 E.13522
G1 X71.782 Y51.22 E.0342
G1 X68.78 Y48.218 E.18359
G1 X67.989 Y48.218 E.0342
G1 X71.782 Y52.011 E.23196
M73 P2 R1
G1 X71.782 Y52.801 E.0342
G1 X67.199 Y48.218 E.28032
G1 X66.408 Y48.218 E.0342
G1 X71.782 Y53.592 E.32869
G1 X71.782 Y54.383 E.0342
G1 X65.617 Y48.218 E.37706
G1 X64.826 Y48.218 E.0342
G1 X71.782 Y55.174 E.42543
G1 X71.782 Y55.965 E.0342
G1 X64.035 Y48.218 E.47379
G1 X63.244 Y48.218 E.0342
G1 X71.782 Y56.756 E.52216
G1 X71.782 Y57.547 E.0342
G1 X62.453 Y48.218 E.57053
G1 X61.662 Y48.218 E.0342
G1 X71.782 Y58.338 E.6189
G1 X71.782 Y59.128 E.0342
G1 X60.872 Y48.218 E.66727
M73 P3 R1
G1 X60.081 Y48.218 E.0342
G1 X71.782 Y59.919 E.71563
G1 X71.782 Y60.71 E.0342
G1 X59.29 Y48.218 E.764
G1 X58.499 Y48.218 E.0342
G1 X71.782 Y61.501 E.81237
G1 X71.782 Y62.292 E.0342
G1 X57.708 Y48.218 E.86074
G1 X56.917 Y48.218 E.0342
G1 X71.782 Y63.083 E.9091
G1 X71.782 Y63.874 E.0342
G1 X56.126 Y48.218 E.95747
M73 P4 R1
G1 X55.336 Y48.218 E.0342
G1 X71.782 Y64.664 E1.00584
G1 X71.782 Y65.455 E.0342
G1 X54.545 Y48.218 E1.05421
G1 X53.754 Y48.218 E.0342
G1 X71.782 Y66.246 E1.10257
G1 X71.782 Y67.037 E.0342
G1 X52.963 Y48.218 E1.15094
M73 P5 R1
G1 X52.172 Y48.218 E.0342
G1 X71.782 Y67.828 E1.19931
G1 X71.782 Y68.619 E.0342
G1 X51.381 Y48.218 E1.24768
G1 X50.59 Y48.218 E.0342
G1 X71.782 Y69.41 E1.29604
G1 X71.782 Y70.201 E.0342
G1 X49.799 Y48.218 E1.34441
M73 P6 R1
G1 X49.009 Y48.218 E.0342
G1 X71.782 Y70.991 E1.39278
G1 X71.782 Y71.782 E.0342
G1 X48.218 Y48.218 E1.44114
G1 X48.218 Y49.009 E.0342
G1 X70.991 Y71.782 E1.39277
G1 X70.2 Y71.782 E.0342
G1 X48.218 Y49.8 E1.34441
M73 P7 R1
G1 X48.218 Y50.59 E.0342
G1 X69.41 Y71.782 E1.29604
G1 X68.619 Y71.782 E.0342
G1 X48.218 Y51.381 E1.24767
G1 X48.218 Y52.172 E.0342
G1 X67.828 Y71.782 E1.1993
G1 X67.037 Y71.782 E.0342
G1 X48.218 Y52.963 E1.15093
M73 P8 R1
G1 X48.218 Y53.754 E.0342
G1 X66.246 Y71.782 E1.10257
G1 X65.455 Y71.782 E.0342
G1 X48.218 Y54.545 E1.0542
G1 X48.218 Y55.336 E.0342
G1 X64.664 Y71.782 E1.00583
G1 X63.873 Y71.782 E.0342
G1 X48.218 Y56.127 E.95746
G1 X48.218 Y56.917 E.0342
G1 X63.083 Y71.782 E.9091
M73 P9 R1
G1 X62.292 Y71.782 E.0342
G1 X48.218 Y57.708 E.86073
G1 X48.218 Y58.499 E.0342
G1 X61.501 Y71.782 E.81236
G1 X60.71 Y71.782 E.0342
G1 X48.218 Y59.29 E.76399
G1 X48.218 Y60.081 E.0342
G1 X59.919 Y71.782 E.71563
G1 X59.128 Y71.782 E.0342
G1 X48.218 Y60.872 E.66726
G1 X48.218 Y61.663 E.0342
M73 P10 R1
G1 X58.337 Y71.782 E.61889
G1 X57.547 Y71.782 E.0342
G1 X48.218 Y62.453 E.57052
G1 X48.218 Y63.244 E.0342
G1 X56.756 Y71.782 E.52216
G1 X55.965 Y71.782 E.0342
G1 X48.218 Y64.035 E.47379
G1 X48.218 Y64.826 E.0342
G1 X55.174 Y71.782 E.42542
G1 X54.383 Y71.782 E.0342
G1 X48.218 Y65.617 E.37705
G1 X48.218 Y66.408 E.0342
G1 X53.592 Y71.782 E.32869
G1 X52.801 Y71.782 E.0342
G1 X48.218 Y67.199 E.28032
G1 X48.218 Y67.99 E.0342
G1 X52.01 Y71.782 E.23195
G1 X51.22 Y71.782 E.0342
G1 X48.218 Y68.78 E.18358
M73 P11 R1
G1 X48.218 Y69.571 E.0342
G1 X50.429 Y71.782 E.13521
G1 X49.638 Y71.782 E.0342
G1 X48.218 Y70.362 E.08685
G1 X48.218 Y71.153 E.0342
G1 X49.098 Y72.033 E.05381
; stop printing object Object_1 id:0 copy 0
; printing object Object_7 id:6 copy 0
G1 E-.35 F1800
;WIPE_START
G1 F9000
G1 X48.391 Y71.326 E-.1425
;WIPE_END
G1 E-.0075 F1800
EXCLUDE_OBJECT_END NAME=Object_1_id_0_copy_0
EXCLUDE_OBJECT_START NAME=Object_7_id_6_copy_0
G17
G3 Z.3 I-.004 J.304 P1  F30000
G1 X112.2 Y72.2 Z.3
G1 Z.2
G1 E.5 F1800
;TYPE:Outer wall
;WIDTH:0.599999
G1 F6000
G1 X87.8 Y72.2 E1.05112
G1 X87.8 Y47.8 E1.05112
M73 P12 R1
G1 X112.2 Y47.8 E1.05112
G1 X112.2 Y60 E.52556
G1 X112.2 Y72.16 E.52384
G1 E-.5 F1800
G17
G3 Z.3 I.304 J-.016 P1  F30000
G1 X110.902 Y47.967 Z.3
G1 Z.2
G1 E.5 F1800
;TYPE:Bottom surface
;WIDTH:0.602148
G1 F9000
G1 X111.782 Y48.847 E.05382
G1 X111.782 Y49.638 E.0342
G1 X110.362 Y48.218 E.08685
G1 X109.571 Y48.218 E.0342
G1 X111.782 Y50.429 E.13522
M73 P13 R1
G1 X111.782 Y51.22 E.0342
G1 X108.78 Y48.218 E.18359
G1 X107.989 Y48.218 E.0342
G1 X111.782 Y52.011 E.23196
G1 X111.782 Y52.801 E.0342
G1 X107.199 Y48.218 E.28032
G1 X106.408 Y48.218 E.0342
G1 X111.782 Y53.592 E.32869
G1 X111.782 Y54.383 E.0342
G1 X105.617 Y48.218 E.37706
G1 X104.826 Y48.218 E.0342
G1 X111.782 Y55.174 E.42543
G1 X111.782 Y55.965 E.0342
G1 X104.035 Y48.218 E.47379
G1 X103.244 Y48.218 E.0342
G1 X111.782 Y56.756 E.52216
G1 X111.782 Y57.547 E.0342
G1 X102.453 Y48.218 E.57053
G1 X101.662 Y48.218 E.0342
G1 X111.782 Y58.338 E.6189
M73 P14 R1
G1 X111.782 Y59.128 E.0342
G1 X100.872 Y48.218 E.66727
G1 X100.081 Y48.218 E.0342
G1 X111.782 Y59.919 E.71563
G1 X111.782 Y60.71 E.0342
G1 X99.29 Y48.218 E.764
G1 X98.499 Y48.218 E.0342
G1 X111.782 Y61.501 E.81237
G1 X111.782 Y62.292 E.0342
G1 X97.708 Y48.218 E.86074
G1 X96.917 Y48.218 E.0342
G1 X111.782 Y63.083 E.9091
M73 P15 R1
G1 X111.782 Y63.874 E.0342
G1 X96.126 Y48.218 E.95747
G1 X95.336 Y48.218 E.0342
G1 X111.782 Y64.664 E1.00584
G1 X111.782 Y65.455 E.0342
G1 X94.545 Y48.218 E1.05421
G1 X93.754 Y48.218 E.0342
G1 X111.782 Y66.246 E1.10257
G1 X111.782 Y67.037 E.0342
G1 X92.963 Y48.218 E1.15094
M73 P16 R1
G1 X92.172 Y48.218 E.0342
G1 X111.782 Y67.828 E1.19931
G1 X111.782 Y68.619 E.0342
G1 X91.381 Y48.218 E1.24768
G1 X90.59 Y48.218 E.0342
G1 X111.782 Y69.41 E1.29604
G1 X111.782 Y70.201 E.0342
G1 X89.799 Y48.218 E1.34441
M73 P17 R1
G1 X89.009 Y48.218 E.0342
G1 X111.782 Y70.991 E1.39278
G1 X111.782 Y71.782 E.0342
G1 X88.218 Y48.218 E1.44114
G1 X88.218 Y49.009 E.0342
G1 X110.991 Y71.782 E1.39277
M73 P18 R1
G1 X110.2 Y71.782 E.0342
G1 X88.218 Y49.8 E1.34441
G1 X88.218 Y50.59 E.0342
G1 X109.41 Y71.782 E1.29604
G1 X108.619 Y71.782 E.0342
G1 X88.218 Y51.381 E1.24767
G1 X88.218 Y52.172 E.0342
G1 X107.828 Y71.782 E1.1993
M73 P19 R1
G1 X107.037 Y71.782 E.0342
G1 X88.218 Y52.963 E1.15093
G1 X88.218 Y53.754 E.0342
G1 X106.246 Y71.782 E1.10257
G1 X105.455 Y71.782 E.0342
G1 X88.218 Y54.545 E1.0542
G1 X88.218 Y55.336 E.0342
G1 X104.664 Y71.782 E1.00583
G1 X103.873 Y71.782 E.0342
G1 X88.218 Y56.127 E.95746
M73 P20 R1
G1 X88.218 Y56.917 E.0342
G1 X103.083 Y71.782 E.9091
G1 X102.292 Y71.782 E.0342
G1 X88.218 Y57.708 E.86073
G1 X88.218 Y58.499 E.0342
G1 X101.501 Y71.782 E.81236
G1 X100.71 Y71.782 E.0342
G1 X88.218 Y59.29 E.76399
G1 X88.218 Y60.081 E.0342
G1 X99.919 Y71.782 E.71563
G1 X99.128 Y71.782 E.0342
M73 P21 R1
G1 X88.218 Y60.872 E.66726
G1 X88.218 Y61.663 E.0342
G1 X98.337 Y71.782 E.61889
G1 X97.547 Y71.782 E.0342
G1 X88.218 Y62.453 E.57052
G1 X88.218 Y63.244 E.0342
G1 X96.756 Y71.782 E.52216
G1 X95.965 Y71.782 E.0342
G1 X88.218 Y64.035 E.47379
G1 X88.218 Y64.826 E.0342
G1 X95.174 Y71.782 E.42542
G1 X94.383 Y71.782 E.0342
G1 X88.218 Y65.617 E.37705
G1 X88.218 Y66.408 E.0342
G1 X93.592 Y71.782 E.32869
G1 X92.801 Y71.782 E.0342
G1 X88.218 Y67.199 E.28032
M73 P22 R1
G1 X88.218 Y67.99 E.0342
G1 X92.01 Y71.782 E.23195
G1 X91.22 Y71.782 E.0342
G1 X88.218 Y68.78 E.18358
G1 X88.218 Y69.571 E.0342
G1 X90.429 Y71.782 E.13521
G1 X89.638 Y71.782 E.0342
G1 X88.218 Y70.362 E.08685
G1 X88.218 Y71.153 E.0342
G1 X89.098 Y72.033 E.05381
; stop printing object Object_7 id:6 copy 0
; printing object Object_8 id:7 copy 0
G1 E-.35 F1800
;WIPE_START
G1 F9000
G1 X88.391 Y71.326 E-.1425
;WIPE_END
G1 E-.0075 F1800
EXCLUDE_OBJECT_END NAME=Object_7_id_6_copy_0
EXCLUDE_OBJECT_START NAME=Object_8_id_7_copy_0
G17
G3 Z.3 I-.263 J.153 P1  F30000
G1 X112.2 Y112.2 Z.3
G1 Z.2
G1 E.5 F1800
;TYPE:Outer wall
;WIDTH:0.599999
G1 F6000
G1 X87.8 Y112.2 E1.05112
G1 X87.8 Y87.8 E1.05112
M73 P23 R1
G1 X112.2 Y87.8 E1.05112
G1 X112.2 Y100 E.52556
G1 X112.2 Y112.16 E.52384
G1 E-.5 F1800
G17
G3 Z.3 I.304 J-.016 P1  F30000
G1 X110.902 Y87.967 Z.3
G1 Z.2
G1 E.5 F1800
;TYPE:Bottom surface
;WIDTH:0.602148
M73 P24 R1
G1 F9000
G1 X111.782 Y88.847 E.05382
G1 X111.782 Y89.638 E.0342
G1 X110.362 Y88.218 E.08685
G1 X109.571 Y88.218 E.0342
G1 X111.782 Y90.429 E.13522
G1 X111.782 Y91.22 E.0342
G1 X108.78 Y88.218 E.18359
G1 X107.989 Y88.218 E.0342
G1 X111.782 Y92.011 E.23196
G1 X111.782 Y92.801 E.0342
G1 X107.199 Y88.218 E.28032
G1 X106.408 Y88.218 E.0342
G1 X111.782 Y93.592 E.32869
G1 X111.782 Y94.383 E.0342
G1 X105.617 Y88.218 E.37706
G1 X104.826 Y88.218 E.0342
G1 X111.782 Y95.174 E.42543
G1 X111.782 Y95.965 E.0342
G1 X104.035 Y88.218 E.47379
G1 X103.244 Y88.218 E.0342
G1 X111.782 Y96.756 E.52216
G1 X111.782 Y97.547 E.0342
G1 X102.453 Y88.218 E.57053
M73 P25 R1
G1 X101.662 Y88.218 E.0342
G1 X111.782 Y98.338 E.6189
G1 X111.782 Y99.128 E.0342
G1 X100.872 Y88.218 E.66727
G1 X100.081 Y88.218 E.0342
G1 X111.782 Y99.919 E.71563
G1 X111.782 Y100.71 E.0342
G1 X99.29 Y88.218 E.764
G1 X98.499 Y88.218 E.0342
G1 X111.782 Y101.501 E.81237
G1 X111.782 Y102.292 E.0342
G1 X97.708 Y88.218 E.86074
G1 X96.917 Y88.218 E.0342
M73 P26 R1
G1 X111.782 Y103.083 E.9091
G1 X111.782 Y103.874 E.0342
G1 X96.126 Y88.218 E.95747
G1 X95.336 Y88.218 E.0342
G1 X111.782 Y104.664 E1.00584
G1 X111.782 Y105.455 E.0342
G1 X94.545 Y88.218 E1.05421
G1 X93.754 Y88.218 E.0342
G1 X111.782 Y106.246 E1.10257
M73 P27 R1
G1 X111.782 Y107.037 E.0342
G1 X92.963 Y88.218 E1.15094
G1 X92.172 Y88.218 E.0342
G1 X111.782 Y107.828 E1.19931
G1 X111.782 Y108.619 E.0342
G1 X91.381 Y88.218 E1.24768
G1 X90.59 Y88.218 E.0342
G1 X111.782 Y109.41 E1.29604
M73 P28 R1
G1 X111.782 Y110.201 E.0342
G1 X89.799 Y88.218 E1.34441
G1 X89.009 Y88.218 E.0342
G1 X111.782 Y110.991 E1.39278
G1 X111.782 Y111.782 E.0342
G1 X88.218 Y88.218 E1.44114
G1 X88.218 Y89.009 E.0342
G1 X110.991 Y111.782 E1.39277
M73 P29 R1
G1 X110.2 Y111.782 E.0342
G1 X88.218 Y89.8 E1.34441
G1 X88.218 Y90.59 E.0342
G1 X109.41 Y111.782 E1.29604
G1 X108.619 Y111.782 E.0342
G1 X88.218 Y91.381 E1.24767
G1 X88.218 Y92.172 E.0342
G1 X107.828 Y111.782 E1.1993
M73 P30 R1
G1 X107.037 Y111.782 E.0342
G1 X88.218 Y92.963 E1.15093
G1 X88.218 Y93.754 E.0342
G1 X106.246 Y111.782 E1.10257
G1 X105.455 Y111.782 E.0342
G1 X88.218 Y94.545 E1.0542
G1 X88.218 Y95.336 E.0342
G1 X104.664 Y111.782 E1.00583
M73 P31 R1
G1 X103.873 Y111.782 E.0342
G1 X88.218 Y96.127 E.95746
G1 X88.218 Y96.917 E.0342
G1 X103.083 Y111.782 E.9091
G1 X102.292 Y111.782 E.0342
G1 X88.218 Y97.708 E.86073
G1 X88.218 Y98.499 E.0342
G1 X101.501 Y111.782 E.81236
G1 X100.71 Y111.782 E.0342
G1 X88.218 Y99.29 E.76399
G1 X88.218 Y100.081 E.0342
G1 X99.919 Y111.782 E.71563
M73 P32 R1
G1 X99.128 Y111.782 E.0342
G1 X88.218 Y100.872 E.66726
G1 X88.218 Y101.663 E.0342
G1 X98.337 Y111.782 E.61889
G1 X97.547 Y111.782 E.0342
G1 X88.218 Y102.453 E.57052
G1 X88.218 Y103.244 E.0342
G1 X96.756 Y111.782 E.52216
G1 X95.965 Y111.782 E.0342
G1 X88.218 Y104.035 E.47379
G1 X88.218 Y104.826 E.0342
G1 X95.174 Y111.782 E.42542
G1 X94.383 Y111.782 E.0342
G1 X88.218 Y105.617 E.37705
M73 P32 R0
G1 X88.218 Y106.408 E.0342
G1 X93.592 Y111.782 E.32869
M73 P33 R0
G1 X92.801 Y111.782 E.0342
G1 X88.218 Y107.199 E.28032
G1 X88.218 Y107.99 E.0342
G1 X92.01 Y111.782 E.23195
G1 X91.22 Y111.782 E.0342
G1 X88.218 Y108.78 E.18358
G1 X88.218 Y109.571 E.0342
G1 X90.429 Y111.782 E.13521
G1 X89.638 Y111.782 E.0342
G1 X88.218 Y110.362 E.08685
G1 X88.218 Y111.153 E.0342
G1 X89.098 Y112.033 E.05381
; stop printing object Object_8 id:7 copy 0
; printing object Object_5 id:4 copy 0
G1 E-.35 F1800
;WIPE_START
G1 F9000
G1 X88.391 Y111.326 E-.1425
