; HEADER_BLOCK_START
; generated by OrcaSlicer 1.6.6 on 2023-11-21 at 01:17:50
; total layer number: 91
; HEADER_BLOCK_END

; THUMBNAIL_BLOCK_START
; THUMBNAIL_BLOCK_END

; external perimeters extrusion width = 0.72mm
; perimeters extrusion width = 0.72mm
; infill extrusion width = 0.72mm
; solid infill extrusion width = 0.72mm
; top infill extrusion width = 0.72mm
; support material extrusion width = 0.60mm
; first layer extrusion width = 0.90mm

; EXECUTABLE_BLOCK_START
EXCLUDE_OBJECT_DEFINE NAME=PIP_Spool_Holder.stl_id_0_copy_0 CENTER=55.3442,58.5108 POLYGON=[[8.3442,41.7359],[8.74419,41.3359],[88.3442,28.5108],[102.344,28.5108],[102.344,31.5108],[102.344,88.5108],[88.3442,88.5108],[8.74419,75.6856],[8.3442,75.2856],[8.3442,41.7359]]
M73 P0 R27
;TYPE:Custom
M104 S0
M140 S0

print_start EXTRUDER=280 BED=110

G92 E0.0
G90
G21
M83 ; use relative distances for extrusion
; Filament gcode
SET_PRESSURE_ADVANCE ADVANCE=0.015; Override pressure advance value
M106 S0
;LAYER_CHANGE
;Z:0.2
;HEIGHT:0.2
;BEFORE_LAYER_CHANGE
;0.2
G92 E0

G1 E-.5 F1800
;AFTER_LAYER_CHANGE
;0.2
SET_VELOCITY_LIMIT ACCEL=10000
SET_VELOCITY_LIMIT SQUARE_CORNER_VELOCITY=9
; printing object PIP_Spool_Holder.stl id:0 copy 0
EXCLUDE_OBJECT_START NAME=PIP_Spool_Holder.stl_id_0_copy_0
G1 X87.544 Y43.87 F30000
G1 Z.2
G1 E.5 F1800
;TYPE:Support
;WIDTH:0.9
G1 F6000
G1 X87.666 Y44.164 E.02047
G1 X87.991 Y44.489 E.02957
G1 X88.285 Y44.611 E.02047
G1 X97.193 Y44.611 E.57295
G1 X97.193 Y52.911 E.53384
G1 X88.285 Y52.911 E.57295
G1 X87.991 Y53.033 E.02047
G1 X87.666 Y53.358 E.02957
G1 X87.544 Y53.652 E.02047
G1 X87.544 Y55.07 E.09122
G1 X87.561 Y55.111 E.00285
G1 X74.915 Y55.111 E.81335
G1 X74.915 Y53.21 E.12224
G1 X83.176 Y53.21 E.53128
G1 X83.644 Y52.742 E.04263
G1 X83.644 Y50.568 E.13979
G1 X84.087 Y50.568 E.02845
G1 X84.087 Y41.397 E.58988
G1 X87.544 Y41.397 E.22239
G1 X87.544 Y43.741 E.15079
G1 E-.35 F1800
;WIPE_START
G1 F6000
G1 X87.544 Y42.741 E-.1425
;WIPE_END
G1 E-.0075 F1800
G17
G3 Z.3 I-.213 J-.217 P1  F30000
G1 X80.004 Y50.117 Z.3
G1 X78.164 Y51.917
G1 X75.687 Y54.339
G1 Z.2
G1 E.5 F1800
G1 F6000
G1 X75.687 Y53.982 E.02301
G1 X83.495 Y53.982 E.50222
G1 X84.416 Y53.061 E.08373
G1 X84.416 Y51.34 E.11073
G1 X84.858 Y51.34 E.02845
G1 X84.858 Y42.168 E.58988
G1 X86.773 Y42.168 E.12316
G1 X86.773 Y44.023 E.11931
G1 X87.012 Y44.601 E.04021
G1 X87.554 Y45.143 E.0493
G1 X88.132 Y45.382 E.04021
G1 X96.422 Y45.382 E.5332
G1 X96.422 Y52.139 E.43461
G1 X88.132 Y52.139 E.5332
G1 X87.554 Y52.379 E.04021
G1 X87.012 Y52.921 E.0493
G1 X86.773 Y53.498 E.04021
G1 X86.773 Y54.339 E.0541
G1 X75.687 Y54.339 E.71304
G1 X85.81 Y52.776 F30000
G1 F6000
G1 X85.81 Y44.746 E.51647
G1 X87.015 Y45.95 E.10955
G1 X87.942 Y46.334 E.06458
G1 X95.469 Y46.334 E.48414
G1 X95.469 Y51.187 E.31211
G1 X87.942 Y51.187 E.48414
G1 X87.015 Y51.571 E.06458
G1 X85.81 Y52.776 E.10955
G1 X86.763 Y50.645 F30000
G1 F6000
G1 X86.763 Y46.877 E.24237
G1 X87.753 Y47.287 E.06894
G1 X94.517 Y47.287 E.43507
G1 X94.517 Y50.235 E.18961
G1 X87.753 Y50.235 E.43507
G1 X86.763 Y50.645 E.06894
G1 X87.715 Y49.282 F30000
G1 F6000
G1 X87.715 Y48.239 E.06711
G1 X93.565 Y48.239 E.37626
G1 X93.565 Y49.282 E.06711
G1 X87.715 Y49.282 E.37626
G1 E-.35 F1800
;WIPE_START
G1 F6000
G1 X88.715 Y49.282 E-.1425
;WIPE_END
G1 E-.0075 F1800
G17
G3 Z.3 I-.303 J-.028 P1  F30000
G1 X87.744 Y59.787 Z.3
G1 X87.705 Y60.211
G1 X87.544 Y61.952
G1 Z.2
G1 E.5 F1800
G1 F6000
G1 X87.544 Y63.37 E.09122
G1 X87.666 Y63.664 E.02047
G1 X87.991 Y63.989 E.02957
G1 X88.285 Y64.111 E.02047
G1 X97.193 Y64.111 E.57295
G1 X97.193 Y72.411 E.53384
G1 X88.285 Y72.411 E.57295
G1 X87.991 Y72.533 E.02047
G1 X87.666 Y72.858 E.02957
G1 X87.544 Y73.152 E.02047
G1 X87.544 Y75.625 E.15906
G1 X84.087 Y75.625 E.22239
G1 X84.087 Y66.453 E.58988
G1 X83.644 Y66.453 E.02845
G1 X83.644 Y64.28 E.13979
G1 X83.176 Y63.811 E.04263
G1 X74.915 Y63.811 E.53128
G1 X74.915 Y61.911 E.12224
G1 X87.477 Y61.911 E.80793
G1 X75.687 Y62.682 F30000
G1 F6000
G1 X86.773 Y62.682 E.71304
G1 X86.773 Y63.523 E.0541
G1 X87.012 Y64.101 E.04021
G1 X87.554 Y64.643 E.0493
G1 X88.132 Y64.882 E.04021
G1 X96.422 Y64.882 E.5332
G1 X96.422 Y71.639 E.43461
G1 X88.132 Y71.639 E.5332
G1 X87.554 Y71.879 E.04021
G1 X87.012 Y72.421 E.0493
G1 X86.773 Y72.998 E.04021
G1 X86.773 Y74.853 E.11931
G1 X84.858 Y74.853 E.12316
G1 X84.858 Y65.682 E.58988
G1 X84.416 Y65.682 E.02845
G1 X84.416 Y63.96 E.11073
G1 X83.495 Y63.04 E.08373
G1 X75.687 Y63.04 E.50222
G1 X75.687 Y62.682 E.02301
G1 X85.81 Y64.246 F30000
G1 F6000
G1 X87.015 Y65.45 E.10955
G1 X87.942 Y65.834 E.06458
G1 X95.469 Y65.834 E.48414
G1 X95.469 Y70.687 E.31211
G1 X87.942 Y70.687 E.48414
G1 X87.015 Y71.071 E.06458
G1 X85.81 Y72.276 E.10955
G1 X85.81 Y64.246 E.51647
G1 X86.763 Y66.377 F30000
G1 F6000
G1 X87.753 Y66.787 E.06894
G1 X94.517 Y66.787 E.43507
G1 X94.517 Y69.735 E.18961
G1 X87.753 Y69.735 E.43507
G1 X86.763 Y70.145 E.06894
G1 X86.763 Y66.377 E.24237
G1 X87.715 Y67.739 F30000
G1 F6000
G1 X93.565 Y67.739 E.37626
G1 X93.565 Y68.782 E.06711
G1 X87.715 Y68.782 E.37626
G1 X87.715 Y67.739 E.06711
G1 E-.35 F1800
;WIPE_START
G1 F6000
G1 X87.715 Y68.739 E-.1425
;WIPE_END
G1 E-.0075 F1800
G17
G3 Z.3 I-.234 J.194 P1  F30000
G1 X92.166 Y74.111 Z.3
G1 X98.444 Y82.774
G1 X106.086 Y90.91
G1 Z.2
G1 E.5 F1800
G1 F6000
G1 X96.315 Y90.91 E.62845
G1 X96.315 Y86.411 E.28938
G1 X99.676 Y86.411 E.21615
G1 X100.144 Y85.942 E.04263
G1 X100.144 Y61.679 E1.56053
G1 X99.676 Y61.211 E.04263
G1 X89.444 Y61.211 E.65806
G1 X89.444 Y55.811 E.34732
G1 X99.676 Y55.811 E.65806
G1 X100.144 Y55.342 E.04263
G1 X100.144 Y31.079 E1.56053
G1 X99.676 Y30.611 E.04263
G1 X96.315 Y30.611 E.21615
G1 X96.315 Y26.112 E.28938
G1 X106.086 Y26.112 E.62845
G1 X106.086 Y90.781 E4.15944
G1 E-.35 F1800
;WIPE_START
G1 F6000
G1 X106.086 Y89.781 E-.1425
;WIPE_END
G1 E-.0075 F1800
G17
G3 Z.3 I.272 J-.136 P1  F30000
G1 X98.916 Y75.494 Z.3
G1 X98.894 Y62.011
G1 X92.811 Y62.011
G1 X90.216 Y56.582
G1 Z.2
G1 E.5 F1800
G1 F6000
G1 X99.995 Y56.582 E.629
G1 X100.916 Y55.662 E.08373
G1 X100.916 Y30.76 E1.60163
G1 X99.995 Y29.839 E.08373
G1 X97.086 Y29.839 E.18709
G1 X97.086 Y26.883 E.19016
G1 X105.315 Y26.883 E.52923
G1 X105.315 Y90.139 E4.06848
G1 X97.086 Y90.139 E.52923
G1 X97.086 Y87.182 E.19016
G1 X99.995 Y87.182 E.18709
G1 X100.916 Y86.262 E.08373
G1 X100.916 Y61.36 E1.60163
G1 X99.995 Y60.439 E.08373
G1 X90.216 Y60.439 E.629
G1 X90.216 Y56.582 E.24809
G1 X91.168 Y57.534 F30000
G1 F6000
G1 X100.39 Y57.534 E.59312
G1 X101.868 Y56.056 E.13447
G1 X101.868 Y30.365 E1.65237
G1 X100.39 Y28.887 E.13447
G1 X98.039 Y28.887 E.15121
G1 X98.039 Y27.835 E.06765
G1 X104.362 Y27.835 E.40673
G1 X104.362 Y89.186 E3.94598
G1 X98.039 Y89.186 E.40673
G1 X98.039 Y88.134 E.06766
G1 X100.39 Y88.134 E.15121
G1 X101.868 Y86.656 E.13447
G1 X101.868 Y60.965 E1.65237
G1 X100.39 Y59.487 E.13447
G1 X91.168 Y59.487 E.59312
G1 X91.168 Y57.534 E.12559
G1 E-.35 F1800
;WIPE_START
G1 F6000
G1 X91.168 Y58.534 E-.1425
;WIPE_END
G1 E-.0075 F1800
G17
G3 Z.3 I.279 J.122 P1  F30000
G1 X92.71 Y55.011 Z.3
G1 X99.344 Y54.561
G1 X98.444 Y40.25
G1 X98.444 Y39.851
G1 X103.41 Y30.561
G1 Z.2
G1 E.5 F1800
G1 F6000
G1 X101.637 Y28.788 E.16129
G1 X103.41 Y28.788 E.11405
G1 X103.41 Y30.561 E.11405
G1 X103.41 Y55.861 F30000
G1 F6000
G1 X103.41 Y61.161 E.34088
G1 X100.76 Y58.511 E.24104
G1 X103.41 Y55.861 E.24104
G1 X103.41 Y86.461 F30000
G1 F6000
G1 X103.41 Y88.234 E.11405
G1 X101.637 Y88.234 E.11405
G1 X103.41 Y86.461 E.16129
G1 E-.35 F1800
;WIPE_START
G1 F6000
G1 X102.703 Y87.168 E-.1425
;WIPE_END
G1 E-.0075 F1800
G17
G3 Z.3 I.107 J-.285 P1  F30000
G1 X96.144 Y84.711 Z.3
G1 X89.244 Y82.126
G1 X48.612 Y66.905
G1 X43.68 Y65.103
G1 X43.681 Y65.058
G1 Z.2
G1 E.5 F1800
;TYPE:Outer wall
G1 F6000
G1 X43.095 Y65.012 E.03785
G1 X42.461 Y64.859 E.0419
G1 X41.86 Y64.61 E.0419
G1 X41.304 Y64.27 E.0419
G1 X40.809 Y63.847 E.0419
G1 X40.386 Y63.351 E.0419
G1 X40.045 Y62.796 E.0419
G1 X39.861 Y62.35 E.03104
G1 X39.796 Y62.194 E.01086
G1 X39.644 Y61.561 E.0419
G1 X39.594 Y60.929 E.04076
G1 X39.594 Y56.093 E.31106
G1 X39.644 Y55.461 E.04076
G1 X39.796 Y54.827 E.0419
G1 X40.045 Y54.226 E.0419
G1 X40.386 Y53.67 E.0419
G1 X40.809 Y53.175 E.0419
G1 X41.304 Y52.752 E.0419
G1 X41.86 Y52.411 E.0419
G1 X42.461 Y52.162 E.0419
G1 X43.095 Y52.01 E.0419
G1 X43.727 Y51.96 E.04076
G1 X57.762 Y51.96 E.90273
G1 X58.394 Y52.01 E.04076
G1 X59.027 Y52.162 E.0419
G1 X59.629 Y52.411 E.0419
G1 X60.184 Y52.752 E.0419
G1 X60.68 Y53.175 E.0419
G1 X61.103 Y53.67 E.0419
G1 X61.443 Y54.226 E.0419
G1 X61.692 Y54.827 E.0419
G1 X61.844 Y55.461 E.0419
G1 X61.894 Y56.093 E.04076
G1 X61.894 Y60.929 E.31106
G1 X61.844 Y61.561 E.04076
G1 X61.692 Y62.194 E.0419
G1 X61.443 Y62.796 E.0419
G1 X61.103 Y63.351 E.0419
G1 X60.68 Y63.847 E.0419
G1 X60.184 Y64.27 E.0419
G1 X59.629 Y64.61 E.0419
G1 X59.027 Y64.859 E.0419
G1 X58.394 Y65.012 E.0419
G1 X57.762 Y65.061 E.04076
G1 X43.741 Y65.061 E.90177
G1 E-.5 F1800
G17
G3 Z.3 I-.113 J-.283 P1  F30000
G1 X42.197 Y65.677 Z.3
G1 Z.2
G1 E.5 F1800
;TYPE:Inner wall
G1 F6000
G1 X42.114 Y66.091 E.02714
G1 X33.974 Y66.091 E.52356
G1 X33.892 Y65.677 E.02714
G1 X34.619 Y65.376 E.05064
G1 X35.29 Y64.965 E.05057
G1 X35.888 Y64.455 E.05058
G1 X36.398 Y63.857 E.05057
G1 X36.809 Y63.186 E.05058
G1 X37.11 Y62.46 E.05058
G1 X37.294 Y61.695 E.05057
G1 X37.351 Y60.963 E.04726
G1 X37.351 Y56.059 E.3154
G1 X37.294 Y55.326 E.04726
G1 X37.11 Y54.562 E.05057
G1 X36.809 Y53.835 E.05058
G1 X36.398 Y53.165 E.05058
G1 X35.888 Y52.567 E.05057
G1 X35.29 Y52.056 E.05058
G1 X34.619 Y51.645 E.05058
G1 X33.892 Y51.344 E.05064
G1 X33.974 Y50.93 E.02714
G1 X42.114 Y50.93 E.52356
G1 X42.197 Y51.344 E.02714
G1 X41.469 Y51.645 E.05064
G1 X40.799 Y52.056 E.05057
G1 X40.201 Y52.567 E.05058
G1 X39.69 Y53.165 E.05058
G1 X39.279 Y53.835 E.05057
G1 X38.978 Y54.562 E.05057
G1 X38.795 Y55.326 E.05058
G1 X38.737 Y56.059 E.04726
G1 X38.737 Y60.963 E.31539
G1 X38.795 Y61.695 E.04726
G1 X38.978 Y62.46 E.05058
G1 X39.279 Y63.186 E.05058
G1 X39.69 Y63.857 E.05057
G1 X40.201 Y64.455 E.05058
G1 X40.799 Y64.965 E.05058
G1 X41.469 Y65.376 E.05057
G1 X42.141 Y65.655 E.04678
G1 E-.5 F1800
G17
G3 Z.3 I.019 J-.304 P1  F30000
G1 X32.407 Y65.058 Z.3
G1 Z.2
G1 E.5 F1800
;TYPE:Outer wall
G1 F6000
G1 X32.362 Y65.061 E.0029
G1 X18.327 Y65.061 E.90273
G1 X17.695 Y65.012 E.04076
G1 X17.061 Y64.859 E.0419
G1 X16.46 Y64.61 E.0419
G1 X15.904 Y64.27 E.0419
G1 X15.409 Y63.847 E.0419
G1 X14.986 Y63.351 E.0419
G1 X14.645 Y62.796 E.0419
G1 X14.396 Y62.194 E.0419
G1 X14.244 Y61.561 E.0419
G1 X14.194 Y60.929 E.04076
G1 X14.194 Y56.093 E.31107
G1 X14.244 Y55.461 E.04076
G1 X14.396 Y54.827 E.0419
G1 X14.645 Y54.226 E.0419
G1 X14.986 Y53.67 E.0419
G1 X15.409 Y53.175 E.0419
G1 X15.904 Y52.752 E.0419
G1 X16.46 Y52.411 E.0419
G1 X17.061 Y52.162 E.0419
G1 X17.695 Y52.01 E.0419
G1 X18.327 Y51.96 E.04076
G1 X32.362 Y51.96 E.90273
G1 X32.994 Y52.01 E.04076
G1 X33.627 Y52.162 E.0419
G1 X34.229 Y52.411 E.0419
G1 X34.784 Y52.752 E.0419
G1 X35.28 Y53.175 E.0419
G1 X35.703 Y53.67 E.0419
G1 X36.043 Y54.226 E.0419
G1 X36.292 Y54.827 E.0419
G1 X36.444 Y55.461 E.0419
G1 X36.494 Y56.093 E.04076
G1 X36.494 Y60.929 E.31107
G1 X36.444 Y61.561 E.04076
G1 X36.292 Y62.194 E.0419
G1 X36.043 Y62.796 E.0419
G1 X35.703 Y63.351 E.0419
G1 X35.28 Y63.847 E.0419
G1 X34.784 Y64.27 E.0419
G1 X34.229 Y64.61 E.0419
G1 X33.627 Y64.859 E.0419
G1 X32.994 Y65.012 E.0419
G1 X32.467 Y65.053 E.03399
G1 E-.5 F1800
G17
G3 Z.3 I-.012 J-.304 P1  F30000
G1 X16.797 Y65.677 Z.3
G1 Z.2
G1 E.5 F1800
;TYPE:Inner wall
G1 F6000
G1 X16.714 Y66.091 E.02714
G1 X13.737 Y66.091 E.19148
G1 X13.737 Y70.22 E.26554
G1 X9.951 Y70.22 E.2435
G1 X9.951 Y46.802 E1.50622
G1 X13.737 Y46.802 E.2435
G1 X13.737 Y50.93 E.26554
G1 X16.714 Y50.93 E.19148
G1 X16.797 Y51.344 E.02714
G1 X16.069 Y51.645 E.05064
G1 X15.399 Y52.056 E.05058
G1 X14.801 Y52.567 E.05058
G1 X14.29 Y53.165 E.05057
G1 X13.879 Y53.835 E.05058
G1 X13.578 Y54.562 E.05058
G1 X13.395 Y55.326 E.05057
G1 X13.337 Y56.059 E.04726
G1 X13.337 Y60.963 E.3154
M73 P1 R27
G1 X13.395 Y61.695 E.04726
G1 X13.578 Y62.46 E.05057
G1 X13.879 Y63.186 E.05058
G1 X14.29 Y63.857 E.05058
G1 X14.801 Y64.455 E.05057
G1 X15.399 Y64.965 E.05058
G1 X16.069 Y65.376 E.05058
G1 X16.741 Y65.655 E.04678
G1 E-.5 F1800
G17
G3 Z.3 I0 J.304 P1  F30000
G1 X59.292 Y65.677 Z.3
G1 Z.2
G1 E.5 F1800
G1 F6000
G1 X60.019 Y65.376 E.05064
G1 X60.69 Y64.965 E.05057
G1 X61.288 Y64.455 E.05058
G1 X61.798 Y63.857 E.05058
G1 X62.209 Y63.186 E.05058
G1 X62.51 Y62.46 E.05057
G1 X62.694 Y61.695 E.05058
G1 X62.751 Y60.963 E.04726
G1 X62.751 Y56.059 E.3154
G1 X62.694 Y55.326 E.04726
G1 X62.51 Y54.562 E.05058
G1 X62.209 Y53.835 E.05057
G1 X61.798 Y53.165 E.05058
G1 X61.288 Y52.567 E.05058
G1 X60.69 Y52.056 E.05058
G1 X60.019 Y51.645 E.05058
G1 X59.292 Y51.344 E.05064
G1 X59.374 Y50.93 E.02714
G1 X67.716 Y50.93 E.53654
G1 X67.798 Y51.345 E.02721
G1 X67.093 Y51.633 E.04898
G1 X66.428 Y52.036 E.05001
G1 X65.832 Y52.536 E.05
G1 X65.322 Y53.122 E.05
G1 X64.908 Y53.78 E.05001
G1 X64.601 Y54.495 E.05
G1 X64.41 Y55.243 E.04966
G1 X64.205 Y57.218 E.12773
G1 X87.337 Y57.218 E1.48784
G1 X87.337 Y59.804 E.16632
G1 X64.205 Y59.804 E1.48784
G1 X64.41 Y61.779 E.12773
G1 X64.601 Y62.527 E.04966
G1 X64.908 Y63.241 E.05
G1 X65.322 Y63.899 E.05001
G1 X65.832 Y64.486 E.05
G1 X66.428 Y64.986 E.05
G1 X67.093 Y65.388 E.05001
G1 X67.798 Y65.676 E.04898
G1 X67.716 Y66.091 E.02721
G1 X59.374 Y66.091 E.53654
G1 X59.303 Y65.736 E.02328
G1 E-.35 F1800
;WIPE_START
G1 F6000
G1 X60.019 Y65.376 E-.11417
G1 X60.189 Y65.272 E-.02833
;WIPE_END
G1 E-.0075 F1800
G17
G3 Z.3 I-.008 J-.304 P1  F30000
G1 X14.155 Y66.509 Z.3
G1 X14.144 Y67.848
G1 X14.144 Y70.627
G1 X14.594 Y71.077
G1 Z.2
G1 E.5 F1800
;TYPE:Outer wall
G1 F6000
G1 X9.094 Y71.077 E.35375
G1 X9.094 Y45.944 E1.61647
G1 X14.594 Y45.944 E.35375
G1 X14.594 Y46.676 E.04704
G1 X14.594 Y50.073 E.2185
G1 X82.394 Y50.073 E4.36076
G1 X82.394 Y51.96 E.12138
G1 X69.327 Y51.96 E.84047
G1 X68.702 Y52.009 E.0403
G1 X68.075 Y52.158 E.04143
G1 X67.479 Y52.401 E.04143
G1 X66.928 Y52.735 E.04143
G1 X66.435 Y53.149 E.04143
G1 X66.012 Y53.635 E.04143
G1 X65.669 Y54.18 E.04143
G1 X65.415 Y54.772 E.04142
G1 X65.256 Y55.394 E.0413
G1 X65.155 Y56.361 E.06252
G1 X88.194 Y56.361 E1.48182
G1 X88.194 Y60.661 E.27657
G1 X65.155 Y60.661 E1.48182
G1 X65.256 Y61.628 E.06252
G1 X65.415 Y62.25 E.0413
G1 X65.669 Y62.842 E.04142
G1 X66.012 Y63.387 E.04143
G1 X66.435 Y63.872 E.04143
G1 X66.928 Y64.287 E.04143
G1 X67.479 Y64.62 E.04143
G1 X68.075 Y64.864 E.04143
G1 X68.702 Y65.013 E.04143
G1 X69.327 Y65.061 E.0403
G1 X82.394 Y65.061 E.84047
G1 X82.394 Y66.948 E.12138
G1 X14.594 Y66.948 E4.36076
G1 X14.594 Y71.017 E.26168
G1 E-.35 F1800
;WIPE_START
G1 F6000
G1 X13.594 Y71.028 E-.1425
;WIPE_END
G1 E-.0075 F1800
G17
G3 Z.3 I.288 J.1 P1  F30000
M73 P1 R26
G1 X15.451 Y65.663 Z.3
G1 Z.2
G1 E.5 F1800
;TYPE:Gap infill
;WIDTH:0.266396
G1 F6000
G1 X15.281 Y65.517 E.00376
;WIDTH:0.221144
G1 X15.102 Y65.364 E.00314
;WIDTH:0.177316
G1 X14.945 Y65.207 E.00224
G1 E-.5 F1800
G17
G3 Z.3 I-.097 J.288 P1  F30000
G1 X17.177 Y65.961 Z.3
G1 Z.2
G1 E.5 F1800
;WIDTH:1.07618
G1 F6000
G1 X18.31 Y66.005 E.08788
G1 X32.379 Y66.005 E1.0909
G1 X33.511 Y65.961 E.08788
G1 E-.5 F1800
G17
G3 Z.3 I.052 J.3 P1  F30000
G1 X35.237 Y65.663 Z.3
G1 Z.2
G1 E.5 F1800
;WIDTH:0.223113
G1 F6000
G1 X35.408 Y65.517 E.00303
;WIDTH:0.179833
G1 X35.578 Y65.371 E.0023
;WIDTH:0.152135
G1 X35.743 Y65.207 E.00191
G1 E-.5 F1800
G17
G3 Z.3 I.236 J.193 P1  F30000
G1 X38.374 Y61.99 Z.3
G1 Z.2
G1 E.5 F1800
;WIDTH:0.177351
G1 F6000
G1 X38.305 Y61.778 E.00224
;WIDTH:0.21703
G1 X38.272 Y61.643 E.00182
;WIDTH:0.260378
G1 X38.242 Y61.518 E.0021
;WIDTH:0.300629
G1 X38.212 Y61.393 E.00249
;WIDTH:0.340881
G1 X38.182 Y61.267 E.00288
;WIDTH:0.389084
G1 X38.154 Y61.225 E.00132
;WIDTH:0.437288
G1 X38.127 Y61.182 E.0015
;WIDTH:0.485493
G1 X38.099 Y61.14 E.00168
;WIDTH:0.533697
G1 X38.072 Y61.097 E.00186
;WIDTH:0.581901
G1 X38.044 Y61.055 E.00205
;WIDTH:0.571439
G1 X38.044 Y55.967 E.20182
G1 X38.072 Y55.924 E.00201
;WIDTH:0.485488
G1 X38.099 Y55.882 E.00168
;WIDTH:0.437282
