; HEADER_BLOCK_START
; generated by OrcaSlicer 1.6.6 on 2023-12-07 at 00:39:47
; total layer number: 88
; HEADER_BLOCK_END

; THUMBNAIL_BLOCK_START
; THUMBNAIL_BLOCK_END

; external perimeters extrusion width = 0.48mm
; perimeters extrusion width = 0.48mm
; infill extrusion width = 0.48mm
; solid infill extrusion width = 0.48mm
; top infill extrusion width = 0.48mm
; support material extrusion width = 0.40mm
; first layer extrusion width = 0.60mm

; EXECUTABLE_BLOCK_START
EXCLUDE_OBJECT_DEFINE NAME=RapidoADXL_v14_-_Friction-Clamp_Fit_Mount.stl_id_0_copy_0 CENTER=60,60 POLYGON=[[50.475,50.125],[50.4779,49.9941],[50.4864,49.8635],[50.5007,49.7334],[50.5206,49.6041],[50.5461,49.4757],[50.5772,49.3485],[50.6138,49.2229],[50.6559,49.0989],[50.7034,48.9769],[50.7561,48.8571],[50.814,48.7398],[50.8769,48.625],[50.9448,48.5131],[51.0175,48.4043],[51.0949,48.2987],[51.1769,48.1966],[51.2632,48.0982],[51.3537,48.0037],[51.4482,47.9132],[51.5466,47.8269],[51.6487,47.7449],[51.7543,47.6675],[51.8631,47.5948],[51.975,47.5269],[52.0898,47.464],[52.2071,47.4061],[52.327,47.3534],[52.4489,47.3059],[52.5729,47.2638],[52.6985,47.2272],[52.8257,47.1961],[52.9541,47.1706],[53.0834,47.1507],[53.2135,47.1364],[53.3441,47.1279],[53.475,47.125],[66.525,47.125],[66.6559,47.1279],[66.7865,47.1364],[66.9166,47.1507],[67.0459,47.1706],[67.1743,47.1961],[67.3015,47.2272],[67.4271,47.2638],[67.5511,47.3059],[67.673,47.3534],[67.7929,47.4061],[67.9102,47.464],[68.025,47.5269],[68.1369,47.5948],[68.2457,47.6675],[68.3513,47.7449],[68.4534,47.8269],[68.5518,47.9132],[68.6463,48.0037],[68.7368,48.0982],[68.8231,48.1966],[68.9051,48.2987],[68.9825,48.4043],[69.0552,48.5131],[69.1231,48.625],[69.186,48.7398],[69.2439,48.8571],[69.2966,48.9769],[69.3441,49.0989],[69.3862,49.2229],[69.4228,49.3485],[69.4539,49.4757],[69.4794,49.6041],[69.4993,49.7334],[69.5136,49.8635],[69.5221,49.9941],[69.525,50.125],[69.525,69.875],[69.5221,70.0059],[69.5136,70.1365],[69.4993,70.2666],[69.4794,70.3959],[69.4539,70.5243],[69.4228,70.6515],[69.3862,70.7771],[69.3441,70.9011],[69.2966,71.023],[69.2439,71.1429],[69.186,71.2602],[69.1231,71.375],[69.0552,71.4869],[68.9825,71.5957],[68.9051,71.7013],[68.8231,71.8034],[68.7368,71.9018],[68.6463,71.9963],[68.5518,72.0868],[68.4534,72.1731],[68.3513,72.2551],[68.2457,72.3325],[68.1369,72.4052],[68.025,72.4731],[67.9102,72.536],[67.7929,72.5939],[67.673,72.6466],[67.5511,72.6941],[67.4271,72.7361],[67.3015,72.7728],[67.1743,72.8039],[67.0459,72.8294],[66.9166,72.8493],[66.7865,72.8636],[66.6559,72.8721],[66.525,72.875],[53.475,72.875],[53.3441,72.8721],[53.2135,72.8636],[53.0834,72.8493],[52.9541,72.8294],[52.8257,72.8039],[52.6985,72.7728],[52.5729,72.7361],[52.4489,72.6941],[52.327,72.6466],[52.2071,72.5939],[52.0898,72.536],[51.975,72.4731],[51.8631,72.4052],[51.7543,72.3325],[51.6487,72.2551],[51.5466,72.1731],[51.4482,72.0868],[51.3537,71.9963],[51.2632,71.9018],[51.1769,71.8034],[51.0949,71.7013],[51.0175,71.5957],[50.9448,71.4869],[50.8769,71.375],[50.814,71.2602],[50.7561,71.1429],[50.7034,71.023],[50.6559,70.9011],[50.6138,70.7771],[50.5772,70.6515],[50.5461,70.5243],[50.5206,70.3959],[50.5007,70.2666],[50.4864,70.1365],[50.4779,70.0059],[50.475,69.875],[50.475,50.125]]
M73 P0 R9
;TYPE:Custom
M104 S0
M140 S0

print_start EXTRUDER=280 BED=110

G92 E0.0
G90
G21
M83 ; use relative distances for extrusion
; Filament gcode
SET_PRESSURE_ADVANCE ADVANCE=0.015; Override pressure advance value
M106 S0
;LAYER_CHANGE
;Z:0.2
;HEIGHT:0.2
;BEFORE_LAYER_CHANGE
;0.2
G92 E0

G1 E-.5 F1800
;AFTER_LAYER_CHANGE
;0.2
SET_VELOCITY_LIMIT ACCEL=10000
SET_VELOCITY_LIMIT SQUARE_CORNER_VELOCITY=9
; printing object RapidoADXL_v14 - Friction-Clamp Fit Mount.stl id:0 copy 0
EXCLUDE_OBJECT_START NAME=RapidoADXL_v14_-_Friction-Clamp_Fit_Mount.stl_id_0_copy_0
G1 X64.676 Y68.601 F30000
G1 Z.2
G1 E.5 F1800
;TYPE:Outer wall
;WIDTH:0.6
G1 F6000
G1 X64.272 Y68.434 E.01884
G1 X64.033 Y68.296 E.0119
G1 X63.714 Y68.062 E.01707
G1 X63.428 Y67.788 E.01707
G1 X63.251 Y67.577 E.0119
G1 X62.972 Y67.139 E.02237
G1 X62.856 Y66.889 E.0119
G1 X62.727 Y66.511 E.01721
G1 X62.637 Y65.997 E.02251
G1 X62.625 Y65.722 E.0119
G1 X62.651 Y65.324 E.01721
G1 X62.764 Y64.814 E.02251
G1 X62.858 Y64.555 E.01188
G1 X63.024 Y64.216 E.0163
G1 X63.335 Y63.767 E.02355
G1 X63.612 Y63.478 E.01724
G1 X63.823 Y63.301 E.0119
G1 X64.263 Y63.02 E.02251
G1 X64.629 Y62.86 E.01721
G1 X64.892 Y62.777 E.0119
G1 X65.406 Y62.686 E.02251
G1 X65.805 Y62.677 E.01721
G1 X66.08 Y62.701 E.0119
G1 X66.589 Y62.814 E.02251
G1 X66.961 Y62.959 E.01721
G1 X67.206 Y63.086 E.0119
G1 X67.631 Y63.384 E.02237
G1 X67.834 Y63.57 E.01188
G1 X68.084 Y63.854 E.0163
G1 X68.378 Y64.31 E.02341
G1 X68.494 Y64.561 E.01193
G1 X68.623 Y64.939 E.01721
G1 X68.713 Y65.453 E.02251
G1 X68.725 Y65.728 E.01188
G1 X68.702 Y66.105 E.0163
G1 X68.585 Y66.642 E.02369
G1 X68.384 Y67.128 E.02268
G1 X68.246 Y67.366 E.01188
G1 X68.023 Y67.672 E.0163
G1 X67.641 Y68.057 E.02341
G1 X67.422 Y68.226 E.01193
G1 X67.084 Y68.431 E.01707
G1 X66.674 Y68.605 E.01921
G1 X66.827 Y68.723 E.00832
G1 X67.067 Y68.996 E.01569
G1 X67.217 Y69.256 E.01293
G1 X67.319 Y69.538 E.01293
G1 X67.375 Y69.901 E.01584
G1 X67.351 Y70.267 E.01584
G1 X67.273 Y70.56 E.01307
G1 X67.112 Y70.886 E.01569
G1 X66.927 Y71.127 E.01307
G1 X66.654 Y71.367 E.01569
G1 X66.394 Y71.517 E.01293
G1 X66.112 Y71.619 E.01293
G1 X65.752 Y71.675 E.01569
G1 X65.45 Y71.661 E.01307
G1 X65.096 Y71.575 E.01569
G1 X64.821 Y71.447 E.01307
G1 X64.525 Y71.23 E.01584
G1 X64.283 Y70.954 E.01584
G1 X64.132 Y70.691 E.01307
G1 X64.015 Y70.346 E.01569
G1 X63.975 Y70.046 E.01307
G1 X63.999 Y69.683 E.01569
G1 X64.076 Y69.393 E.01293
G1 X64.203 Y69.121 E.01293
G1 X64.42 Y68.825 E.01584
G1 X64.646 Y68.628 E.01294
G1 E-.35 F1800
;WIPE_START
G1 F6000
G1 X64.272 Y68.434 E-.05996
G1 X64.033 Y68.296 E-.03932
G1 X63.789 Y68.117 E-.04322
;WIPE_END
G1 E-.0075 F1800
G17
G3 Z.3 I-.067 J.297 P1  F30000
G1 X65.08 Y68.41 Z.3
G1 X65.197 Y68.433
G1 X65.316 Y68.452
G1 X65.435 Y68.465
G1 X65.555 Y68.472
G1 X65.675 Y68.475
G1 X65.795 Y68.472
G1 X65.915 Y68.465
G1 X66.034 Y68.452
G1 X66.153 Y68.433
G1 X66.27 Y68.41
G1 X66.387 Y68.381
G1 X68.667 Y67.814
G1 Z.2
G1 E.5 F1800
;TYPE:Inner wall
G1 F6000
G1 X68.668 Y69.847 E.08768
G1 X68.648 Y70.154 E.01328
G1 X68.593 Y70.429 E.01208
G1 X68.503 Y70.694 E.01208
G1 X68.379 Y70.946 E.01208
G1 X68.224 Y71.178 E.01208
G1 X68.039 Y71.389 E.01208
G1 X67.828 Y71.574 E.01208
G1 X67.596 Y71.729 E.01208
G1 X67.43 Y71.811 E.00794
G1 X67.262 Y71.606 E.01144
G1 X67.587 Y71.182 E.02303
G1 X67.797 Y70.757 E.02043
G1 X67.903 Y70.358 E.01781
G1 X67.935 Y69.876 E.02083
G1 X67.862 Y69.399 E.02083
G1 X67.724 Y69.02 E.0174
G1 X67.584 Y68.779 E.012
G1 X67.737 Y68.686 E.0077
G1 X68.011 Y68.476 E.01487
G1 X68.639 Y67.843 E.03848
G1 E-.35 F1800
;WIPE_START
G1 F6000
G1 X68.653 Y68.842 E-.1425
;WIPE_END
G1 E-.0075 F1800
G17
G3 Z.3 I.303 J-.022 P1  F30000
G1 X68.415 Y65.485 Z.3
G1 X68.402 Y65.366
G1 X68.379 Y65.227
G1 X68.331 Y65.013
G1 X68.298 Y64.898
G1 X68.259 Y64.784
G1 X68.216 Y64.673
G1 X68.167 Y64.563
G1 X62.95 Y53.304
G1 X63.354 Y52.95
G1 Z.2
G1 E.5 F1800
;TYPE:Outer wall
G1 F6000
G1 X63.251 Y52.827 E.00692
G1 X62.969 Y52.384 E.02265
G1 X62.768 Y51.899 E.02265
G1 X62.696 Y51.632 E.01188
G1 X62.638 Y51.259 E.0163
G1 X62.635 Y50.716 E.02341
G1 X62.671 Y50.442 E.01191
G1 X62.76 Y50.075 E.0163
G1 X62.967 Y49.57 E.02355
G1 X63.174 Y49.228 E.01724
G1 X63.342 Y49.009 E.0119
G1 X63.711 Y48.64 E.02249
G1 X64.015 Y48.416 E.01629
G1 X64.271 Y48.266 E.0128
G1 X64.751 Y48.068 E.0224
G1 X65.018 Y47.996 E.0119
G1 X65.412 Y47.935 E.01721
G1 X65.934 Y47.935 E.02251
G1 X66.208 Y47.971 E.01188
G1 X66.575 Y48.06 E.0163
G1 X67.077 Y48.266 E.02341
G1 X67.317 Y48.404 E.01193
G1 X67.639 Y48.64 E.01721
G1 X68.01 Y49.011 E.02265
G1 X68.246 Y49.333 E.01721
G1 X68.381 Y49.567 E.01162
G1 X68.494 Y49.811 E.01162
G1 X68.623 Y50.189 E.01721
G1 X68.713 Y50.703 E.02251
G1 X68.725 Y50.978 E.0119
G1 X68.7 Y51.37 E.01693
G1 X68.652 Y51.638 E.01174
G1 X68.548 Y52.001 E.0163
G1 X68.318 Y52.5 E.02369
G1 X68.012 Y52.936 E.02296
G1 X67.639 Y53.31 E.02278
G1 X67.335 Y53.534 E.01629
G1 X67.081 Y53.682 E.01266
G1 X66.721 Y53.84 E.01696
G1 X66.458 Y53.923 E.0119
G1 X65.947 Y54.013 E.02237
G1 X65.672 Y54.025 E.01188
G1 X65.295 Y54.002 E.0163
G1 X64.761 Y53.886 E.02355
G1 X64.389 Y53.741 E.01724
G1 X64.144 Y53.614 E.0119
G1 X63.716 Y53.314 E.02251
G1 X63.428 Y53.038 E.01721
G1 X63.38 Y52.98 E.00325
G1 E-.5 F1800
G17
G3 Z.3 I-.228 J-.202 P1  F30000
G1 X62.266 Y54.239 Z.3
G1 Z.2
G1 E.5 F1800
;TYPE:Inner wall
G1 F6000
G1 X62.653 Y54.61 E.02314
G1 X63.275 Y55.045 E.03275
G1 X63.698 Y55.266 E.02056
G1 X64.278 Y55.491 E.02685
G1 X65.064 Y55.662 E.03467
G1 X65.656 Y55.699 E.02559
G1 X66.13 Y55.678 E.02045
G1 X66.856 Y55.55 E.03182
G1 X67.311 Y55.407 E.02056
G1 X67.545 Y55.304 E.01105
G1 X67.549 Y61.394 E.26267
G1 X67.076 Y61.21 E.02189
G1 X66.334 Y61.046 E.03275
G1 X65.86 Y61.005 E.02056
G1 X65.242 Y61.018 E.02666
G1 X64.494 Y61.15 E.03275
G1 X64.039 Y61.293 E.02056
G1 X63.473 Y61.542 E.02666
G1 X62.833 Y61.95 E.03275
G1 X62.468 Y62.257 E.02056
G1 X62.037 Y62.706 E.02685
G1 X61.579 Y63.367 E.03467
G1 X61.318 Y63.9 E.02558
G1 X61.156 Y64.345 E.02045
G1 X60.991 Y65.087 E.03275
G1 X60.951 Y65.703 E.02666
G1 X60.972 Y66.18 E.02056
G1 X61.104 Y66.928 E.03275
G1 X61.302 Y67.513 E.02666
G1 X61.504 Y67.945 E.02056
G1 X61.9 Y68.567 E.03182
G1 X62.207 Y68.932 E.02056
G1 X62.416 Y69.133 E.0125
G1 X62.342 Y69.409 E.01234
G1 X62.297 Y70.101 E.02989
G1 X62.402 Y70.901 E.0348
G1 X53.43 Y70.901 E.38691
G1 X53.21 Y70.865 E.00963
G1 X53.083 Y70.822 E.00578
G1 X52.851 Y70.688 E.01153
G1 X52.433 Y70.321 E.02398
G1 X59.146 Y70.321 E.2895
G1 X59.146 Y49.104 E.915
G1 X61.353 Y49.102 E.09515
G1 X61.166 Y49.559 E.02129
G1 X61.026 Y50.136 E.02558
G1 X60.964 Y50.611 E.02064
G1 X60.967 Y51.393 E.03374
G1 X61.059 Y51.979 E.02558
G1 X61.182 Y52.437 E.02045
G1 X61.481 Y53.159 E.03368
G1 X61.9 Y53.817 E.03368
G1 X62.207 Y54.182 E.02056
G1 X62.237 Y54.211 E.00179
G1 X62.653 Y53.838 F30000
G1 F6000
G1 X63.008 Y54.178 E.0212
G1 X63.565 Y54.568 E.02934
G1 X63.928 Y54.757 E.01767
G1 X64.439 Y54.956 E.02364
G1 X65.141 Y55.108 E.03096
G1 X65.661 Y55.141 E.02249
G1 X66.069 Y55.123 E.01759
G1 X66.724 Y55.008 E.02867
G1 X67.114 Y54.885 E.01767
G1 X67.588 Y54.676 E.02233
G1 X68.102 Y54.376 E.02565
G1 X68.107 Y62.357 E.34418
G1 X67.785 Y62.132 E.01692
G1 X67.422 Y61.943 E.01767
G1 X66.914 Y61.745 E.02351
G1 X66.25 Y61.598 E.02934
G1 X65.841 Y61.562 E.01767
G1 X65.296 Y61.574 E.02351
G1 X64.626 Y61.692 E.02934
G1 X64.236 Y61.815 E.01767
G1 X63.737 Y62.035 E.02351
G1 X63.163 Y62.4 E.02934
G1 X62.849 Y62.664 E.01767
G1 X62.47 Y63.06 E.02365
G1 X62.061 Y63.65 E.03096
G1 X61.831 Y64.118 E.02249
G1 X61.692 Y64.501 E.01759
G1 X61.544 Y65.166 E.02933
G1 X61.509 Y65.71 E.02351
G1 X61.527 Y66.119 E.01767
G1 X61.645 Y66.789 E.02934
G1 X61.82 Y67.305 E.02351
G1 X61.993 Y67.676 E.01767
G1 X62.35 Y68.237 E.02867
G1 X62.614 Y68.551 E.01767
G1 X63.039 Y68.958 E.02541
G1 X62.894 Y69.5 E.0242
G1 X62.856 Y70.083 E.02516
G1 X62.924 Y70.601 E.02254
G1 X63.112 Y71.153 E.02516
G1 X63.288 Y71.458 E.01518
G1 X53.406 Y71.458 E.42616
G1 X53.065 Y71.404 E.01487
G1 X52.869 Y71.337 E.00893
G1 X52.684 Y71.246 E.00893
G1 X52.511 Y71.131 E.00893
G1 X52.356 Y70.994 E.00893
G1 X52.219 Y70.838 E.00894
G1 X52.096 Y70.655 E.00952
G1 X51.965 Y70.351 E.01427
G1 X51.916 Y70.15 E.00893
G1 X51.874 Y69.764 E.01673
G1 X58.589 Y69.764 E.28959
G1 X58.589 Y48.547 E.91499
G1 X62.286 Y48.545 E.15942
G1 X61.969 Y49.067 E.02633
G1 X61.697 Y49.731 E.03097
G1 X61.575 Y50.238 E.02249
G1 X61.521 Y50.646 E.01773
G1 X61.524 Y51.348 E.03029
G1 X61.605 Y51.863 E.02249
G1 X61.71 Y52.257 E.01759
G1 X61.977 Y52.9 E.03001
G1 X62.35 Y53.487 E.03001
G1 X62.614 Y53.801 E.01767
G1 X62.624 Y53.81 E.00059
G1 X63.005 Y53.4 F30000
G1 F6000
G1 X63.021 Y53.42 E.0011
G1 X63.362 Y53.746 E.02036
G1 X63.854 Y54.091 E.02592
G1 X64.159 Y54.249 E.01479
G1 X64.6 Y54.421 E.02044
G1 X65.218 Y54.555 E.02726
G1 X65.667 Y54.583 E.01939
G1 X66.008 Y54.568 E.01474
G1 X66.591 Y54.466 E.02552
G1 X66.918 Y54.362 E.01479
G1 X67.335 Y54.179 E.01964
G1 X67.641 Y54 E.01531
G1 X68.003 Y53.733 E.01938
G1 X68.658 Y53.078 E.03996
G1 X68.664 Y63.67 E.45676
G1 X68.232 Y63.179 E.02818
G1 X67.98 Y62.949 E.01474
G1 X67.496 Y62.609 E.02552
G1 X67.191 Y62.451 E.01479
G1 X66.751 Y62.28 E.02036
G1 X66.165 Y62.15 E.02592
G1 X65.823 Y62.12 E.01479
G1 X65.351 Y62.13 E.02036
G1 X64.759 Y62.234 E.02592
G1 X64.432 Y62.338 E.01479
G1 X64 Y62.528 E.02036
G1 X63.493 Y62.851 E.02592
G1 X63.23 Y63.071 E.01479
G1 X62.903 Y63.413 E.02044
G1 X62.542 Y63.933 E.02726
G1 X62.345 Y64.337 E.01939
G1 X62.228 Y64.658 E.01474
G1 X62.098 Y65.245 E.02592
G1 X62.067 Y65.716 E.02036
G1 X62.082 Y66.058 E.01479
G1 X62.186 Y66.65 E.02592
G1 X62.338 Y67.097 E.02036
G1 X62.483 Y67.408 E.01479
G1 X62.801 Y67.907 E.02552
G1 X63.021 Y68.17 E.01479
G1 X63.355 Y68.49 E.01995
G1 X63.749 Y68.778 E.02104
G1 X63.551 Y69.202 E.02017
G1 X63.447 Y69.592 E.0174
G1 X63.416 Y70.064 E.02043
G1 X63.469 Y70.474 E.0178
G1 X63.622 Y70.922 E.02043
G1 X63.828 Y71.28 E.01781
G1 X64.147 Y71.643 E.02083
G1 X64.34 Y71.785 E.01035
G1 X64.265 Y72.015 E.01045
G1 X53.382 Y72.015 E.46934
G1 X52.921 Y71.943 E.02011
G1 X52.656 Y71.853 E.01208
G1 X52.404 Y71.729 E.01208
G1 X52.172 Y71.574 E.01208
G1 X51.961 Y71.389 E.01208
G1 X51.776 Y71.178 E.01208
G1 X51.538 Y70.788 E.01971
G1 X51.433 Y70.519 E.01247
G1 X51.366 Y70.247 E.01208
G1 X51.335 Y69.959 E.01249
G1 X51.335 Y69.207 E.03243
G1 X58.032 Y69.207 E.28882
G1 X58.032 Y47.99 E.91497
G1 X63.577 Y47.987 E.23912
G1 X62.923 Y48.641 E.0399
G1 X62.714 Y48.913 E.01479
G1 X62.468 Y49.318 E.02044
G1 X62.229 Y49.903 E.02726
G1 X62.123 Y50.34 E.01939
G1 X62.078 Y50.681 E.01482
G1 X62.081 Y51.304 E.02685
G1 X62.15 Y51.748 E.01939
G1 X62.239 Y52.078 E.01474
G1 X62.473 Y52.642 E.02633
G1 X62.801 Y53.157 E.02633
G1 X62.979 Y53.369 E.01196
G1 E-.35 F1800
;WIPE_START
G1 F6000
G1 X63.021 Y53.42 E-.00934
G1 X63.362 Y53.746 E-.06727
G1 X63.741 Y54.011 E-.06589
;WIPE_END
G1 E-.0075 F1800
G17
G3 Z.3 I-.285 J-.107 P1  F30000
G1 X58.011 Y69.186 Z.3
G1 X53.981 Y69.186
G1 X51.875 Y68.65
G1 Z.2
G1 E.5 F1800
;TYPE:Outer wall
G1 F6000
G1 X51.875 Y48.05 E.88838
G1 X57.475 Y48.05 E.2415
G1 X57.475 Y68.65 E.88838
G1 X51.915 Y68.65 E.23978
G1 E-.5 F1800
G17
G3 Z.3 I.304 J.002 P1  F30000
G1 X52.025 Y47.848 Z.3
G1 Z.2
G1 E.5 F1800
G1 F6000
G1 X52.334 Y47.679 E.01523
G1 X52.664 Y47.55 E.01528
G1 X52.888 Y47.49 E.00997
G1 X53.237 Y47.436 E.01523
G1 X66.634 Y47.428 E.57777
M73 P1 R9
G1 X67.109 Y47.49 E.02066
G1 X67.558 Y47.632 E.02028
G1 X67.975 Y47.849 E.02029
G1 X68.348 Y48.135 E.02029
G1 X68.671 Y48.487 E.02057
G1 X68.8 Y48.672 E.00973
G1 X68.969 Y48.979 E.01514
G1 X69.132 Y49.427 E.02052
G1 X69.214 Y49.89 E.02029
G1 X69.225 Y69.865 E.86144
G1 X69.201 Y70.227 E.01565
G1 X69.132 Y70.574 E.01523
G1 X69.019 Y70.908 E.01523
G1 X68.863 Y71.225 E.01523
G1 X68.667 Y71.518 E.01523
G1 X68.434 Y71.784 E.01523
G1 X68.168 Y72.017 E.01523
G1 X67.875 Y72.213 E.01523
G1 X67.558 Y72.369 E.01523
G1 X67.224 Y72.482 E.01523
G1 X66.874 Y72.552 E.01537
G1 X66.643 Y72.572 E.01002
G1 X53.357 Y72.572 E.57294
G1 X53.126 Y72.552 E.01002
G1 X52.776 Y72.482 E.01537
G1 X52.442 Y72.369 E.01523
G1 X52.125 Y72.213 E.01523
G1 X51.832 Y72.017 E.01523
G1 X51.566 Y71.784 E.01523
G1 X51.333 Y71.518 E.01523
G1 X51.137 Y71.224 E.01528
G1 X51.03 Y71.019 E.00997
G1 X50.901 Y70.687 E.01537
G1 X50.817 Y70.344 E.01523
G1 X50.778 Y69.989 E.01537
G1 X50.775 Y50.135 E.85624
G1 X50.799 Y49.773 E.01565
G1 X50.868 Y49.426 E.01523
G1 X50.981 Y49.092 E.01523
G1 X51.137 Y48.775 E.01523
G1 X51.334 Y48.481 E.01528
G1 X51.483 Y48.304 E.00997
G1 X51.74 Y48.057 E.01537
G1 X51.992 Y47.872 E.0135
G1 X51.499 Y48.735 F30000
;TYPE:Gap infill
;WIDTH:0.461863
G1 F6000
G1 X51.431 Y49.147 E.01355
;WIDTH:0.509599
G1 X51.363 Y49.559 E.01509
;WIDTH:0.537584
G1 X51.349 Y49.701 E.00547
;WIDTH:0.56557
G1 X51.335 Y49.843 E.00578
;WIDTH:0.583221
G1 X51.326 Y68.929 E.79827
G1 E-.5 F1800
G17
