; HEADER_BLOCK_START
; generated by OrcaSlicer 1.6.6 on 2023-11-20 at 22:12:25
; total layer number: 130
; HEADER_BLOCK_END

; THUMBNAIL_BLOCK_START
; THUMBNAIL_BLOCK_END

; external perimeters extrusion width = 0.72mm
; perimeters extrusion width = 0.72mm
; infill extrusion width = 0.72mm
; solid infill extrusion width = 0.72mm
; top infill extrusion width = 0.72mm
; support material extrusion width = 0.60mm
; first layer extrusion width = 0.90mm

; EXECUTABLE_BLOCK_START
EXCLUDE_OBJECT_DEFINE NAME=X_Carriage_MGN7H_Pins.stl_id_0_copy_0 CENTER=56.4534,54.4991 POLYGON=[[39.453,49.6212],[39.4531,46.221],[39.4536,41.2725],[39.4672,40.9453],[39.4788,40.8246],[39.5074,40.6201],[39.554,40.3824],[39.5741,40.2992],[39.6669,39.9849],[39.6782,39.9514],[39.7461,39.7719],[39.8499,39.537],[39.8675,39.5014],[40.0085,39.2407],[40.0669,39.1444],[40.1685,38.9911],[40.1852,38.967],[40.3265,38.7786],[40.3466,38.754],[40.4387,38.6442],[40.5417,38.5308],[40.6254,38.4441],[40.724,38.3491],[40.7528,38.3226],[40.9599,38.1453],[41.038,38.0847],[41.2183,37.956],[41.3258,37.8857],[41.3774,37.854],[41.4701,37.7995],[41.7184,37.6688],[41.7387,37.6592],[42.005,37.5446],[42.1181,37.5025],[42.1328,37.4972],[42.2852,37.4475],[42.5639,37.373],[54.2827,34.474],[58.6533,34.4744],[70.344,37.3755],[70.623,37.4501],[70.775,37.4997],[70.7974,37.5077],[70.8,37.5086],[70.9031,37.5472],[71.1752,37.6648],[71.179,37.6665],[71.1894,37.6714],[71.4379,37.8022],[71.5397,37.8623],[71.582,37.8884],[71.6897,37.9587],[71.8785,38.094],[71.9293,38.1334],[71.9478,38.1481],[72.1552,38.3254],[72.1917,38.3593],[72.2823,38.447],[72.3663,38.5336],[72.4761,38.6552],[72.5613,38.7569],[72.5811,38.7815],[72.7288,38.9788],[72.7394,38.994],[72.8408,39.1475],[72.8993,39.2436],[73.0403,39.5044],[73.0577,39.5401],[73.1617,39.775],[73.2294,39.9545],[73.2409,39.9879],[73.3336,40.3022],[73.3535,40.3856],[73.4002,40.6231],[73.4286,40.8278],[73.4404,40.9483],[73.4538,41.2757],[73.453,49.6243],[73.4341,50.0124],[73.4278,50.0722],[73.3776,50.3969],[68.9508,74.5242],[68.8529,74.5242],[68.7328,74.5242],[64.9508,74.5239],[47.9508,74.5224],[44.3327,74.522],[44.0487,74.522],[43.9754,74.522],[43.9508,74.522],[43.9507,74.5219],[39.5282,50.3938],[39.4781,50.0691],[39.4718,50.0093],[39.453,49.6212]]
M73 P0 R19
;TYPE:Custom
M104 S0
M140 S0

print_start EXTRUDER=280 BED=110

G92 E0.0
G90
G21
M83 ; use relative distances for extrusion
; Filament gcode
SET_PRESSURE_ADVANCE ADVANCE=0.015; Override pressure advance value
M106 S0
;LAYER_CHANGE
;Z:0.2
;HEIGHT:0.2
;BEFORE_LAYER_CHANGE
;0.2
G92 E0

G1 E-.5 F1800
;AFTER_LAYER_CHANGE
;0.2
SET_VELOCITY_LIMIT ACCEL=10000
SET_VELOCITY_LIMIT SQUARE_CORNER_VELOCITY=9
; printing object X_Carriage_MGN7H_Pins.stl id:0 copy 0
EXCLUDE_OBJECT_START NAME=X_Carriage_MGN7H_Pins.stl_id_0_copy_0
G1 X56.908 Y62.173 F30000
M73 P0 R18
G1 Z.2
G1 E.5 F1800
;TYPE:Outer wall
;WIDTH:0.9
G1 F6000
G1 X55.996 Y62.173 E.05861
G1 X56.048 Y61.953 E.01452
G1 X56.097 Y61.528 E.02751
G1 X56.097 Y61.117 E.02642
G1 X56.048 Y60.692 E.02753
G1 X55.996 Y60.473 E.01451
G1 X56.405 Y60.473 E.02626
G1 X56.908 Y60.473 E.03235
G1 X56.856 Y60.693 E.01452
G1 X56.807 Y61.117 E.02751
G1 X56.807 Y61.528 E.02642
G1 X56.856 Y61.953 E.02753
G1 X56.894 Y62.114 E.01065
G1 E-.5 F1800
G17
G3 Z.3 I-.293 J.081 P1  F30000
G1 X59.002 Y69.773 Z.3
G1 Z.2
G1 E.5 F1800
G1 F6000
G1 X53.901 Y69.773 E.32808
G1 X53.901 Y64.667 E.32842
G1 X53.641 Y64.774 E.0181
G1 X53.205 Y64.895 E.02915
G1 X52.757 Y64.961 E.02911
G1 X52.321 Y64.971 E.02802
G1 X51.87 Y64.927 E.02914
G1 X51.429 Y64.827 E.02912
G1 X51.019 Y64.68 E.02802
G1 X50.614 Y64.477 E.02913
G1 X50.237 Y64.225 E.02913
G1 X49.908 Y63.941 E.02802
G1 X49.603 Y63.606 E.02912
G1 X49.342 Y63.235 E.02918
G1 X49.129 Y62.835 E.02911
G1 X48.973 Y62.429 E.02802
G1 X48.862 Y61.989 E.02914
G1 X48.808 Y61.54 E.02912
G1 X48.808 Y61.104 E.02802
G1 X48.862 Y60.655 E.02912
G1 X48.973 Y60.215 E.02914
G1 X49.13 Y59.808 E.02809
G1 X49.352 Y59.395 E.03015
G1 X49.603 Y59.039 E.02803
G1 X49.896 Y58.716 E.02802
G1 X50.237 Y58.42 E.0291
G1 X50.614 Y58.167 E.02918
G1 X51.019 Y57.964 E.02913
G1 X51.429 Y57.818 E.02802
G1 X51.871 Y57.718 E.02912
G1 X52.322 Y57.674 E.02914
G1 X52.757 Y57.684 E.02802
G1 X53.205 Y57.75 E.02911
G1 X53.642 Y57.871 E.02918
G1 X53.902 Y57.979 E.01809
G1 X53.902 Y55.897 E.13394
G1 X53.902 Y52.872 E.19451
G1 X59.003 Y52.873 E.32805
G1 X59.003 Y57.979 E.32841
G1 X59.263 Y57.871 E.0181
G1 X59.699 Y57.75 E.02915
G1 X60.147 Y57.685 E.02911
G1 X60.583 Y57.674 E.02802
G1 X61.034 Y57.719 E.02914
G1 X61.475 Y57.818 E.02912
G1 X61.885 Y57.965 E.02802
G1 X62.29 Y58.168 E.02913
G1 X62.667 Y58.42 E.02913
G1 X62.996 Y58.705 E.02802
G1 X63.301 Y59.04 E.02911
G1 X63.562 Y59.411 E.02918
G1 X63.775 Y59.81 E.02911
G1 X63.931 Y60.217 E.02802
G1 X64.042 Y60.656 E.02914
G1 X64.097 Y61.106 E.02912
G1 X64.097 Y61.541 E.02802
G1 X64.042 Y61.991 E.02912
G1 X63.931 Y62.43 E.02914
G1 X63.774 Y62.838 E.02809
G1 X63.552 Y63.25 E.03015
G1 X63.301 Y63.607 E.02803
G1 X63.008 Y63.929 E.02802
G1 X62.667 Y64.226 E.0291
G1 X62.29 Y64.478 E.02918
G1 X61.885 Y64.681 E.02913
G1 X61.475 Y64.828 E.02802
G1 X61.033 Y64.928 E.02912
G1 X60.582 Y64.972 E.02914
G1 X60.147 Y64.961 E.02802
G1 X59.699 Y64.896 E.02911
G1 X59.262 Y64.775 E.02918
G1 X59.002 Y64.667 E.01808
G1 X59.002 Y69.713 E.32459
G1 E-.35 F1800
;WIPE_START
G1 F6000
G1 X58.002 Y69.725 E-.1425
;WIPE_END
G1 E-.0075 F1800
G17
G3 Z.3 I-.304 J0 P1  F30000
G1 X58.002 Y70.609 Z.3
G1 X59.837 Y70.609
G1 X63.364 Y62.649
G1 X63.502 Y62.294
G1 X63.598 Y61.908
G1 X63.647 Y61.514
G1 X63.745 Y58.219
G1 Z.2
G1 E.5 F1800
;TYPE:Inner wall
G1 F6000
G1 X63.187 Y57.737 E.0474
G1 X62.722 Y57.426 E.03594
G1 X62.223 Y57.176 E.03593
G1 X61.715 Y56.994 E.03471
G1 X61.171 Y56.871 E.03591
G1 X60.614 Y56.816 E.03596
G1 X59.86 Y56.835 E.04853
G1 X59.86 Y52.016 E.30995
G1 X53.046 Y52.015 E.4383
G1 X53.045 Y56.834 E.30995
G1 X52.291 Y56.816 E.04854
G1 X51.734 Y56.87 E.03596
G1 X51.19 Y56.993 E.03591
G1 X50.681 Y57.175 E.03471
G1 X50.182 Y57.425 E.03593
G1 X49.716 Y57.737 E.03607
G1 X49.16 Y58.22 E.0474
G1 X49.16 Y52.015 E.39911
G1 X45.643 Y52.015 E.22618
G1 X46.407 Y51.295 E.06751
G1 X46.724 Y50.884 E.03338
G1 X46.973 Y50.429 E.03333
G1 X47.118 Y50.026 E.02754
G1 X47.244 Y49.449 E.03801
G1 X47.26 Y48.912 E.03458
G1 X47.194 Y48.397 E.03337
G1 X47.052 Y47.912 E.03251
G1 X46.88 Y47.527 E.0271
G1 X46.602 Y47.084 E.03362
G1 X46.2 Y46.645 E.03828
G1 X45.868 Y46.371 E.0277
G1 X45.282 Y46.02 E.04397
G1 X45.69 Y45.741 E.03179
G1 X46.112 Y45.36 E.03656
G1 X46.435 Y44.947 E.03374
G1 X46.664 Y44.55 E.02946
G1 X46.86 Y44.064 E.03374
G1 X46.98 Y43.508 E.03655
G1 X47.014 Y43.048 E.0297
G1 X46.98 Y42.587 E.02969
G1 X46.861 Y42.032 E.03656
G1 X46.598 Y41.38 E.0452
G1 X50.1 Y41.38 E.22526
G1 X52.579 Y45.677 E.31909
G1 X60.326 Y45.68 E.49828
G1 X62.807 Y41.381 E.31922
G1 X66.315 Y41.382 E.22561
G1 X66.052 Y42.033 E.04519
G1 X65.933 Y42.589 E.03655
G1 X65.898 Y43.049 E.0297
G1 X65.933 Y43.51 E.0297
G1 X66.052 Y44.065 E.03655
G1 X66.248 Y44.552 E.03374
G1 X66.477 Y44.949 E.02947
G1 X66.793 Y45.353 E.03298
G1 X67.173 Y45.709 E.03352
G1 X67.627 Y46.02 E.03539
G1 X67.034 Y46.376 E.04448
G1 X66.642 Y46.704 E.0329
G1 X66.354 Y47.027 E.02781
G1 X66.026 Y47.526 E.03844
G1 X65.822 Y48.003 E.03336
G1 X65.711 Y48.409 E.02711
G1 X65.646 Y48.913 E.03268
G1 X65.661 Y49.432 E.03337
G1 X65.757 Y49.942 E.03338
G1 X65.932 Y50.429 E.03327
G1 X66.136 Y50.806 E.02759
G1 X66.485 Y51.284 E.03807
G1 X67.262 Y52.016 E.06865
G1 X63.745 Y52.016 E.22616
G1 X63.745 Y58.159 E.39508
G1 E-.35 F1800
;WIPE_START
G1 F6000
G1 X63.187 Y57.737 E-.09964
G1 X62.937 Y57.57 E-.04286
;WIPE_END
G1 E-.0075 F1800
G17
G3 Z.3 I.265 J-.149 P1  F30000
G1 X59.839 Y52.037 Z.3
G1 X43.837 Y51.517
G1 Z.2
G1 E.5 F1800
;TYPE:Outer wall
G1 F6000
G1 X43.777 Y51.517 E.00389
G1 X43.328 Y51.438 E.02932
G1 X43.037 Y51.346 E.01966
G1 X42.693 Y51.175 E.02467
G1 X42.38 Y50.952 E.0247
G1 X42.106 Y50.683 E.0247
G1 X41.877 Y50.375 E.0247
G1 X41.702 Y50.039 E.02439
G1 X41.599 Y49.753 E.0195
G1 X41.522 Y49.382 E.02443
G1 X41.503 Y48.992 E.0251
G1 X41.564 Y48.54 E.02934
G1 X41.645 Y48.245 E.01967
G1 X41.802 Y47.895 E.02466
G1 X42.013 Y47.574 E.0247
G1 X42.271 Y47.289 E.0247
G1 X42.567 Y47.051 E.02446
G1 X42.828 Y46.896 E.0195
G1 X43.181 Y46.746 E.02467
G1 X43.627 Y46.644 E.02947
G1 X43.933 Y46.621 E.01975
G1 X44.314 Y46.647 E.02453
G1 X44.688 Y46.733 E.0247
G1 X45.044 Y46.877 E.0247
G1 X45.372 Y47.073 E.02459
G1 X45.609 Y47.268 E.01971
G1 X45.918 Y47.606 E.0294
G1 X46.122 Y47.932 E.02478
G1 X46.246 Y48.209 E.0195
G1 X46.353 Y48.573 E.0244
G1 X46.401 Y48.954 E.0247
G1 X46.39 Y49.344 E.02512
G1 X46.293 Y49.789 E.0293
G1 X46.189 Y50.077 E.01966
G1 X46.005 Y50.413 E.02468
G1 X45.77 Y50.717 E.0247
G1 X45.491 Y50.981 E.0247
G1 X45.177 Y51.195 E.02444
G1 X44.905 Y51.329 E.0195
G1 X44.546 Y51.45 E.02438
G1 X44.167 Y51.514 E.02469
G1 X43.897 Y51.516 E.01736
G1 E-.35 F1800
;WIPE_START
G1 F6000
G1 X43.777 Y51.517 E-.01716
G1 X43.328 Y51.438 E-.06497
G1 X43.037 Y51.346 E-.04356
G1 X42.931 Y51.293 E-.01681
;WIPE_END
G1 E-.0075 F1800
G17
G3 Z.3 I.263 J-.153 P1  F30000
G1 X42.26 Y50.135 Z.3
G1 X42.145 Y49.923
G1 X42.115 Y49.858
G1 X41.06 Y47.348
G1 Z.2
G1 E.5 F1800
;TYPE:Inner wall
G1 F6000
G1 X41.061 Y45.428 E.12351
G1 X41.898 Y46.001 E.06527
G1 X42.278 Y46.183 E.02712
G1 X41.681 Y46.664 E.04929
G1 X41.101 Y47.304 E.05556
G1 E-.35 F1800
;WIPE_START
G1 F6000
G1 X41.079 Y46.304 E-.1425
;WIPE_END
G1 E-.0075 F1800
G17
G3 Z.3 I-.056 J.299 P1  F30000
G1 X69.059 Y51.519 Z.3
G1 Z.2
G1 E.5 F1800
;TYPE:Outer wall
G1 F6000
G1 X68.739 Y51.516 E.02064
G1 X68.36 Y51.452 E.0247
G1 X68.001 Y51.332 E.02438
G1 X67.729 Y51.197 E.01951
G1 X67.415 Y50.983 E.02444
G1 X67.131 Y50.715 E.0251
G1 X66.862 Y50.347 E.02932
G1 X66.716 Y50.078 E.01968
G1 X66.587 Y49.717 E.02466
G1 X66.516 Y49.339 E.0247
G1 X66.505 Y48.955 E.0247
G1 X66.553 Y48.578 E.02446
G1 X66.633 Y48.286 E.01951
G1 X66.784 Y47.933 E.02469
G1 X67.036 Y47.55 E.02945
G1 X67.24 Y47.321 E.01975
G1 X67.533 Y47.076 E.02454
G1 X67.862 Y46.879 E.0247
G1 X68.218 Y46.735 E.0247
G1 X68.591 Y46.65 E.02459
G1 X68.897 Y46.626 E.01972
G1 X69.353 Y46.655 E.0294
G1 X69.726 Y46.749 E.02477
G1 X70.008 Y46.862 E.01951
G1 X70.337 Y47.051 E.02441
G1 X70.636 Y47.292 E.0247
G1 X70.898 Y47.581 E.02512
G1 X71.137 Y47.969 E.02929
G1 X71.261 Y48.248 E.01966
G1 X71.362 Y48.619 E.02469
G1 X71.403 Y49.001 E.0247
G1 X71.385 Y49.384 E.0247
G1 X71.307 Y49.756 E.02443
G1 X71.204 Y50.041 E.01951
G1 X71.029 Y50.378 E.02439
G1 X70.8 Y50.686 E.0247
G1 X70.521 Y50.959 E.02511
G1 X70.143 Y51.213 E.02931
G1 X69.868 Y51.349 E.01967
G1 X69.502 Y51.463 E.02468
G1 X69.123 Y51.52 E.0247
G1 X69.119 Y51.52 E.0002
G1 E-.35 F1800
;WIPE_START
G1 F6000
G1 X68.739 Y51.516 E-.05428
G1 X68.36 Y51.452 E-.05471
G1 X68.137 Y51.377 E-.0335
;WIPE_END
G1 E-.0075 F1800
G17
G3 Z.3 I.082 J.293 P1  F30000
G1 X69.401 Y51.024 Z.3
G1 X69.7 Y50.93
G1 X69.917 Y50.823
G1 X69.981 Y50.79
G1 X70.236 Y50.609
G1 X70.46 Y50.389
G1 X70.606 Y50.198
G1 X70.646 Y50.138
G1 X70.762 Y49.926
G1 X70.791 Y49.86
G1 X71.846 Y47.351
G1 Z.2
G1 E.5 F1800
;TYPE:Inner wall
G1 F6000
G1 X71.226 Y46.666 E.05938
G1 X70.632 Y46.188 E.04906
G1 X71.014 Y46.004 E.02733
G1 X71.396 Y45.744 E.0297
G1 X71.846 Y45.337 E.03903
G1 X71.846 Y47.291 E.12566
G1 E-.35 F1800
;WIPE_START
G1 F6000
G1 X71.226 Y46.666 E-.12535
G1 X71.132 Y46.591 E-.01715
;WIPE_END
G1 E-.0075 F1800
G17
G3 Z.3 I-.303 J-.022 P1  F30000
G1 X70.943 Y49.255 Z.3
G1 X70.937 Y49.327
G1 X70.891 Y49.564
G1 X70.873 Y49.633
G1 X70.791 Y49.86
G1 X69.264 Y53.323
G1 X64.451 Y52.722
G1 X63.767 Y53.966
G1 X63.743 Y73.217
G1 Z.2
G1 E.5 F1800
G1 F6000
G1 X49.158 Y73.215 E.93807
G1 X49.159 Y64.427 E.56526
G1 X49.717 Y64.908 E.0474
G1 X50.181 Y65.219 E.03594
G1 X50.681 Y65.47 E.03593
G1 X51.189 Y65.652 E.03471
G1 X51.733 Y65.775 E.03591
G1 X52.29 Y65.829 E.03596
G1 X53.044 Y65.811 E.04853
G1 X53.044 Y70.63 E.30996
G1 X59.859 Y70.631 E.43833
G1 X59.859 Y65.811 E.30996
G1 X60.613 Y65.83 E.04853
G1 X61.17 Y65.776 E.03596
G1 X61.714 Y65.653 E.03591
G1 X62.223 Y65.471 E.03472
G1 X62.722 Y65.22 E.03593
G1 X63.188 Y64.908 E.03607
G1 X63.744 Y64.426 E.04737
G1 X63.743 Y73.157 E.56156
G1 E-.5 F1800
G17
G3 Z.3 I-.222 J.208 P1  F30000
G1 X64.6 Y74.074 Z.3
G1 Z.2
G1 E.5 F1800
;TYPE:Outer wall
G1 F6000
G1 X48.301 Y74.072 E1.04832
G1 X48.303 Y52.872 E1.36358
G1 X43.465 Y52.871 E.31114
G1 X43.089 Y52.85 E.02425
G1 X42.73 Y52.789 E.02344
G1 X42.385 Y52.69 E.02309
G1 X41.95 Y52.497 E.0306
G1 X41.724 Y52.373 E.01658
G1 X41.427 Y52.162 E.02343
G1 X41.155 Y51.919 E.02344
G1 X40.913 Y51.647 E.02343
G1 X40.705 Y51.354 E.02309
G1 X40.485 Y50.933 E.0306
G1 X40.386 Y50.694 E.01658
G1 X40.285 Y50.344 E.02344
G1 X40.224 Y49.985 E.02343
G1 X40.203 Y49.609 E.02425
G1 X40.204 Y40.522 E.58444
G1 X43.282 Y40.522 E.19797
G1 X43.05 Y40.557 E.01505
G1 X42.679 Y40.669 E.02492
G1 X42.328 Y40.838 E.02506
G1 X42.007 Y41.058 E.02506
G1 X41.722 Y41.324 E.02505
G1 X41.484 Y41.629 E.02487
G1 X41.315 Y41.921 E.0217
G1 X41.169 Y42.283 E.02513
G1 X41.078 Y42.709 E.02804
G1 X41.052 Y43.047 E.02178
G1 X41.078 Y43.385 E.02178
G1 X41.169 Y43.811 E.02805
G1 X41.315 Y44.174 E.02513
G1 X41.484 Y44.466 E.0217
G1 X41.722 Y44.77 E.02487
G1 X42.006 Y45.037 E.02506
G1 X42.328 Y45.257 E.02506
G1 X42.679 Y45.425 E.02506
G1 X43.052 Y45.538 E.02505
G1 X43.435 Y45.592 E.02487
G1 X43.772 Y45.592 E.0217
G1 X44.159 Y45.538 E.02513
G1 X44.574 Y45.404 E.02804
G1 X44.879 Y45.257 E.02178
G1 X45.159 Y45.066 E.02178
G1 X45.482 Y44.774 E.02805
G1 X45.723 Y44.466 E.02513
G1 X45.892 Y44.174 E.0217
G1 X46.038 Y43.812 E.02513
G1 X46.13 Y43.385 E.02804
G1 X46.155 Y43.048 E.02178
G1 X46.13 Y42.71 E.02178
G1 X46.038 Y42.284 E.02805
G1 X45.892 Y41.921 E.02513
G1 X45.723 Y41.629 E.0217
G1 X45.485 Y41.325 E.02487
G1 X45.201 Y41.058 E.02505
G1 X44.879 Y40.838 E.02506
G1 X44.529 Y40.67 E.02498
G1 X44.205 Y40.57 E.02185
G1 X43.903 Y40.522 E.01968
G1 X50.595 Y40.523 E.43047
G1 X53.074 Y44.82 E.31909
G1 X59.832 Y44.823 E.4346
G1 X62.312 Y40.524 E.31922
G1 X68.985 Y40.525 E.42917
G1 X68.756 Y40.559 E.0149
G1 X68.385 Y40.671 E.02492
G1 X68.034 Y40.84 E.02506
G1 X67.712 Y41.06 E.02506
G1 X67.428 Y41.326 E.02506
G1 X67.19 Y41.631 E.02487
G1 X67.021 Y41.923 E.02171
G1 X66.875 Y42.285 E.02513
G1 X66.783 Y42.712 E.02804
G1 X66.758 Y43.049 E.02179
G1 X66.783 Y43.387 E.02178
G1 X66.875 Y43.813 E.02804
G1 X67.021 Y44.176 E.02513
G1 X67.189 Y44.468 E.02171
G1 X67.428 Y44.773 E.02487
G1 X67.712 Y45.039 E.02506
G1 X68.033 Y45.259 E.02506
G1 X68.385 Y45.428 E.02506
G1 X68.757 Y45.541 E.02506
G1 X69.14 Y45.595 E.02487
G1 X69.478 Y45.595 E.02171
G1 X69.865 Y45.54 E.02513
G1 X70.28 Y45.406 E.02804
G1 X70.585 Y45.259 E.02178
G1 X70.865 Y45.069 E.02179
G1 X71.188 Y44.776 E.02804
G1 X71.429 Y44.469 E.02513
G1 X71.598 Y44.176 E.02171
G1 X71.744 Y43.814 E.02513
G1 X71.835 Y43.388 E.02804
G1 X71.861 Y43.05 E.02179
G1 X71.835 Y42.712 E.02179
G1 X71.744 Y42.286 E.02804
G1 X71.598 Y41.923 E.02513
G1 X71.429 Y41.631 E.02171
G1 X71.191 Y41.327 E.02487
G1 X70.907 Y41.06 E.02506
G1 X70.585 Y40.84 E.02506
G1 X70.235 Y40.672 E.02498
G1 X69.91 Y40.572 E.02185
G1 X69.611 Y40.525 E.01952
G1 X72.704 Y40.525 E.19894
G1 X72.703 Y49.612 E.58442
G1 X72.682 Y49.988 E.02425
G1 X72.62 Y50.347 E.02343
G1 X72.52 Y50.697 E.02343
G1 X72.38 Y51.034 E.02343
G1 X72.204 Y51.353 E.02343
G1 X71.993 Y51.65 E.02343
G1 X71.75 Y51.922 E.02343
G1 X71.478 Y52.164 E.02343
G1 X71.181 Y52.375 E.02343
G1 X70.862 Y52.551 E.02343
G1 X70.526 Y52.691 E.02343
G1 X70.176 Y52.791 E.02343
G1 X69.816 Y52.853 E.02343
G1 X69.44 Y52.874 E.02425
G1 X64.602 Y52.873 E.31115
G1 X64.6 Y74.014 E1.35972
G1 E-.5 F1800
G17
G3 Z.3 I.3 J-.052 P1  F30000
G1 X63.487 Y67.536 Z.3
G1 Z.2
G1 E.5 F1800
;TYPE:Bottom surface
;WIDTH:0.936122
G1 F9000
G1 X62.135 Y66.185 E.12811
G1 X61.894 Y66.271 E.01717
G1 X61.272 Y66.411 E.04272
G1 X61.114 Y66.427 E.01064
G1 X63.101 Y68.414 E.18831
G1 X63.101 Y69.677 E.08466
G1 X60.502 Y67.077 E.24638
G1 X60.502 Y68.34 E.08466
G1 X63.101 Y70.94 E.24638
G1 X63.101 Y72.203 E.08466
G1 X60.502 Y69.604 E.24638
G1 X60.501 Y70.867 E.08466
