; HEADER_BLOCK_START
; generated by OrcaSlicer 1.6.6 on 2023-11-21 at 03:07:42
; total layer number: 130
; HEADER_BLOCK_END

; THUMBNAIL_BLOCK_START
; THUMBNAIL_BLOCK_END

; external perimeters extrusion width = 0.72mm
; perimeters extrusion width = 0.72mm
; infill extrusion width = 0.72mm
; solid infill extrusion width = 0.72mm
; top infill extrusion width = 0.72mm
; support material extrusion width = 0.60mm
; first layer extrusion width = 0.90mm

; external perimeters extrusion width = 0.72mm
; perimeters extrusion width = 0.72mm
; infill extrusion width = 0.72mm
; solid infill extrusion width = 0.72mm
; top infill extrusion width = 0.72mm
; support material extrusion width = 0.60mm
; first layer extrusion width = 0.90mm

; EXECUTABLE_BLOCK_START
EXCLUDE_OBJECT_DEFINE NAME=X_Carriage_MGN7H_Pins.stl_id_0_copy_0 CENTER=34.0612,60.1929 POLYGON=[[17.0608,55.315],[17.061,51.9148],[17.0614,46.9662],[17.0751,46.6391],[17.0866,46.5184],[17.1153,46.3138],[17.1618,46.0762],[17.182,45.993],[17.2747,45.6787],[17.286,45.6451],[17.3539,45.4657],[17.4577,45.2307],[17.4753,45.1952],[17.6164,44.9344],[17.6747,44.8382],[17.7764,44.6848],[17.793,44.6608],[17.9343,44.4723],[17.9544,44.4478],[18.0466,44.338],[18.1495,44.2245],[18.2333,44.1379],[18.3318,44.0429],[18.3606,44.0164],[18.5677,43.839],[18.6458,43.7785],[18.8261,43.6497],[18.9336,43.5795],[18.9853,43.5477],[19.078,43.4933],[19.3262,43.3626],[19.3466,43.353],[19.6129,43.2383],[19.7259,43.1962],[19.7406,43.1909],[19.893,43.1413],[20.1717,43.0668],[31.8905,40.1678],[36.2612,40.1682],[47.9519,43.0693],[48.2308,43.1438],[48.3829,43.1935],[48.4052,43.2015],[48.4079,43.2024],[48.5109,43.2409],[48.7831,43.3585],[48.7868,43.3602],[48.7973,43.3652],[49.0458,43.496],[49.1475,43.556],[49.1899,43.5822],[49.2976,43.6525],[49.4863,43.7878],[49.5371,43.8272],[49.5557,43.8418],[49.763,44.0192],[49.7996,44.053],[49.8901,44.1407],[49.9741,44.2274],[50.084,44.349],[50.1692,44.4506],[50.189,44.4752],[50.3366,44.6725],[50.3472,44.6877],[50.4486,44.8412],[50.5072,44.9374],[50.6482,45.1982],[50.6656,45.2339],[50.7695,45.4687],[50.8372,45.6483],[50.8487,45.6817],[50.9414,45.996],[50.9613,46.0793],[51.0081,46.3169],[51.0364,46.5216],[51.0482,46.6421],[51.0616,46.9695],[51.0609,55.3181],[51.0419,55.7062],[51.0357,55.7659],[50.9855,56.0906],[46.5586,80.218],[46.4607,80.218],[46.3406,80.218],[42.5586,80.2177],[25.5586,80.2161],[21.9406,80.2158],[21.6565,80.2157],[21.5832,80.2157],[21.5586,80.2157],[21.5586,80.2157],[17.1361,56.0876],[17.0859,55.7628],[17.0797,55.7031],[17.0608,55.315]]
EXCLUDE_OBJECT_DEFINE NAME=Pulley_Jig_V0.stl_id_1_copy_0 CENTER=93.3314,64.4672 POLYGON=[[70.8647,60.6174],[70.8738,60.5132],[70.9009,60.4122],[70.9451,60.3174],[75.85,51.6174],[75.9099,51.5317],[81.9598,45.479],[81.9839,45.4573],[82.0056,45.4401],[82.0543,45.4067],[82.0696,45.3973],[82.1055,45.3788],[82.1644,45.3531],[82.2652,45.3261],[82.2654,45.3261],[82.3696,45.3169],[104.265,45.3169],[104.316,45.3195],[104.369,45.3261],[104.369,45.3261],[104.47,45.3531],[104.565,45.3973],[104.629,45.4416],[104.65,45.4573],[104.674,45.4794],[110.724,51.5317],[110.784,51.6174],[110.828,51.7121],[115.762,69.4122],[115.789,69.5132],[115.798,69.6174],[115.798,75.0174],[115.796,75.0635],[115.791,75.1093],[115.789,75.1216],[115.782,75.1546],[115.77,75.1991],[115.762,75.2226],[115.754,75.2425],[115.735,75.2846],[115.718,75.3174],[110.988,82.8428],[110.908,82.9631],[110.817,83.0757],[110.717,83.1796],[110.607,83.2741],[110.49,83.3583],[110.365,83.4316],[110.235,83.4933],[110.099,83.543],[109.959,83.5803],[109.817,83.6048],[109.751,83.6118],[109.684,83.616],[109.617,83.6174],[98.8171,83.6174],[98.7502,83.616],[98.6836,83.6118],[98.6171,83.6048],[98.4747,83.5803],[98.335,83.543],[98.1994,83.4933],[98.0688,83.4316],[97.9442,83.3583],[71.1647,66.537],[71.079,66.477],[71.0051,66.403],[70.9451,66.3174],[70.9009,66.2226],[70.8738,66.1216],[70.8647,66.0174],[70.8647,60.6174]]
M73 P0 R24
;TYPE:Custom
M104 S0
M140 S0

print_start EXTRUDER=280 BED=110

G92 E0.0
G90
G21
M83 ; use relative distances for extrusion
; Filament gcode
SET_PRESSURE_ADVANCE ADVANCE=0.015; Override pressure advance value
M106 S0
;LAYER_CHANGE
;Z:0.2
;HEIGHT:0.2
;BEFORE_LAYER_CHANGE
;0.2
G92 E0

G1 E-.5 F1800
;AFTER_LAYER_CHANGE
;0.2
SET_VELOCITY_LIMIT ACCEL=10000
SET_VELOCITY_LIMIT SQUARE_CORNER_VELOCITY=9
; printing object X_Carriage_MGN7H_Pins.stl id:0 copy 0
EXCLUDE_OBJECT_START NAME=X_Carriage_MGN7H_Pins.stl_id_0_copy_0
G1 X34.515 Y67.867 F30000
G1 Z.2
G1 E.5 F1800
;TYPE:Outer wall
;WIDTH:0.9
G1 F6000
G1 X33.604 Y67.867 E.06046
G1 X33.656 Y67.647 E.01498
G1 X33.705 Y67.222 E.02837
G1 X33.705 Y66.811 E.02725
G1 X33.656 Y66.386 E.02839
G1 X33.604 Y66.167 E.01496
G1 X34.012 Y66.167 E.02709
G1 X34.515 Y66.167 E.03337
G1 X34.464 Y66.386 E.01498
G1 X34.415 Y66.811 E.02837
G1 X34.415 Y67.222 E.02725
G1 X34.463 Y67.647 E.02839
G1 X34.502 Y67.808 E.01098
G1 E-.5 F1800
G17
G3 Z.3 I-.293 J.081 P1  F30000
G1 X36.61 Y75.467 Z.3
G1 Z.2
G1 E.5 F1800
G1 F6000
G1 X31.509 Y75.467 E.33844
G1 X31.509 Y70.361 E.33879
G1 X31.249 Y70.468 E.01867
G1 X30.812 Y70.589 E.03007
G1 X30.365 Y70.654 E.03003
G1 X29.929 Y70.665 E.02891
G1 X29.478 Y70.621 E.03006
G1 X29.037 Y70.521 E.03004
G1 X28.626 Y70.374 E.0289
G1 X28.222 Y70.171 E.03005
G1 X27.845 Y69.919 E.03005
G1 X27.515 Y69.634 E.0289
G1 X27.211 Y69.3 E.03003
G1 X26.95 Y68.929 E.0301
G1 X26.737 Y68.529 E.03003
G1 X26.58 Y68.123 E.02891
G1 X26.47 Y67.683 E.03006
G1 X26.415 Y67.234 E.03004
G1 X26.415 Y66.798 E.0289
G1 X26.47 Y66.349 E.03004
G1 X26.581 Y65.909 E.03006
G1 X26.738 Y65.502 E.02898
G1 X26.96 Y65.089 E.03111
G1 X27.211 Y64.733 E.02891
G1 X27.504 Y64.41 E.0289
G1 X27.845 Y64.113 E.03002
G1 X28.222 Y63.861 E.0301
G1 X28.627 Y63.658 E.03005
G1 X29.037 Y63.511 E.02891
G1 X29.479 Y63.412 E.03004
G1 X29.93 Y63.367 E.03006
G1 X30.365 Y63.378 E.0289
G1 X30.813 Y63.444 E.03003
G1 X31.25 Y63.565 E.0301
G1 X31.51 Y63.673 E.01866
G1 X31.51 Y61.59 E.13816
G1 X31.51 Y58.566 E.20065
G1 X36.611 Y58.567 E.33841
G1 X36.61 Y63.673 E.33878
G1 X36.87 Y63.565 E.01867
G1 X37.307 Y63.444 E.03007
G1 X37.755 Y63.379 E.03003
G1 X38.191 Y63.368 E.02891
G1 X38.641 Y63.412 E.03006
G1 X39.083 Y63.512 E.03004
G1 X39.493 Y63.659 E.02891
G1 X39.898 Y63.862 E.03005
G1 X40.274 Y64.114 E.03005
G1 X40.604 Y64.399 E.02891
G1 X40.909 Y64.733 E.03003
G1 X41.17 Y65.104 E.0301
G1 X41.383 Y65.504 E.03003
G1 X41.539 Y65.911 E.02891
G1 X41.65 Y66.35 E.03006
G1 X41.704 Y66.799 E.03004
G1 X41.704 Y67.235 E.02891
G1 X41.65 Y67.685 E.03004
G1 X41.539 Y68.124 E.03006
G1 X41.382 Y68.531 E.02898
G1 X41.16 Y68.944 E.0311
G1 X40.909 Y69.3 E.02892
G1 X40.616 Y69.623 E.0289
G1 X40.274 Y69.92 E.03002
G1 X39.897 Y70.172 E.0301
G1 X39.493 Y70.375 E.03005
G1 X39.082 Y70.522 E.02891
G1 X38.641 Y70.622 E.03004
G1 X38.19 Y70.666 E.03006
G1 X37.754 Y70.655 E.02891
G1 X37.307 Y70.59 E.03003
G1 X36.869 Y70.469 E.0301
G1 X36.61 Y70.361 E.01865
G1 X36.61 Y75.407 E.33484
G1 E-.35 F1800
;WIPE_START
G1 F6000
G1 X35.61 Y75.419 E-.1425
;WIPE_END
G1 E-.0075 F1800
G17
G3 Z.3 I-.304 J0 P1  F30000
G1 X35.609 Y76.303 Z.3
G1 X37.445 Y76.303
G1 X40.972 Y68.343
G1 X41.109 Y67.988
G1 X41.206 Y67.602
G1 X41.254 Y67.208
G1 X41.353 Y63.912
G1 Z.2
G1 E.5 F1800
;TYPE:Inner wall
G1 F6000
G1 X40.795 Y63.431 E.0489
G1 X40.33 Y63.12 E.03707
G1 X39.831 Y62.87 E.03706
G1 X39.323 Y62.688 E.03581
G1 X38.778 Y62.565 E.03704
G1 X38.222 Y62.51 E.03709
G1 X37.468 Y62.529 E.05007
G1 X37.468 Y57.71 E.31974
G1 X30.653 Y57.709 E.45215
G1 X30.653 Y62.528 E.31974
G1 X29.898 Y62.509 E.05007
G1 X29.342 Y62.564 E.03709
G1 X28.798 Y62.687 E.03704
G1 X28.289 Y62.869 E.03581
G1 X27.79 Y63.119 E.03706
G1 X27.324 Y63.431 E.03721
G1 X26.767 Y63.914 E.04889
G1 X26.768 Y57.709 E.41172
G1 X23.251 Y57.708 E.23332
G1 X24.015 Y56.988 E.06964
G1 X24.332 Y56.578 E.03443
G1 X24.581 Y56.123 E.03438
G1 X24.726 Y55.72 E.02841
G1 X24.852 Y55.143 E.03921
G1 X24.868 Y54.605 E.03568
G1 X24.802 Y54.091 E.03443
G1 X24.66 Y53.606 E.03354
G1 X24.488 Y53.221 E.02795
G1 X24.21 Y52.778 E.03468
G1 X23.808 Y52.339 E.03949
G1 X23.476 Y52.065 E.02858
G1 X22.89 Y51.714 E.04536
G1 X23.298 Y51.435 E.03279
G1 X23.72 Y51.054 E.03771
G1 X24.043 Y50.641 E.03481
G1 X24.272 Y50.244 E.03039
G1 X24.468 Y49.757 E.03481
G1 X24.588 Y49.202 E.03771
G1 X24.622 Y48.741 E.03064
G1 X24.588 Y48.281 E.03063
G1 X24.468 Y47.725 E.03771
G1 X24.206 Y47.073 E.04663
G1 X27.708 Y47.074 E.23238
G1 X30.187 Y51.371 E.32916
G1 X37.934 Y51.374 E.51401
G1 X40.415 Y47.075 E.32931
G1 X43.923 Y47.075 E.23273
G1 X43.66 Y47.727 E.04662
G1 X43.541 Y48.283 E.0377
G1 X43.506 Y48.743 E.03064
G1 X43.541 Y49.204 E.03064
G1 X43.66 Y49.759 E.03771
G1 X43.856 Y50.246 E.03481
G1 X44.085 Y50.643 E.0304
G1 X44.401 Y51.046 E.03402
G1 X44.781 Y51.403 E.03458
G1 X45.235 Y51.714 E.03651
G1 X44.642 Y52.069 E.04588
G1 X44.25 Y52.398 E.03394
G1 X43.962 Y52.72 E.02869
G1 X43.633 Y53.22 E.03965
G1 X43.43 Y53.697 E.03441
G1 X43.318 Y54.103 E.02796
G1 X43.254 Y54.607 E.03371
G1 X43.269 Y55.126 E.03443
G1 X43.365 Y55.636 E.03443
G1 X43.539 Y56.123 E.03432
G1 X43.744 Y56.499 E.02846
G1 X44.093 Y56.978 E.03927
G1 X44.87 Y57.71 E.07082
G1 X41.353 Y57.71 E.2333
G1 X41.353 Y63.852 E.40755
G1 E-.35 F1800
;WIPE_START
G1 F6000
G1 X40.795 Y63.431 E-.09964
G1 X40.545 Y63.264 E-.04286
;WIPE_END
G1 E-.0075 F1800
G17
G3 Z.3 I.265 J-.149 P1  F30000
G1 X37.447 Y57.731 Z.3
G1 X21.445 Y57.211
G1 Z.2
G1 E.5 F1800
;TYPE:Outer wall
G1 F6000
G1 X21.385 Y57.211 E.00401
G1 X20.936 Y57.132 E.03025
G1 X20.644 Y57.039 E.02028
G1 X20.301 Y56.869 E.02545
G1 X19.988 Y56.646 E.02548
G1 X19.714 Y56.377 E.02548
G1 X19.485 Y56.069 E.02548
G1 X19.31 Y55.732 E.02516
G1 X19.207 Y55.447 E.02012
G1 X19.13 Y55.075 E.0252
G1 X19.11 Y54.686 E.02589
G1 X19.172 Y54.234 E.03026
G1 X19.253 Y53.939 E.02029
G1 X19.41 Y53.589 E.02543
G1 X19.62 Y53.268 E.02548
G1 X19.878 Y52.983 E.02548
G1 X20.175 Y52.745 E.02524
G1 X20.435 Y52.59 E.02012
G1 X20.788 Y52.44 E.02545
G1 X21.235 Y52.338 E.0304
G1 X21.541 Y52.315 E.02037
G1 X21.922 Y52.341 E.0253
G1 X22.296 Y52.427 E.02548
G1 X22.652 Y52.571 E.02548
G1 X22.98 Y52.767 E.02537
G1 X23.217 Y52.962 E.02033
G1 X23.525 Y53.299 E.03033
G1 X23.73 Y53.626 E.02556
G1 X23.854 Y53.902 E.02012
G1 X23.96 Y54.267 E.02517
G1 X24.009 Y54.647 E.02548
G1 X23.998 Y55.038 E.02591
G1 X23.9 Y55.483 E.03023
G1 X23.797 Y55.77 E.02028
G1 X23.613 Y56.107 E.02546
G1 X23.378 Y56.411 E.02548
G1 X23.099 Y56.674 E.02548
G1 X22.785 Y56.889 E.02521
G1 X22.513 Y57.023 E.02012
G1 X22.154 Y57.144 E.02515
G1 X21.775 Y57.207 E.02547
G1 X21.505 Y57.21 E.01791
G1 E-.35 F1800
;WIPE_START
G1 F6000
G1 X21.385 Y57.211 E-.01716
G1 X20.936 Y57.132 E-.06497
G1 X20.644 Y57.039 E-.04356
G1 X20.539 Y56.987 E-.01681
;WIPE_END
G1 E-.0075 F1800
G17
G3 Z.3 I.263 J-.153 P1  F30000
G1 X19.868 Y55.829 Z.3
G1 X19.752 Y55.617
G1 X19.723 Y55.552
G1 X18.668 Y53.042
G1 Z.2
G1 E.5 F1800
;TYPE:Inner wall
G1 F6000
G1 X18.668 Y51.122 E.12741
G1 X19.506 Y51.695 E.06733
G1 X19.886 Y51.877 E.02797
G1 X19.289 Y52.358 E.05085
G1 X18.709 Y52.998 E.05731
G1 E-.35 F1800
;WIPE_START
G1 F6000
G1 X18.687 Y51.998 E-.1425
;WIPE_END
G1 E-.0075 F1800
G17
G3 Z.3 I-.056 J.299 P1  F30000
G1 X46.667 Y57.213 Z.3
G1 Z.2
G1 E.5 F1800
;TYPE:Outer wall
G1 F6000
G1 X46.346 Y57.21 E.02129
G1 X45.968 Y57.146 E.02548
G1 X45.608 Y57.025 E.02515
G1 X45.336 Y56.891 E.02013
G1 X45.023 Y56.676 E.02521
G1 X44.739 Y56.409 E.02589
G1 X44.47 Y56.04 E.03025
G1 X44.324 Y55.772 E.0203
G1 X44.195 Y55.41 E.02544
G1 X44.124 Y55.033 E.02548
G1 X44.112 Y54.649 E.02548
G1 X44.161 Y54.272 E.02523
G1 X44.241 Y53.98 E.02013
G1 X44.392 Y53.626 E.02547
G1 X44.643 Y53.244 E.03038
G1 X44.848 Y53.015 E.02038
G1 X45.14 Y52.77 E.02531
G1 X45.47 Y52.572 E.02548
G1 X45.826 Y52.429 E.02548
G1 X46.199 Y52.343 E.02536
G1 X46.504 Y52.32 E.02035
G1 X46.961 Y52.349 E.03033
G1 X47.334 Y52.443 E.02555
G1 X47.616 Y52.556 E.02013
G1 X47.945 Y52.745 E.02518
G1 X48.244 Y52.986 E.02548
G1 X48.506 Y53.275 E.02591
G1 X48.744 Y53.663 E.03022
G1 X48.869 Y53.942 E.02028
G1 X48.97 Y54.313 E.02547
G1 X49.011 Y54.694 E.02548
G1 X48.992 Y55.078 E.02548
G1 X48.915 Y55.45 E.0252
G1 X48.812 Y55.735 E.02013
G1 X48.637 Y56.071 E.02516
G1 X48.408 Y56.38 E.02548
G1 X48.129 Y56.653 E.0259
G1 X47.75 Y56.907 E.03023
G1 X47.476 Y57.042 E.02029
G1 X47.11 Y57.157 E.02546
G1 X46.73 Y57.214 E.02548
G1 X46.727 Y57.214 E.0002
G1 E-.35 F1800
;WIPE_START
G1 F6000
G1 X46.346 Y57.21 E-.05428
G1 X45.968 Y57.146 E-.05471
G1 X45.745 Y57.071 E-.0335
;WIPE_END
G1 E-.0075 F1800
G17
G3 Z.3 I.082 J.293 P1  F30000
G1 X47.009 Y56.717 Z.3
G1 X47.308 Y56.624
G1 X47.524 Y56.516
G1 X47.589 Y56.484
G1 X47.844 Y56.303
G1 X48.068 Y56.083
G1 X48.214 Y55.891
G1 X48.254 Y55.832
G1 X48.369 Y55.62
G1 X48.399 Y55.554
G1 X49.454 Y53.044
G1 Z.2
G1 E.5 F1800
;TYPE:Inner wall
G1 F6000
G1 X48.834 Y52.36 E.06125
G1 X48.239 Y51.882 E.05061
G1 X48.622 Y51.698 E.02819
G1 X49.004 Y51.438 E.03064
G1 X49.454 Y51.03 E.04026
G1 X49.454 Y52.984 E.12963
G1 E-.35 F1800
;WIPE_START
G1 F6000
G1 X48.834 Y52.36 E-.12535
G1 X48.74 Y52.285 E-.01715
;WIPE_END
G1 E-.0075 F1800
G17
G3 Z.3 I-.303 J-.022 P1  F30000
G1 X48.551 Y54.949 Z.3
G1 X48.545 Y55.021
G1 X48.499 Y55.257
G1 X48.481 Y55.327
G1 X48.399 Y55.554
G1 X46.872 Y59.017
G1 X42.059 Y58.416
G1 X41.374 Y59.66
G1 X41.351 Y78.91
G1 Z.2
G1 E.5 F1800
G1 F6000
G1 X26.766 Y78.909 E.9677
G1 X26.767 Y70.121 E.58311
G1 X27.325 Y70.602 E.0489
G1 X27.789 Y70.913 E.03707
G1 X28.289 Y71.163 E.03706
G1 X28.797 Y71.345 E.03581
G1 X29.341 Y71.469 E.03704
G1 X29.898 Y71.523 E.0371
G1 X30.652 Y71.505 E.05006
G1 X30.651 Y76.324 E.31975
G1 X37.467 Y76.324 E.45217
G1 X37.467 Y71.505 E.31975
G1 X38.221 Y71.524 E.05006
G1 X38.778 Y71.469 E.0371
G1 X39.322 Y71.346 E.03704
G1 X39.83 Y71.165 E.03581
G1 X40.33 Y70.914 E.03706
G1 X40.796 Y70.602 E.03721
G1 X41.352 Y70.12 E.04887
G1 X41.351 Y78.85 E.57929
G1 E-.5 F1800
G17
G3 Z.3 I-.222 J.208 P1  F30000
G1 X42.208 Y79.768 Z.3
G1 Z.2
G1 E.5 F1800
;TYPE:Outer wall
G1 F6000
G1 X25.909 Y79.766 E1.08143
G1 X25.911 Y58.566 E1.40664
G1 X21.073 Y58.565 E.32097
G1 X20.697 Y58.544 E.02501
G1 X20.338 Y58.483 E.02418
G1 X19.993 Y58.384 E.02382
G1 X19.558 Y58.191 E.03157
G1 X19.332 Y58.066 E.0171
G1 X19.035 Y57.856 E.02417
G1 X18.763 Y57.613 E.02418
G1 X18.52 Y57.341 E.02417
G1 X18.313 Y57.048 E.02382
G1 X18.093 Y56.626 E.03157
G1 X17.994 Y56.388 E.0171
G1 X17.893 Y56.038 E.02418
G1 X17.832 Y55.679 E.02417
G1 X17.811 Y55.302 E.02501
G1 X17.812 Y46.216 E.60289
G1 X20.89 Y46.216 E.20422
G1 X20.658 Y46.251 E.01553
G1 X20.287 Y46.363 E.02571
G1 X19.936 Y46.531 E.02585
G1 X19.614 Y46.751 E.02585
G1 X19.33 Y47.018 E.02585
G1 X19.092 Y47.322 E.02565
G1 X18.923 Y47.615 E.02239
G1 X18.777 Y47.977 E.02592
G1 X18.685 Y48.403 E.02893
G1 X18.66 Y48.741 E.02247
G1 X18.685 Y49.079 E.02247
G1 X18.777 Y49.505 E.02893
G1 X18.923 Y49.867 E.02592
G1 X19.092 Y50.16 E.02239
G1 X19.33 Y50.464 E.02565
G1 X19.614 Y50.731 E.02585
G1 X19.936 Y50.951 E.02585
G1 X20.287 Y51.119 E.02585
G1 X20.66 Y51.232 E.02585
G1 X21.043 Y51.286 E.02565
G1 X21.38 Y51.286 E.02239
G1 X21.767 Y51.231 E.02592
G1 X22.182 Y51.098 E.02893
G1 X22.487 Y50.951 E.02247
G1 X22.767 Y50.76 E.02247
G1 X23.09 Y50.468 E.02893
G1 X23.331 Y50.16 E.02592
G1 X23.5 Y49.868 E.02239
G1 X23.646 Y49.505 E.02592
G1 X23.737 Y49.079 E.02893
G1 X23.763 Y48.741 E.02247
G1 X23.738 Y48.404 E.02247
G1 X23.646 Y47.977 E.02893
G1 X23.5 Y47.615 E.02592
G1 X23.331 Y47.323 E.02239
G1 X23.093 Y47.018 E.02565
G1 X22.809 Y46.752 E.02585
G1 X22.487 Y46.532 E.02585
G1 X22.137 Y46.364 E.02577
G1 X21.813 Y46.264 E.02254
G1 X21.51 Y46.216 E.0203
G1 X28.203 Y46.217 E.44406
G1 X30.682 Y50.514 E.32917
G1 X37.439 Y50.516 E.44833
G1 X39.92 Y46.218 E.3293
G1 X46.593 Y46.219 E.44272
G1 X46.364 Y46.253 E.01537
G1 X45.993 Y46.365 E.02571
G1 X45.642 Y46.534 E.02585
G1 X45.32 Y46.754 E.02585
G1 X45.036 Y47.02 E.02585
G1 X44.797 Y47.325 E.02565
G1 X44.629 Y47.617 E.02239
G1 X44.483 Y47.979 E.02592
G1 X44.391 Y48.405 E.02892
G1 X44.366 Y48.743 E.02248
G1 X44.391 Y49.081 E.02247
G1 X44.482 Y49.507 E.02893
G1 X44.628 Y49.87 E.02593
G1 X44.797 Y50.162 E.02239
