; HEADER_BLOCK_START
; generated by OrcaSlicer 1.6.6 on 2023-12-06 at 17:19:23
; total layer number: 120
; HEADER_BLOCK_END

; THUMBNAIL_BLOCK_START
; THUMBNAIL_BLOCK_END

; external perimeters extrusion width = 0.48mm
; perimeters extrusion width = 0.48mm
; infill extrusion width = 0.48mm
; solid infill extrusion width = 0.48mm
; top infill extrusion width = 0.48mm
; support material extrusion width = 0.40mm
; first layer extrusion width = 0.60mm

; external perimeters extrusion width = 0.48mm
; perimeters extrusion width = 0.48mm
; infill extrusion width = 0.48mm
; solid infill extrusion width = 0.48mm
; top infill extrusion width = 0.48mm
; support material extrusion width = 0.40mm
; first layer extrusion width = 0.60mm

; EXECUTABLE_BLOCK_START
EXCLUDE_OBJECT_DEFINE NAME=XY_Joint_Left_Bottom_x1.stl_id_0_copy_0 CENTER=35.3589,65.5897 POLYGON=[[16.8599,52.1199],[18.7599,50.2199],[50.8583,50.2199],[52.7243,52.0859],[52.7275,52.0931],[53.855,54.9119],[53.8578,54.9198],[53.8578,60.4908],[53.8549,60.4993],[52.7519,63.3212],[52.7486,63.3287],[42.3599,80.5594],[41.9599,80.9594],[33.1999,80.9594],[28.9499,79.8207],[19.4189,74.3179],[16.8599,71.7589],[16.8599,52.1199]]
EXCLUDE_OBJECT_DEFINE NAME=XY_Joint_Right_Bottom_x1.stl_id_1_copy_0 CENTER=80.3494,67.8646 POLYGON=[[61.8504,57.1984],[61.8533,57.1906],[62.9808,54.3717],[62.984,54.3645],[64.85,52.4986],[73.3484,52.4986],[96.8483,52.4986],[97.8484,53.4986],[98.8484,54.4986],[98.8484,74.03],[96.2893,76.5891],[86.7584,82.0918],[82.5084,83.2306],[73.7484,83.2306],[73.3484,82.8306],[62.9597,65.6074],[62.9564,65.5998],[61.8534,62.778],[61.8504,62.7694],[61.8504,57.1984]]
M73 P0 R27
;TYPE:Custom
M104 S0
M140 S0

print_start EXTRUDER=280 BED=110

G92 E0.0
G90
G21
M83 ; use relative distances for extrusion
; Filament gcode
SET_PRESSURE_ADVANCE ADVANCE=0.015; Override pressure advance value
M106 S0
;LAYER_CHANGE
;Z:0.2
;HEIGHT:0.2
;BEFORE_LAYER_CHANGE
;0.2
G92 E0

G1 E-.5 F1800
;AFTER_LAYER_CHANGE
;0.2
SET_VELOCITY_LIMIT ACCEL=10000
SET_VELOCITY_LIMIT SQUARE_CORNER_VELOCITY=9
; printing object XY_Joint_Left_Bottom_x1.stl id:0 copy 0
EXCLUDE_OBJECT_START NAME=XY_Joint_Left_Bottom_x1.stl_id_0_copy_0
G1 X24.221 Y73.453 F30000
G1 Z.2
G1 E.5 F1800
;TYPE:Outer wall
;WIDTH:0.6
G1 F6000
G1 X24.13 Y73.566 E.00625
G1 X23.832 Y73.838 E.0174
G1 X23.438 Y74.073 E.01978
G1 X23.004 Y74.219 E.01974
G1 X22.598 Y74.271 E.01769
G1 X22.141 Y74.237 E.01975
G1 X21.699 Y74.108 E.01983
G1 X21.297 Y73.89 E.01974
G1 X20.982 Y73.627 E.01769
G1 X20.696 Y73.27 E.0197
G1 X20.513 Y72.911 E.0174
G1 X20.42 Y72.634 E.01262
G1 X20.354 Y72.186 E.01952
G1 X20.376 Y71.776 E.01769
G1 X20.49 Y71.333 E.01975
G1 X20.695 Y70.921 E.01983
G1 X20.982 Y70.564 E.01975
G1 X21.297 Y70.301 E.01769
G1 X21.699 Y70.083 E.01974
G1 X22.139 Y69.954 E.01977
G1 X22.542 Y69.921 E.01741
G1 X22.834 Y69.941 E.01264
G1 X23.272 Y70.051 E.01948
G1 X23.643 Y70.226 E.01769
G1 X24.01 Y70.501 E.01976
G1 X24.311 Y70.847 E.01975
G1 X24.513 Y71.203 E.01769
G1 X24.656 Y71.638 E.01974
G1 X24.705 Y72.095 E.01983
G1 X24.656 Y72.551 E.01976
G1 X24.533 Y72.942 E.01769
G1 X24.314 Y73.338 E.0195
G1 X24.246 Y73.422 E.00466
G1 E-.35 F1800
;WIPE_START
G1 F6000
G1 X24.13 Y73.566 E-.02635
G1 X23.832 Y73.838 E-.0575
G1 X23.479 Y74.049 E-.05865
;WIPE_END
G1 E-.0075 F1800
G17
G3 Z.3 I.12 J.28 P1  F30000
G1 X24.096 Y73.784 Z.3
G1 X24.274 Y73.707
G1 X24.341 Y73.669
G1 X24.576 Y73.527
G1 X24.812 Y73.356
G1 X25.021 Y73.152
G1 X25.105 Y72.938
G1 X25.18 Y72.665
G1 X25.225 Y72.382
G1 X25.24 Y72.095
G1 X25.196 Y61.564
G1 X25.176 Y61.274
G1 X25.126 Y60.988
G1 X25.047 Y60.709
G1 X24.939 Y60.439
G1 X24.805 Y60.181
G1 X24.648 Y59.943
G1 X24.503 Y59.762
G1 X24.306 Y59.556
G1 X24.085 Y59.368
G1 X23.816 Y59.161
G1 Z.2
G1 E.5 F1800
;TYPE:Inner wall
G1 F6000
G1 X23.859 Y59.182 E.00204
G1 X24.319 Y59.535 E.02501
G1 X24.668 Y59.929 E.02271
G1 X24.962 Y60.428 E.02499
G1 X25.15 Y60.983 E.02524
G1 X25.221 Y61.564 E.02524
G1 X25.173 Y62.141 E.02499
G1 X25.03 Y62.648 E.02271
G1 X24.768 Y63.165 E.02501
G1 X24.403 Y63.623 E.02524
G1 X23.957 Y63.993 E.02501
G1 X23.494 Y64.245 E.02271
G1 X22.942 Y64.421 E.02499
G1 X22.36 Y64.481 E.02524
G1 X21.778 Y64.421 E.02524
G1 X21.226 Y64.245 E.02499
G1 X20.763 Y63.993 E.02271
G1 X20.317 Y63.623 E.02501
G1 X19.952 Y63.165 E.02524
G1 X19.69 Y62.648 E.02501
G1 X19.547 Y62.141 E.02271
G1 X19.499 Y61.564 E.02499
G1 X19.57 Y60.983 E.02524
G1 X19.758 Y60.428 E.02524
G1 X20.052 Y59.929 E.02499
G1 X20.401 Y59.535 E.02271
G1 X20.859 Y59.184 E.02487
G1 X21.314 Y58.96 E.02189
G1 X21.683 Y58.841 E.01671
G1 X22.243 Y58.761 E.02437
G1 X22.768 Y58.788 E.02271
G1 X23.331 Y58.928 E.02501
G1 X23.78 Y59.144 E.02148
G1 X23.74 Y59.793 F30000
;TYPE:Outer wall
G1 F6000
G1 X23.937 Y59.944 E.01072
G1 X24.215 Y60.258 E.01808
G1 X24.453 Y60.662 E.0202
G1 X24.604 Y61.107 E.02029
G1 X24.661 Y61.574 E.0203
G1 X24.622 Y62.041 E.0202
G1 X24.508 Y62.445 E.01808
G1 X24.297 Y62.863 E.02021
G1 X24.003 Y63.231 E.0203
G1 X23.642 Y63.53 E.02021
G1 X23.274 Y63.731 E.01808
G1 X22.828 Y63.873 E.0202
G1 X22.36 Y63.921 E.02029
G1 X21.892 Y63.873 E.02029
G1 X21.445 Y63.731 E.0202
G1 X21.077 Y63.53 E.01808
G1 X20.717 Y63.231 E.02021
G1 X20.423 Y62.863 E.0203
G1 X20.212 Y62.445 E.02021
G1 X20.098 Y62.041 E.01807
G1 X20.059 Y61.574 E.0202
G1 X20.116 Y61.107 E.0203
G1 X20.267 Y60.662 E.02029
G1 X20.505 Y60.258 E.0202
G1 X20.783 Y59.944 E.01808
G1 X21.154 Y59.659 E.02016
G1 X21.524 Y59.478 E.01779
G1 X21.809 Y59.385 E.01292
G1 X22.268 Y59.32 E.01999
G1 X22.686 Y59.342 E.01808
G1 X23.141 Y59.455 E.02021
G1 X23.565 Y59.659 E.02029
G1 X23.708 Y59.768 E.00777
G1 E-.5 F1800
G17
G3 Z.3 I-.244 J.182 P1  F30000
G1 X31.262 Y69.897 Z.3
G1 Z.2
G1 E.5 F1800
;TYPE:Inner wall
G1 F6000
G1 X31.56 Y69.675 E.01604
G1 X32.166 Y69.344 E.02977
G1 X32.898 Y69.111 E.03314
G1 X33.457 Y69.035 E.02431
G1 X34.155 Y69.04 E.0301
G1 X34.933 Y69.202 E.03429
G1 X35.616 Y69.49 E.03197
G1 X36.282 Y69.935 E.03455
G1 X36.853 Y70.517 E.03514
G1 X37.293 Y71.203 E.03514
G1 X37.579 Y71.951 E.03455
G1 X37.707 Y72.681 E.03197
G1 X37.692 Y73.484 E.03461
G1 X37.511 Y74.278 E.03514
G1 X37.176 Y75.008 E.03461
G1 X36.744 Y75.61 E.03197
G1 X36.162 Y76.16 E.03455
G1 X35.468 Y76.587 E.03514
G1 X34.711 Y76.859 E.03466
G1 X33.979 Y76.972 E.03197
G1 X33.179 Y76.941 E.0345
G1 X32.389 Y76.745 E.03514
G1 X31.654 Y76.391 E.03514
G1 X31.017 Y75.903 E.03461
G1 X30.526 Y75.347 E.03197
G1 X30.12 Y74.657 E.03455
G1 X29.861 Y73.894 E.03477
G1 X29.764 Y73.159 E.03197
G1 X29.81 Y72.363 E.03438
G1 X30.022 Y71.576 E.03514
G1 X30.386 Y70.855 E.03482
G1 X30.817 Y70.306 E.0301
G1 X31.188 Y69.952 E.02211
G1 X31.23 Y69.921 E.00224
G1 X31.597 Y70.342 F30000
G1 F6000
G1 X31.861 Y70.145 E.01421
G1 X32.386 Y69.859 E.02576
G1 X33.021 Y69.657 E.02876
G1 X33.492 Y69.592 E.02051
G1 X34.095 Y69.597 E.02599
G1 X34.767 Y69.737 E.02958
G1 X35.351 Y69.982 E.02734
G1 X35.925 Y70.366 E.02977
G1 X36.415 Y70.866 E.03019
G1 X36.793 Y71.455 E.03019
G1 X37.04 Y72.1 E.02977
G1 X37.149 Y72.724 E.02734
G1 X37.136 Y73.416 E.02981
G1 X36.98 Y74.098 E.03019
G1 X36.692 Y74.727 E.02981
G1 X36.323 Y75.242 E.02734
G1 X35.821 Y75.715 E.02977
G1 X35.225 Y76.082 E.03019
G1 X34.573 Y76.317 E.02985
G1 X33.947 Y76.413 E.02734
G1 X33.258 Y76.387 E.02973
G1 X32.579 Y76.218 E.03019
G1 X31.948 Y75.914 E.03019
G1 X31.399 Y75.494 E.02981
G1 X30.979 Y75.019 E.02734
G1 X30.629 Y74.424 E.02977
G1 X30.406 Y73.767 E.02993
G1 X30.324 Y73.138 E.02734
G1 X30.363 Y72.452 E.02965
G1 X30.545 Y71.776 E.03019
G1 X30.858 Y71.156 E.02996
G1 X31.231 Y70.682 E.02599
G1 X31.548 Y70.378 E.01894
G1 X31.565 Y70.366 E.00091
G1 X31.886 Y70.826 F30000
G1 F6000
G1 X31.908 Y70.805 E.00131
G1 X32.163 Y70.615 E.01369
G1 X32.606 Y70.373 E.02175
G1 X33.144 Y70.202 E.02437
G1 X33.528 Y70.15 E.01672
G1 X34.036 Y70.154 E.02189
G1 X34.6 Y70.271 E.02487
G1 X35.086 Y70.475 E.02271
G1 X35.567 Y70.797 E.02499
G1 X35.977 Y71.215 E.02524
G1 X36.293 Y71.708 E.02524
G1 X36.5 Y72.249 E.02499
G1 X36.591 Y72.768 E.02271
G1 X36.58 Y73.348 E.02501
G1 X36.45 Y73.918 E.02524
G1 X36.208 Y74.445 E.02501
G1 X35.901 Y74.873 E.02271
G1 X35.48 Y75.271 E.02499
G1 X34.982 Y75.578 E.02524
G1 X34.435 Y75.775 E.02504
G1 X33.915 Y75.854 E.02271
G1 X33.337 Y75.832 E.02496
G1 X32.769 Y75.691 E.02524
G1 X32.241 Y75.437 E.02524
G1 X31.781 Y75.084 E.02501
G1 X31.432 Y74.69 E.02271
G1 X31.138 Y74.191 E.02499
G1 X30.951 Y73.64 E.02508
G1 X30.883 Y73.118 E.02271
G1 X30.916 Y72.541 E.02491
G1 X31.068 Y71.976 E.02524
G1 X31.33 Y71.456 E.0251
G1 X31.644 Y71.057 E.02189
G1 X31.858 Y70.853 E.01273
G1 X32.078 Y71.413 F30000
;TYPE:Outer wall
G1 F6000
G1 X32.269 Y71.231 E.01139
G1 X32.464 Y71.085 E.01053
G1 X32.825 Y70.888 E.01774
G1 X33.267 Y70.748 E.01999
G1 X33.564 Y70.707 E.01292
G1 X33.976 Y70.71 E.01779
G1 X34.434 Y70.805 E.02016
G1 X34.82 Y70.968 E.01807
G1 X35.21 Y71.228 E.0202
G1 X35.539 Y71.564 E.02029
G1 X35.794 Y71.96 E.02029
G1 X35.961 Y72.398 E.0202
G1 X36.033 Y72.811 E.01808
G1 X36.024 Y73.279 E.02021
G1 X35.92 Y73.738 E.0203
G1 X35.724 Y74.164 E.02021
G1 X35.48 Y74.505 E.01808
G1 X35.139 Y74.827 E.0202
G1 X34.739 Y75.073 E.02029
G1 X34.297 Y75.232 E.02022
G1 X33.883 Y75.296 E.01808
G1 X33.415 Y75.278 E.02019
G1 X32.959 Y75.164 E.02029
G1 X32.535 Y74.96 E.0203
G1 X32.163 Y74.675 E.02021
G1 X31.885 Y74.361 E.01807
G1 X31.647 Y73.957 E.0202
G1 X31.496 Y73.513 E.02024
G1 X31.442 Y73.097 E.01807
G1 X31.469 Y72.63 E.02017
G1 X31.591 Y72.176 E.02029
G1 X31.803 Y71.757 E.02025
G1 X32.05 Y71.442 E.01726
G1 E-.5 F1800
G17
G3 Z.3 I.275 J.13 P1  F30000
G1 X38.288 Y58.272 Z.3
G1 Z.2
G1 E.5 F1800
;TYPE:Inner wall
G1 F6000
G1 X38.155 Y58.913 E.02822
G1 X37.868 Y59.596 E.03197
G1 X37.422 Y60.262 E.03455
G1 X36.84 Y60.833 E.03514
G1 X36.155 Y61.273 E.03514
G1 X35.406 Y61.559 E.03455
G1 X34.676 Y61.687 E.03197
G1 X33.874 Y61.672 E.03461
G1 X33.079 Y61.491 E.03514
G1 X32.35 Y61.156 E.03461
G1 X31.747 Y60.724 E.03197
G1 X31.197 Y60.142 E.03455
G1 X30.77 Y59.447 E.03514
G1 X30.498 Y58.691 E.03466
G1 X30.385 Y57.959 E.03197
G1 X30.416 Y57.159 E.0345
G1 X30.613 Y56.368 E.03514
G1 X30.966 Y55.634 E.03514
G1 X31.454 Y54.997 E.03461
G1 X32.01 Y54.506 E.03197
G1 X32.7 Y54.1 E.03455
G1 X33.464 Y53.841 E.03477
G1 X34.158 Y53.75 E.03018
G1 X34.722 Y53.759 E.02436
G1 X35.474 Y53.9 E.03301
G1 X36.164 Y54.173 E.03197
G1 X36.84 Y54.607 E.03466
G1 X37.422 Y55.178 E.03514
G1 X37.868 Y55.843 E.03455
G1 X38.155 Y56.527 E.03197
G1 X38.319 Y57.312 E.03461
G1 X38.319 Y58.127 E.03514
G1 X38.297 Y58.233 E.00466
G1 X37.741 Y58.167 F30000
G1 F6000
G1 X37.621 Y58.747 E.02554
G1 X37.375 Y59.331 E.02734
G1 X36.991 Y59.905 E.02977
G1 X36.491 Y60.395 E.03019
G1 X35.902 Y60.773 E.03019
G1 X35.257 Y61.02 E.02977
G1 X34.633 Y61.129 E.02734
G1 X33.942 Y61.116 E.02981
G1 X33.259 Y60.96 E.03019
G1 X32.631 Y60.672 E.02981
G1 X32.116 Y60.303 E.02734
G1 X31.642 Y59.801 E.02977
G1 X31.275 Y59.204 E.03019
G1 X31.04 Y58.553 E.02985
G1 X30.944 Y57.927 E.02734
G1 X30.971 Y57.238 E.02973
G1 X31.139 Y56.558 E.03019
G1 X31.443 Y55.928 E.03019
G1 X31.864 Y55.379 E.02981
G1 X32.339 Y54.959 E.02734
G1 X32.933 Y54.609 E.02977
G1 X33.591 Y54.386 E.02993
G1 X34.19 Y54.307 E.02605
G1 X34.666 Y54.315 E.02055
G1 X35.319 Y54.438 E.02866
G1 X35.909 Y54.671 E.02734
G1 X36.491 Y55.045 E.02985
G1 X36.991 Y55.535 E.03019
G1 X37.375 Y56.109 E.02977
G1 X37.621 Y56.693 E.02734
G1 X37.762 Y57.37 E.02981
G1 X37.762 Y58.07 E.03019
G1 X37.749 Y58.128 E.00255
G1 X37.194 Y58.062 F30000
G1 F6000
G1 X37.086 Y58.58 E.02286
G1 X36.882 Y59.066 E.02271
G1 X36.56 Y59.547 E.02499
G1 X36.142 Y59.957 E.02524
G1 X35.649 Y60.273 E.02524
G1 X35.108 Y60.48 E.02499
G1 X34.59 Y60.571 E.02271
G1 X34.01 Y60.56 E.02501
G1 X33.439 Y60.43 E.02524
G1 X32.912 Y60.188 E.02501
G1 X32.484 Y59.881 E.02271
G1 X32.086 Y59.46 E.02499
G1 X31.78 Y58.961 E.02524
G1 X31.583 Y58.415 E.02503
G1 X31.503 Y57.895 E.02271
G1 X31.525 Y57.317 E.02496
G1 X31.666 Y56.749 E.02524
G1 X31.92 Y56.221 E.02524
G1 X32.273 Y55.761 E.02501
G1 X32.668 Y55.412 E.02271
G1 X33.167 Y55.118 E.02499
G1 X33.718 Y54.931 E.02508
G1 X34.222 Y54.865 E.02193
G1 X34.61 Y54.871 E.01674
G1 X35.164 Y54.975 E.02431
G1 X35.653 Y55.169 E.02271
G1 X36.142 Y55.483 E.02503
G1 X36.56 Y55.893 E.02524
G1 X36.882 Y56.374 E.02499
G1 X37.086 Y56.859 E.02271
G1 X37.204 Y57.427 E.02501
G1 X37.204 Y58.013 E.02524
G1 X37.202 Y58.022 E.00043
G1 X36.585 Y58.255 F30000
;TYPE:Outer wall
G1 F6000
G1 X36.552 Y58.414 E.00702
G1 X36.389 Y58.8 E.01808
G1 X36.129 Y59.19 E.0202
G1 X35.793 Y59.519 E.02029
G1 X35.397 Y59.774 E.02029
G1 X34.959 Y59.941 E.0202
G1 X34.546 Y60.013 E.01808
G1 X34.078 Y60.004 E.02021
G1 X33.619 Y59.9 E.0203
G1 X33.193 Y59.704 E.02021
G1 X32.852 Y59.46 E.01808
G1 X32.531 Y59.119 E.0202
G1 X32.284 Y58.719 E.02029
G1 X32.125 Y58.277 E.02022
G1 X32.062 Y57.863 E.01807
G1 X32.08 Y57.395 E.02019
G1 X32.193 Y56.939 E.02029
G1 X32.397 Y56.515 E.02029
G1 X32.682 Y56.143 E.02021
G1 X32.996 Y55.865 E.01808
G1 X33.4 Y55.627 E.0202
G1 X33.844 Y55.476 E.02024
G1 X34.254 Y55.423 E.0178
G1 X34.553 Y55.427 E.01293
G1 X35.008 Y55.513 E.01997
G1 X35.398 Y55.667 E.01808
G1 X35.793 Y55.92 E.02022
G1 X36.129 Y56.25 E.0203
G1 X36.389 Y56.639 E.0202
G1 X36.552 Y57.026 E.01807
G1 X36.647 Y57.485 E.02021
G1 X36.647 Y57.955 E.0203
G1 X36.593 Y58.216 E.01147
G1 E-.5 F1800
G17
G3 Z.3 I.011 J.304 P1  F30000
G1 X42.4 Y58.012 Z.3
G1 Z.2
G1 E.5 F1800
;TYPE:Inner wall
G1 F6000
G1 X42.382 Y57.879 E.00578
G1 X42.428 Y57.083 E.03438
G1 X42.64 Y56.296 E.03514
G1 X43.004 Y55.575 E.03482
G1 X43.435 Y55.026 E.0301
G1 X43.806 Y54.672 E.02211
G1 X44.178 Y54.395 E.02001
G1 X44.784 Y54.064 E.02977
G1 X45.516 Y53.831 E.03314
G1 X46.075 Y53.755 E.02431
G1 X46.772 Y53.76 E.0301
G1 X47.551 Y53.922 E.03429
G1 X48.234 Y54.21 E.03197
G1 X48.9 Y54.655 E.03455
G1 X49.471 Y55.237 E.03514
G1 X49.911 Y55.923 E.03514
G1 X50.197 Y56.671 E.03455
G1 X50.325 Y57.401 E.03197
G1 X50.31 Y58.204 E.03461
G1 X50.129 Y58.998 E.03514
G1 X49.794 Y59.728 E.03461
G1 X49.362 Y60.33 E.03197
G1 X48.78 Y60.88 E.03455
G1 X48.085 Y61.307 E.03514
G1 X47.329 Y61.579 E.03466
G1 X46.597 Y61.692 E.03197
G1 X45.797 Y61.661 E.0345
G1 X45.006 Y61.465 E.03514
G1 X44.272 Y61.111 E.03514
G1 X43.635 Y60.623 E.03461
G1 X43.144 Y60.067 E.03197
G1 X42.738 Y59.377 E.03455
G1 X42.479 Y58.614 E.03477
G1 X42.405 Y58.051 E.02446
G1 X42.953 Y57.946 F30000
G1 F6000
G1 X42.942 Y57.858 E.00382
G1 X42.981 Y57.172 E.02965
G1 X43.163 Y56.496 E.03019
G1 X43.476 Y55.876 E.02996
G1 X43.849 Y55.402 E.026
G1 X44.166 Y55.098 E.01893
G1 X44.479 Y54.865 E.01685
G1 X45.004 Y54.579 E.02576
G1 X45.639 Y54.377 E.02876
G1 X46.11 Y54.312 E.02051
G1 X46.713 Y54.317 E.026
G1 X47.385 Y54.457 E.02958
G1 X47.969 Y54.702 E.02734
G1 X48.543 Y55.086 E.02977
G1 X49.033 Y55.586 E.03019
G1 X49.411 Y56.175 E.03019
G1 X49.658 Y56.82 E.02977
G1 X49.767 Y57.444 E.02734
G1 X49.754 Y58.136 E.02981
G1 X49.598 Y58.818 E.03019
G1 X49.31 Y59.446 E.02981
G1 X48.941 Y59.962 E.02734
G1 X48.439 Y60.435 E.02977
G1 X47.842 Y60.802 E.03019
G1 X47.191 Y61.037 E.02985
G1 X46.565 Y61.133 E.02734
G1 X45.876 Y61.107 E.02973
G1 X45.196 Y60.938 E.03019
G1 X44.566 Y60.634 E.03019
G1 X44.017 Y60.214 E.02981
G1 X43.597 Y59.739 E.02734
G1 X43.247 Y59.144 E.02977
G1 X43.024 Y58.487 E.02993
G1 X42.958 Y57.986 E.02179
G1 X43.506 Y57.88 F30000
G1 F6000
G1 X43.501 Y57.838 E.00186
G1 X43.534 Y57.261 E.02491
G1 X43.686 Y56.696 E.02524
G1 X43.948 Y56.176 E.0251
G1 X44.262 Y55.777 E.02189
G1 X44.526 Y55.525 E.01576
G1 X44.781 Y55.335 E.01369
G1 X45.223 Y55.093 E.02175
G1 X45.762 Y54.922 E.02437
G1 X46.146 Y54.87 E.01671
G1 X46.654 Y54.874 E.02189
G1 X47.218 Y54.991 E.02487
G1 X47.704 Y55.195 E.02271
G1 X48.185 Y55.517 E.02499
G1 X48.595 Y55.935 E.02524
G1 X48.911 Y56.428 E.02524
G1 X49.118 Y56.969 E.02499
G1 X49.209 Y57.488 E.02271
G1 X49.198 Y58.068 E.02501
G1 X49.068 Y58.638 E.02524
G1 X48.826 Y59.165 E.02501
G1 X48.519 Y59.593 E.02271
G1 X48.098 Y59.991 E.02499
G1 X47.599 Y60.298 E.02524
G1 X47.053 Y60.495 E.02503
G1 X46.533 Y60.574 E.02271
G1 X45.955 Y60.552 E.02496
G1 X45.386 Y60.411 E.02524
G1 X44.859 Y60.157 E.02524
G1 X44.399 Y59.804 E.02501
G1 X44.05 Y59.41 E.02271
