; HEADER_BLOCK_START
; generated by OrcaSlicer 1.6.6 on 2023-12-05 at 15:10:02
; total layer number: 120
; HEADER_BLOCK_END

; THUMBNAIL_BLOCK_START
; THUMBNAIL_BLOCK_END

; external perimeters extrusion width = 0.48mm
; perimeters extrusion width = 0.48mm
; infill extrusion width = 0.48mm
; solid infill extrusion width = 0.48mm
; top infill extrusion width = 0.48mm
; support material extrusion width = 0.40mm
; first layer extrusion width = 0.60mm

; external perimeters extrusion width = 0.48mm
; perimeters extrusion width = 0.48mm
; infill extrusion width = 0.48mm
; solid infill extrusion width = 0.48mm
; top infill extrusion width = 0.48mm
; support material extrusion width = 0.40mm
; first layer extrusion width = 0.60mm

; EXECUTABLE_BLOCK_START
EXCLUDE_OBJECT_DEFINE NAME=XY_Joint_Left_Bottom_x1.stl_id_0_copy_0 CENTER=60.9176,91.7173 POLYGON=[[42.4186,78.2475],[44.3186,76.3475],[76.417,76.3475],[78.283,78.2135],[78.2862,78.2207],[79.4137,81.0395],[79.4166,81.0474],[79.4166,86.6184],[79.4136,86.6269],[78.3106,89.4488],[78.3073,89.4563],[67.9186,106.687],[67.5187,107.087],[58.7586,107.087],[54.5086,105.948],[44.9777,100.446],[42.4186,97.8865],[42.4186,78.2475]]
EXCLUDE_OBJECT_DEFINE NAME=XY_Joint_Right_Bottom_x1.stl_id_1_copy_0 CENTER=60.8286,54.1268 POLYGON=[[42.3296,43.4607],[42.3325,43.4528],[43.46,40.634],[43.4632,40.6268],[45.3292,38.7608],[53.8276,38.7608],[77.3275,38.7608],[78.3276,39.7608],[79.3276,40.7608],[79.3276,60.2923],[76.7685,62.8513],[67.2376,68.354],[62.9876,69.4928],[54.2276,69.4928],[53.8276,69.0928],[43.4389,51.8696],[43.4356,51.8621],[42.3326,49.0403],[42.3296,49.0317],[42.3296,43.4607]]
M73 P0 R27
;TYPE:Custom
M104 S0
M140 S0

print_start EXTRUDER=280 BED=110

G92 E0.0
G90
G21
M83 ; use relative distances for extrusion
; Filament gcode
SET_PRESSURE_ADVANCE ADVANCE=0.015; Override pressure advance value
M106 S0
;LAYER_CHANGE
;Z:0.2
;HEIGHT:0.2
;BEFORE_LAYER_CHANGE
;0.2
G92 E0

G1 E-.5 F1800
;AFTER_LAYER_CHANGE
;0.2
SET_VELOCITY_LIMIT ACCEL=10000
SET_VELOCITY_LIMIT SQUARE_CORNER_VELOCITY=9
; printing object XY_Joint_Left_Bottom_x1.stl id:0 copy 0
EXCLUDE_OBJECT_START NAME=XY_Joint_Left_Bottom_x1.stl_id_0_copy_0
G1 X49.78 Y99.581 F30000
G1 Z.2
G1 E.5 F1800
;TYPE:Outer wall
;WIDTH:0.6
G1 F6000
G1 X49.689 Y99.693 E.00612
G1 X49.391 Y99.966 E.01705
G1 X48.997 Y100.2 E.01937
G1 X48.563 Y100.346 E.01933
G1 X48.156 Y100.398 E.01733
G1 X47.699 Y100.365 E.01935
G1 X47.258 Y100.236 E.01943
G1 X46.856 Y100.017 E.01934
G1 X46.541 Y99.754 E.01733
G1 X46.255 Y99.398 E.0193
G1 X46.072 Y99.039 E.01704
G1 X45.979 Y98.761 E.01237
G1 X45.913 Y98.313 E.01912
G1 X45.934 Y97.904 E.01733
G1 X46.048 Y97.46 E.01935
G1 X46.254 Y97.049 E.01943
G1 X46.541 Y96.692 E.01934
G1 X46.856 Y96.429 E.01733
G1 X47.258 Y96.21 E.01934
G1 X47.698 Y96.081 E.01937
G1 X48.1 Y96.048 E.01706
G1 X48.393 Y96.069 E.01239
G1 X48.831 Y96.179 E.01908
G1 X49.202 Y96.354 E.01733
G1 X49.569 Y96.629 E.01936
G1 X49.869 Y96.974 E.01935
G1 X50.072 Y97.331 E.01733
G1 X50.215 Y97.766 E.01934
G1 X50.264 Y98.223 E.01943
G1 X50.215 Y98.679 E.01935
G1 X50.091 Y99.07 E.01733
G1 X49.873 Y99.466 E.0191
G1 X49.805 Y99.55 E.00457
G1 E-.35 F1800
;WIPE_START
G1 F6000
G1 X49.689 Y99.693 E-.02635
G1 X49.391 Y99.966 E-.0575
G1 X49.037 Y100.176 E-.05865
;WIPE_END
G1 E-.0075 F1800
G17
G3 Z.3 I.12 J.28 P1  F30000
G1 X49.655 Y99.911 Z.3
G1 X49.832 Y99.835
G1 X49.9 Y99.796
G1 X50.135 Y99.655
G1 X50.371 Y99.483
G1 X50.58 Y99.279
G1 X50.664 Y99.066
G1 X50.738 Y98.793
G1 X50.784 Y98.51
G1 X50.799 Y98.223
G1 X50.755 Y87.692
G1 X50.734 Y87.402
G1 X50.684 Y87.116
G1 X50.605 Y86.836
G1 X50.498 Y86.566
G1 X50.364 Y86.309
G1 X50.206 Y86.071
G1 X50.062 Y85.89
G1 X49.865 Y85.683
G1 X49.644 Y85.495
G1 X49.375 Y85.289
G1 Z.2
G1 E.5 F1800
;TYPE:Inner wall
G1 F6000
G1 X49.417 Y85.309 E.002
G1 X49.878 Y85.662 E.0245
G1 X50.226 Y86.057 E.02224
G1 X50.52 Y86.556 E.02448
G1 X50.709 Y87.11 E.02473
G1 X50.78 Y87.691 E.02473
G1 X50.731 Y88.269 E.02448
G1 X50.588 Y88.775 E.02224
G1 X50.327 Y89.293 E.0245
G1 X49.962 Y89.751 E.02473
G1 X49.515 Y90.121 E.0245
G1 X49.053 Y90.373 E.02224
G1 X48.501 Y90.549 E.02448
G1 X47.919 Y90.609 E.02473
G1 X47.336 Y90.549 E.02473
G1 X46.784 Y90.373 E.02448
G1 X46.322 Y90.121 E.02224
G1 X45.876 Y89.751 E.0245
G1 X45.511 Y89.293 E.02473
G1 X45.249 Y88.775 E.0245
G1 X45.106 Y88.269 E.02224
G1 X45.058 Y87.691 E.02448
G1 X45.129 Y87.11 E.02473
G1 X45.317 Y86.556 E.02473
G1 X45.611 Y86.057 E.02448
G1 X45.96 Y85.662 E.02224
G1 X46.417 Y85.311 E.02437
G1 X46.873 Y85.088 E.02145
G1 X47.242 Y84.968 E.01637
G1 X47.801 Y84.889 E.02388
G1 X48.327 Y84.916 E.02224
G1 X48.89 Y85.055 E.0245
G1 X49.339 Y85.271 E.02104
G1 X49.299 Y85.92 F30000
;TYPE:Outer wall
G1 F6000
G1 X49.496 Y86.072 E.0105
G1 X49.774 Y86.386 E.01771
G1 X50.011 Y86.789 E.01979
G1 X50.163 Y87.235 E.01988
G1 X50.22 Y87.702 E.01988
G1 X50.181 Y88.169 E.01979
G1 X50.067 Y88.572 E.01771
G1 X49.855 Y88.991 E.0198
G1 X49.562 Y89.358 E.01988
G1 X49.201 Y89.658 E.0198
G1 X48.833 Y89.858 E.01771
G1 X48.387 Y90 E.01979
G1 X47.919 Y90.049 E.01988
G1 X47.451 Y90 E.01988
G1 X47.004 Y89.858 E.01979
G1 X46.636 Y89.658 E.01771
G1 X46.275 Y89.358 E.0198
G1 X45.982 Y88.991 E.01988
G1 X45.771 Y88.572 E.0198
G1 X45.657 Y88.169 E.01771
G1 X45.618 Y87.702 E.01979
G1 X45.675 Y87.235 E.01988
G1 X45.826 Y86.789 E.01988
G1 X46.064 Y86.386 E.01979
G1 X46.341 Y86.072 E.01771
G1 X46.712 Y85.787 E.01975
G1 X47.083 Y85.605 E.01743
G1 X47.368 Y85.513 E.01265
G1 X47.827 Y85.448 E.01958
G1 X48.245 Y85.469 E.01771
G1 X48.7 Y85.582 E.0198
G1 X49.124 Y85.786 E.01988
G1 X49.267 Y85.896 E.00761
G1 E-.5 F1800
G17
G3 Z.3 I-.244 J.182 P1  F30000
G1 X56.82 Y96.025 Z.3
G1 Z.2
G1 E.5 F1800
;TYPE:Inner wall
G1 F6000
G1 X57.118 Y95.802 E.01571
G1 X57.725 Y95.472 E.02917
G1 X58.457 Y95.239 E.03247
G1 X59.015 Y95.163 E.02381
G1 X59.713 Y95.168 E.02948
G1 X60.492 Y95.33 E.03359
G1 X61.175 Y95.617 E.03132
G1 X61.841 Y96.063 E.03385
G1 X62.412 Y96.644 E.03442
G1 X62.852 Y97.33 E.03442
G1 X63.138 Y98.079 E.03385
G1 X63.266 Y98.809 E.03132
G1 X63.251 Y99.611 E.0339
G1 X63.069 Y100.406 E.03442
G1 X62.735 Y101.135 E.0339
G1 X62.303 Y101.737 E.03132
G1 X61.72 Y102.287 E.03385
G1 X61.026 Y102.714 E.03442
G1 X60.27 Y102.987 E.03395
G1 X59.537 Y103.099 E.03132
G1 X58.738 Y103.069 E.03379
G1 X57.947 Y102.872 E.03442
G1 X57.213 Y102.519 E.03442
G1 X56.576 Y102.03 E.0339
G1 X56.085 Y101.475 E.03132
G1 X55.679 Y100.785 E.03385
G1 X55.42 Y100.021 E.03406
G1 X55.323 Y99.286 E.03132
G1 X55.369 Y98.49 E.03368
G1 X55.58 Y97.703 E.03442
G1 X55.945 Y96.983 E.03411
G1 X56.376 Y96.434 E.02948
G1 X56.747 Y96.08 E.02166
G1 X56.788 Y96.049 E.0022
G1 X57.156 Y96.47 F30000
G1 F6000
G1 X57.42 Y96.272 E.01392
G1 X57.944 Y95.986 E.02524
G1 X58.58 Y95.784 E.02817
G1 X59.051 Y95.72 E.02009
G1 X59.654 Y95.724 E.02546
G1 X60.325 Y95.864 E.02898
G1 X60.91 Y96.11 E.02678
G1 X61.483 Y96.494 E.02916
G1 X61.974 Y96.994 E.02958
G1 X62.352 Y97.583 E.02958
G1 X62.599 Y98.228 E.02916
G1 X62.708 Y98.852 E.02678
G1 X62.695 Y99.543 E.0292
G1 X62.539 Y100.226 E.02958
G1 X62.251 Y100.854 E.0292
G1 X61.881 Y101.369 E.02678
G1 X61.38 Y101.843 E.02916
G1 X60.783 Y102.21 E.02958
G1 X60.132 Y102.445 E.02924
G1 X59.506 Y102.541 E.02678
G1 X58.817 Y102.514 E.02912
G1 X58.137 Y102.345 E.02958
G1 X57.506 Y102.042 E.02958
G1 X56.958 Y101.621 E.0292
G1 X56.538 Y101.146 E.02678
G1 X56.188 Y100.551 E.02916
G1 X55.965 Y99.894 E.02932
G1 X55.882 Y99.266 E.02678
G1 X55.922 Y98.579 E.02904
G1 X56.104 Y97.903 E.02957
G1 X56.417 Y97.283 E.02935
G1 X56.789 Y96.809 E.02546
G1 X57.107 Y96.506 E.01855
G1 X57.124 Y96.493 E.00089
G1 X57.445 Y96.953 F30000
G1 F6000
G1 X57.467 Y96.932 E.00128
G1 X57.721 Y96.743 E.01341
G1 X58.164 Y96.501 E.02131
G1 X58.703 Y96.33 E.02388
G1 X59.087 Y96.277 E.01637
G1 X59.594 Y96.281 E.02144
G1 X60.159 Y96.399 E.02437
G1 X60.644 Y96.603 E.02224
G1 X61.126 Y96.925 E.02448
G1 X61.536 Y97.343 E.02473
G1 X61.852 Y97.835 E.02473
G1 X62.059 Y98.377 E.02448
G1 X62.15 Y98.895 E.02224
G1 X62.139 Y99.475 E.0245
G1 X62.009 Y100.046 E.02473
G1 X61.767 Y100.573 E.0245
G1 X61.46 Y101.001 E.02224
G1 X61.039 Y101.399 E.02448
G1 X60.54 Y101.705 E.02473
G1 X59.994 Y101.902 E.02452
G1 X59.474 Y101.982 E.02224
G1 X58.895 Y101.96 E.02445
G1 X58.327 Y101.819 E.02473
G1 X57.8 Y101.565 E.02473
G1 X57.34 Y101.212 E.0245
G1 X56.991 Y100.817 E.02224
G1 X56.697 Y100.318 E.02448
G1 X56.51 Y99.767 E.02457
G1 X56.442 Y99.245 E.02224
G1 X56.475 Y98.669 E.0244
G1 X56.627 Y98.103 E.02473
G1 X56.889 Y97.584 E.02459
G1 X57.203 Y97.185 E.02144
G1 X57.416 Y96.981 E.01247
G1 X57.636 Y97.541 F30000
;TYPE:Outer wall
G1 F6000
G1 X57.827 Y97.359 E.01116
G1 X58.023 Y97.213 E.01031
G1 X58.384 Y97.016 E.01738
G1 X58.826 Y96.875 E.01958
G1 X59.123 Y96.835 E.01266
G1 X59.535 Y96.838 E.01742
G1 X59.993 Y96.933 E.01975
G1 X60.379 Y97.096 E.01771
G1 X60.769 Y97.356 E.01979
G1 X61.098 Y97.692 E.01988
G1 X61.352 Y98.088 E.01988
G1 X61.52 Y98.526 E.01979
G1 X61.592 Y98.938 E.01771
G1 X61.583 Y99.407 E.0198
G1 X61.478 Y99.866 E.01988
G1 X61.283 Y100.292 E.0198
G1 X61.039 Y100.633 E.01771
G1 X60.698 Y100.954 E.01979
G1 X60.297 Y101.201 E.01988
G1 X59.856 Y101.36 E.01981
G1 X59.442 Y101.423 E.01771
G1 X58.974 Y101.405 E.01978
G1 X58.517 Y101.292 E.01988
G1 X58.093 Y101.088 E.01988
G1 X57.721 Y100.803 E.0198
G1 X57.444 Y100.489 E.01771
G1 X57.206 Y100.085 E.01979
G1 X57.055 Y99.64 E.01983
G1 X57.001 Y99.225 E.01771
G1 X57.028 Y98.758 E.01976
G1 X57.15 Y98.304 E.01988
G1 X57.361 Y97.885 E.01983
G1 X57.609 Y97.57 E.01691
G1 E-.5 F1800
G17
G3 Z.3 I.275 J.13 P1  F30000
G1 X63.847 Y84.4 Z.3
G1 Z.2
G1 E.5 F1800
;TYPE:Inner wall
G1 F6000
G1 X63.714 Y85.041 E.02764
G1 X63.426 Y85.724 E.03132
G1 X62.981 Y86.39 E.03385
G1 X62.399 Y86.96 E.03442
G1 X61.713 Y87.401 E.03442
G1 X60.965 Y87.687 E.03385
G1 X60.235 Y87.815 E.03132
G1 X59.432 Y87.8 E.0339
G1 X58.638 Y87.618 E.03442
G1 X57.908 Y87.284 E.0339
G1 X57.306 Y86.852 E.03132
G1 X56.756 Y86.269 E.03385
G1 X56.329 Y85.575 E.03442
G1 X56.057 Y84.819 E.03395
G1 X55.944 Y84.086 E.03132
G1 X55.975 Y83.287 E.03379
G1 X56.171 Y82.496 E.03442
G1 X56.525 Y81.762 E.03442
G1 X57.013 Y81.125 E.0339
G1 X57.569 Y80.634 E.03132
G1 X58.259 Y80.227 E.03385
G1 X59.022 Y79.968 E.03406
G1 X59.716 Y79.877 E.02956
G1 X60.281 Y79.886 E.02386
G1 X61.033 Y80.028 E.03234
G1 X61.723 Y80.3 E.03132
G1 X62.399 Y80.734 E.03395
G1 X62.981 Y81.305 E.03442
G1 X63.426 Y81.971 E.03385
G1 X63.714 Y82.654 E.03132
G1 X63.877 Y83.44 E.0339
G1 X63.877 Y84.255 E.03442
G1 X63.855 Y84.361 E.00457
G1 X63.3 Y84.295 F30000
G1 F6000
G1 X63.179 Y84.874 E.02502
G1 X62.934 Y85.459 E.02678
G1 X62.55 Y86.032 E.02916
G1 X62.05 Y86.523 E.02958
G1 X61.461 Y86.901 E.02958
G1 X60.816 Y87.147 E.02916
G1 X60.192 Y87.257 E.02678
G1 X59.5 Y87.244 E.0292
G1 X58.818 Y87.088 E.02958
G1 X58.19 Y86.8 E.0292
G1 X57.674 Y86.43 E.02678
G1 X57.201 Y85.928 E.02916
G1 X56.834 Y85.332 E.02958
G1 X56.599 Y84.681 E.02924
G1 X56.503 Y84.054 E.02678
G1 X56.529 Y83.366 E.02912
G1 X56.698 Y82.686 E.02958
G1 X57.002 Y82.055 E.02958
G1 X57.422 Y81.507 E.0292
G1 X57.897 Y81.087 E.02678
G1 X58.492 Y80.737 E.02916
G1 X59.149 Y80.514 E.02932
G1 X59.748 Y80.435 E.02552
G1 X60.225 Y80.442 E.02013
G1 X60.878 Y80.565 E.02808
G1 X61.467 Y80.799 E.02678
G1 X62.05 Y81.172 E.02924
G1 X62.55 Y81.663 E.02958
G1 X62.934 Y82.236 E.02916
G1 X63.179 Y82.821 E.02678
G1 X63.32 Y83.497 E.0292
G1 X63.32 Y84.198 E.02958
G1 X63.308 Y84.255 E.00249
G1 X62.753 Y84.189 F30000
G1 F6000
G1 X62.645 Y84.708 E.02239
G1 X62.441 Y85.193 E.02224
G1 X62.119 Y85.675 E.02448
G1 X61.701 Y86.085 E.02473
G1 X61.208 Y86.401 E.02473
G1 X60.667 Y86.608 E.02448
G1 X60.148 Y86.699 E.02224
G1 X59.568 Y86.688 E.0245
G1 X58.998 Y86.558 E.02473
G1 X58.471 Y86.316 E.0245
G1 X58.043 Y86.009 E.02224
G1 X57.645 Y85.588 E.02448
G1 X57.338 Y85.089 E.02473
G1 X57.141 Y84.543 E.02452
G1 X57.062 Y84.023 E.02224
G1 X57.084 Y83.444 E.02445
G1 X57.225 Y82.876 E.02473
G1 X57.479 Y82.349 E.02473
G1 X57.832 Y81.888 E.0245
G1 X58.226 Y81.54 E.02224
G1 X58.725 Y81.246 E.02448
G1 X59.276 Y81.059 E.02457
G1 X59.78 Y80.993 E.02148
G1 X60.168 Y80.999 E.0164
G1 X60.723 Y81.103 E.02382
G1 X61.212 Y81.297 E.02224
G1 X61.701 Y81.61 E.02452
G1 X62.119 Y82.02 E.02473
G1 X62.441 Y82.502 E.02448
G1 X62.645 Y82.987 E.02224
G1 X62.763 Y83.555 E.0245
G1 X62.763 Y84.14 E.02473
G1 X62.761 Y84.15 E.00042
G1 X62.144 Y84.382 F30000
;TYPE:Outer wall
G1 F6000
G1 X62.111 Y84.542 E.00687
G1 X61.948 Y84.928 E.01771
G1 X61.688 Y85.317 E.01979
G1 X61.352 Y85.647 E.01988
G1 X60.956 Y85.901 E.01988
G1 X60.518 Y86.068 E.01979
G1 X60.105 Y86.141 E.01771
G1 X59.637 Y86.132 E.0198
G1 X59.178 Y86.027 E.01988
G1 X58.752 Y85.832 E.0198
G1 X58.411 Y85.588 E.01771
G1 X58.089 Y85.247 E.01979
G1 X57.843 Y84.846 E.01988
G1 X57.684 Y84.405 E.01981
G1 X57.62 Y83.991 E.01771
G1 X57.638 Y83.523 E.01978
G1 X57.752 Y83.066 E.01988
G1 X57.956 Y82.642 E.01988
G1 X58.241 Y82.27 E.0198
G1 X58.555 Y81.993 E.01771
G1 X58.959 Y81.755 E.01979
G1 X59.403 Y81.604 E.01982
G1 X59.812 Y81.55 E.01744
G1 X60.112 Y81.555 E.01266
G1 X60.567 Y81.641 E.01956
G1 X60.957 Y81.795 E.01771
G1 X61.352 Y82.048 E.01981
G1 X61.688 Y82.378 E.01988
G1 X61.948 Y82.767 E.01979
G1 X62.111 Y83.153 E.01771
G1 X62.206 Y83.612 E.0198
G1 X62.206 Y84.083 E.01988
G1 X62.152 Y84.343 E.01124
G1 E-.5 F1800
G17
G3 Z.3 I.011 J.304 P1  F30000
G1 X67.959 Y84.139 Z.3
G1 Z.2
G1 E.5 F1800
;TYPE:Inner wall
G1 F6000
G1 X67.941 Y84.006 E.00567
G1 X67.987 Y83.21 E.03368
G1 X68.198 Y82.423 E.03442
G1 X68.563 Y81.703 E.03411
G1 X68.994 Y81.154 E.02949
G1 X69.365 Y80.8 E.02166
G1 X69.736 Y80.522 E.0196
G1 X70.342 Y80.192 E.02917
G1 X71.075 Y79.959 E.03247
G1 X71.633 Y79.883 E.02381
G1 X72.331 Y79.888 E.02948
G1 X73.11 Y80.05 E.03359
G1 X73.793 Y80.337 E.03132
G1 X74.459 Y80.783 E.03385
G1 X75.03 Y81.365 E.03442
G1 X75.47 Y82.05 E.03442
G1 X75.756 Y82.799 E.03385
G1 X75.884 Y83.529 E.03132
G1 X75.869 Y84.331 E.0339
G1 X75.687 Y85.126 E.03442
G1 X75.353 Y85.855 E.0339
G1 X74.921 Y86.457 E.03132
G1 X74.338 Y87.007 E.03385
G1 X73.644 Y87.434 E.03442
G1 X72.888 Y87.707 E.03395
G1 X72.155 Y87.819 E.03132
G1 X71.356 Y87.789 E.03379
G1 X70.565 Y87.592 E.03442
G1 X69.831 Y87.239 E.03443
G1 X69.194 Y86.75 E.0339
G1 X68.703 Y86.195 E.03132
G1 X68.296 Y85.505 E.03385
G1 X68.038 Y84.741 E.03406
G1 X67.964 Y84.179 E.02396
G1 X68.512 Y84.074 F30000
G1 F6000
G1 X68.5 Y83.986 E.00374
G1 X68.54 Y83.299 E.02904
G1 X68.721 Y82.623 E.02957
G1 X69.035 Y82.003 E.02935
G1 X69.407 Y81.529 E.02547
G1 X69.725 Y81.226 E.01855
G1 X70.038 Y80.992 E.0165
G1 X70.562 Y80.706 E.02524
G1 X71.198 Y80.504 E.02817
G1 X71.669 Y80.44 E.02009
G1 X72.272 Y80.444 E.02546
G1 X72.943 Y80.584 E.02898
G1 X73.528 Y80.83 E.02678
G1 X74.101 Y81.214 E.02916
G1 X74.592 Y81.714 E.02958
G1 X74.97 Y82.303 E.02958
G1 X75.216 Y82.948 E.02916
G1 X75.326 Y83.572 E.02678
G1 X75.313 Y84.263 E.0292
G1 X75.157 Y84.946 E.02958
G1 X74.869 Y85.574 E.0292
G1 X74.499 Y86.089 E.02678
G1 X73.997 Y86.563 E.02916
G1 X73.401 Y86.93 E.02958
G1 X72.75 Y87.165 E.02924
G1 X72.123 Y87.261 E.02678
G1 X71.435 Y87.234 E.02912
G1 X70.755 Y87.066 E.02958
G1 X70.124 Y86.762 E.02958
G1 X69.576 Y86.341 E.0292
G1 X69.156 Y85.866 E.02678
G1 X68.806 Y85.271 E.02916
G1 X68.583 Y84.614 E.02931
G1 X68.517 Y84.113 E.02135
G1 X69.065 Y84.008 F30000
G1 F6000
G1 X69.059 Y83.965 E.00182
G1 X69.093 Y83.389 E.0244
G1 X69.245 Y82.823 E.02472
G1 X69.507 Y82.304 E.02459
G1 X69.821 Y81.905 E.02145
G1 X70.085 Y81.652 E.01544
G1 X70.339 Y81.463 E.01341
G1 X70.782 Y81.221 E.02131
G1 X71.321 Y81.05 E.02388
G1 X71.705 Y80.997 E.01637
G1 X72.212 Y81.001 E.02144
G1 X72.777 Y81.119 E.02437
G1 X73.262 Y81.323 E.02224
G1 X73.744 Y81.645 E.02448
G1 X74.154 Y82.063 E.02473
G1 X74.47 Y82.555 E.02473
G1 X74.677 Y83.097 E.02448
G1 X74.768 Y83.615 E.02224
G1 X74.757 Y84.195 E.0245
G1 X74.627 Y84.766 E.02473
G1 X74.385 Y85.293 E.0245
G1 X74.078 Y85.721 E.02224
G1 X73.657 Y86.119 E.02448
G1 X73.158 Y86.425 E.02473
G1 X72.612 Y86.622 E.02452
G1 X72.092 Y86.702 E.02224
G1 X71.513 Y86.68 E.02445
G1 X70.945 Y86.539 E.02473
G1 X70.418 Y86.285 E.02473
